; generated by SuperSlicer 2.5.59.8 on 2024-03-01 at 09:45:20 UTC


;
;

;
;
; 

; external perimeters extrusion width = 0.50mm
; perimeters extrusion width = 0.50mm
; infill extrusion width = 0.50mm
; solid infill extrusion width = 0.50mm
; top infill extrusion width = 0.50mm
; first layer extrusion width = 0.50mm

; object:{"name":"ringing_tower","id":"ringing_tower.stl id:0 copy 0","object_center":[112.500000,112.500000,0.000000],"boundingbox_center":[112.500000,112.500000,30.000000],"boundingbox_size":[120.000000,120.000000,60.000000]}
EXCLUDE_OBJECT_DEFINE NAME=ringing_tower_stl_id_0_copy_0 CENTER=112.500000,112.500000 POLYGON=[[52.50,52.50],[172.50,52.50],[172.50,60.50],[60.50,172.50],[52.50,172.50],[52.50,52.50]]
; plater:{"center":[112.500000,112.500000,0.000000],"boundingbox_center":[112.500000,112.500000,30.000000],"boundingbox_size":[120.000000,120.000000,60.000000]}

M73 P0 R85
M107
;TYPE:Custom
; custom gcode: start_gcode
G90 ; use absolute coordinates
M83 ; extruder relative mode
M140 S60 ; set final bed temp
M104 S150 ; set temporary nozzle temp to prevent oozing during homing and auto bed leveling
G4 S10 ; allow partial nozzle warmup
G28 ; home all axis
G1 Z50 F240
G1 X2 Y10 F3000
M104 S210 ; set final nozzle temp
M190 S60 ; wait for bed temp to stabilize
M109 S210 ; wait for nozzle temp to stabilize
M73 P0 R84
G1 Z0.28 F240
G92 E0
G1 Y140 E10 F1500 ; prime the nozzle
G1 X2.3 F5000
G92 E0
G1 Y10 E10 F1200 ; prime the nozzle
G92 E0

; custom gcode end: start_gcode

G21 ; set units to millimeters
G90 ; use absolute coordinates
M83 ; use relative distances for extrusion
ACTIVATE_EXTRUDER EXTRUDER=extruder
; custom gcode: start_filament_gcode
; Filament gcode
; Macro syntax: https://help.prusa3d.com/article/macros_1775

; Set pressure advance per-filament
;SET_PRESSURE_ADVANCE ADVANCE=0.0x

; Set pressure advance per-filament for different nozzle sizes
;SET_PRESSURE_ADVANCE ADVANCE=0.0x
;

; custom gcode end: start_filament_gcode
;LAYER_CHANGE
;Z:0.25
;HEIGHT:0.25
G1 Z0.25 F27000
G92 E0
M73 P1 R84
G1 E-0.5 F1800
G1 Z0.45 F27000
M204 S2000
G1 X50.482 Y49.677
G1 Z0.25
G1 E0.5 F1800
;TYPE:Skirt
;WIDTH:0.46
G1 X52.6 Y48.99 E0.09403
G1 X172.4 Y48.99 E5.05977
G1 X174.041 Y49.385 E0.07127
G1 X175.323 Y50.482 E0.07127
G1 X176.01 Y52.6 E0.09403
G1 X176.01 Y60.4 E0.32943
G1 X175.615 Y62.041 E0.07127
G1 X174.952 Y62.952 E0.0476
G1 X62.952 Y174.952 E6.6897
G1 X61.513 Y175.834 E0.07127
G1 X60.4 Y176.01 E0.0476
G1 X52.6 Y176.01 E0.32943
G1 X50.959 Y175.615 E0.07127
G1 X49.677 Y174.518 E0.07127
G1 X48.99 Y172.4 E0.09403
G1 X48.99 Y52.6 E5.05977
G1 X49.385 Y50.959 E0.07127
G1 X50.482 Y49.677 E0.07127
G1 X50.803 Y49.978 F27000
G1 F1800
G1 X50.875 Y49.901 E0.00443
G1 X52.6 Y49.397 E0.0759
G1 X172.4 Y49.397 E5.05977
G1 X173.939 Y49.791 E0.06708
G1 X175.099 Y50.875 E0.06708
G1 X175.603 Y52.6 E0.0759
G1 X175.603 Y60.4 E0.32943
G1 X175.209 Y61.939 E0.06708
G1 X174.665 Y62.665 E0.03834
G1 X62.665 Y174.665 E6.6897
G1 X61.299 Y175.475 E0.06708
G1 X60.4 Y175.603 E0.03834
G1 X52.6 Y175.603 E0.32943
G1 X51.061 Y175.209 E0.06708
G1 X49.901 Y174.125 E0.06708
G1 X49.397 Y172.4 E0.0759
G1 X49.397 Y52.6 E5.05977
G1 X49.791 Y51.061 E0.06708
M73 P1 R83
G1 X50.803 Y49.978 E0.06265
G1 E-0.5
M204 S4000
G1 Z0.45 F27000
; printing object ringing_tower.stl id:0 copy 0
EXCLUDE_OBJECT_START NAME=ringing_tower_stl_id_0_copy_0
; acceleration to travel
M204 S10000
G1 X85.632 Y57.134
; decel to extrusion
M204 S1000
G1 X89.115 Y57.85
; end travel
G1 Z0.25
G1 E0.5 F1800
;TYPE:External perimeter
;WIDTH:0.5
G1 X89.311 Y57.473 E0.01971
G1 X86.074 Y52.85 E0.26184
G1 X124.917 Y52.85 E1.80205
G1 X128.418 Y57.85 E0.28317
G1 X136.283 Y57.85 E0.36485
G1 X139.784 Y52.85 E0.28317
G1 X172.15 Y52.85 E1.50156
G1 X172.15 Y60.15 E0.33867
G1 X120.645 Y60.15 E2.38945
G1 X119.145 Y58.65 E0.09841
G1 X113.855 Y58.65 E0.24541
G1 X112.355 Y60.15 E0.09841
G1 X60.15 Y60.15 E2.42193
G1 X60.15 Y94.713 E1.60349
G1 X58.65 Y96.441 E0.10613
G1 X58.65 Y102.459 E0.27922
G1 X60.15 Y104.186 E0.10613
G1 X60.15 Y128.814 E1.14254
G1 X58.65 Y130.541 E0.10613
G1 X58.65 Y136.559 E0.27922
G1 X60.15 Y138.287 E0.10613
G1 X60.15 Y172.15 E1.57102
G1 X52.85 Y172.15 E0.33867
G1 X52.85 Y139.721 E1.50448
G1 X57.473 Y142.958 E0.26184
G1 X57.85 Y142.762 E0.01971
G1 X57.85 Y135.885 E0.31902
G1 X57.473 Y135.689 E0.01971
G1 X52.85 Y138.926 E0.26184
G1 X52.85 Y100.083 E1.80205
G1 X57.85 Y96.582 E0.28317
G1 X57.85 Y88.717 E0.36485
G1 X52.85 Y85.216 E0.28317
G1 X52.85 Y52.85 E1.50156
G1 X85.279 Y52.85 E1.50448
M73 P2 R83
G1 X82.042 Y57.473 E0.26184
G1 X82.238 Y57.85 E0.01971
G1 X89.115 Y57.85 E0.31902
;WIPE_START
M204 S4000
G1 X89.494 Y57.976 F27000
;WIPE_END
G1 E-0.5 F1800
G1 Z0.45 F27000
; acceleration to travel
M204 S10000
G1 X63.295 Y123.603
; decel to extrusion
M204 S2000
G1 X57.984 Y136.906
; end travel
G1 Z0.25
G1 E0.5 F1800
;TYPE:Solid infill
;WIDTH:0.483829
G1 F3600
G1 X60.016 Y138.938 E0.12902
G1 X60.016 Y139.57 F27000
G1 F3600
G1 X57.984 Y137.537 E0.12902
G1 X57.984 Y138.169 F27000
G1 F3600
G1 X60.016 Y140.201 E0.12902
G1 X60.016 Y140.832 F27000
G1 F3600
G1 X57.984 Y138.8 E0.12902
G1 X57.984 Y139.431 F27000
G1 F3600
G1 X60.016 Y141.463 E0.12902
G1 X60.016 Y142.095 F27000
G1 F3600
G1 X57.984 Y140.062 E0.12902
G1 X57.984 Y140.694 F27000
G1 F3600
G1 X60.016 Y142.726 E0.12902
G1 X60.016 Y143.357 F27000
G1 F3600
G1 X57.984 Y141.325 E0.12902
G1 X57.984 Y141.956 F27000
G1 F3600
G1 X60.016 Y143.988 E0.12902
G1 X60.016 Y144.619 F27000
G1 F3600
G1 X57.984 Y142.587 E0.12902
G1 X57.737 Y142.972 F27000
G1 F3600
G1 X60.016 Y145.251 E0.14469
G1 X60.016 Y145.882 F27000
G1 F3600
G1 X56.747 Y142.613 E0.20753
G1 E-0.5 F1800
M204 S4000
G1 Z0.45 F27000
M204 S2000
G1 X54.642 Y141.139
G1 Z0.25
G1 E0.5 F1800
G1 F3600
G1 X60.016 Y146.513 E0.34121
G1 X60.016 Y147.144 F27000
G1 F3600
G1 X52.984 Y140.112 E0.44646
G1 X52.984 Y140.743 F27000
G1 F3600
G1 X60.016 Y147.776 E0.44646
G1 X60.016 Y148.407 F27000
G1 F3600
G1 X52.984 Y141.375 E0.44646
G1 X52.984 Y142.006 F27000
G1 F3600
G1 X60.016 Y149.038 E0.44646
G1 X60.016 Y149.669 F27000
G1 F3600
G1 X52.984 Y142.637 E0.44646
G1 X52.984 Y143.268 F27000
G1 F3600
G1 X60.016 Y150.301 E0.44646
G1 X60.016 Y150.932 F27000
G1 F3600
G1 X52.984 Y143.9 E0.44646
G1 X52.984 Y144.531 F27000
G1 F3600
G1 X60.016 Y151.563 E0.44646
G1 X60.016 Y152.194 F27000
G1 F3600
G1 X52.984 Y145.162 E0.44646
G1 X52.984 Y145.793 F27000
G1 F3600
G1 X60.016 Y152.826 E0.44646
G1 X60.016 Y153.457 F27000
G1 F3600
G1 X52.984 Y146.425 E0.44646
G1 X52.984 Y147.056 F27000
G1 F3600
G1 X60.016 Y154.088 E0.44646
G1 X60.016 Y154.719 F27000
G1 F3600
G1 X52.984 Y147.687 E0.44646
G1 X52.984 Y148.318 F27000
G1 F3600
G1 X60.016 Y155.35 E0.44646
G1 X60.016 Y155.982 F27000
G1 F3600
G1 X52.984 Y148.949 E0.44646
G1 X52.984 Y149.581 F27000
G1 F3600
G1 X60.016 Y156.613 E0.44646
G1 X60.016 Y157.244 F27000
G1 F3600
G1 X52.984 Y150.212 E0.44646
G1 X52.984 Y150.843 F27000
G1 F3600
G1 X60.016 Y157.875 E0.44646
G1 X60.016 Y158.507 F27000
G1 F3600
G1 X52.984 Y151.474 E0.44646
G1 X52.984 Y152.106 F27000
G1 F3600
G1 X60.016 Y159.138 E0.44646
G1 X60.016 Y159.769 F27000
G1 F3600
G1 X52.984 Y152.737 E0.44646
G1 X52.984 Y153.368 F27000
G1 F3600
G1 X60.016 Y160.4 E0.44646
G1 X60.016 Y161.032 F27000
G1 F3600
G1 X52.984 Y153.999 E0.44646
G1 X52.984 Y154.631 F27000
G1 F3600
G1 X60.016 Y161.663 E0.44646
G1 X60.016 Y162.294 F27000
G1 F3600
G1 X52.984 Y155.262 E0.44646
G1 X52.984 Y155.893 F27000
G1 F3600
G1 X60.016 Y162.925 E0.44646
G1 X60.016 Y163.556 F27000
G1 F3600
G1 X52.984 Y156.524 E0.44646
G1 X52.984 Y157.155 F27000
G1 F3600
G1 X60.016 Y164.188 E0.44646
G1 X60.016 Y164.819 F27000
G1 F3600
G1 X52.984 Y157.787 E0.44646
G1 X52.984 Y158.418 F27000
G1 F3600
G1 X60.016 Y165.45 E0.44646
G1 X60.016 Y166.081 F27000
G1 F3600
G1 X52.984 Y159.049 E0.44646
G1 X52.984 Y159.68 F27000
G1 F3600
G1 X60.016 Y166.713 E0.44646
G1 X60.016 Y167.344 F27000
G1 F3600
G1 X52.984 Y160.312 E0.44646
G1 X52.984 Y160.943 F27000
G1 F3600
G1 X60.016 Y167.975 E0.44646
G1 X60.016 Y168.606 F27000
G1 F3600
G1 X52.984 Y161.574 E0.44646
G1 X52.984 Y162.205 F27000
G1 F3600
G1 X60.016 Y169.238 E0.44646
G1 X60.016 Y169.869 F27000
G1 F3600
G1 X52.984 Y162.837 E0.44646
G1 X52.984 Y163.468 F27000
G1 F3600
G1 X60.016 Y170.5 E0.44646
G1 X60.016 Y171.131 F27000
G1 F3600
G1 X52.984 Y164.099 E0.44646
G1 X52.984 Y164.73 F27000
G1 F3600
G1 X60.016 Y171.762 E0.44646
G1 X59.639 Y172.016 F27000
G1 F3600
G1 X52.984 Y165.361 E0.42248
G1 X52.984 Y165.993 F27000
G1 F3600
G1 X59.007 Y172.016 E0.38241
G1 X58.376 Y172.016 F27000
G1 F3600
G1 X52.984 Y166.624 E0.34233
G1 X52.984 Y167.255 F27000
G1 F3600
G1 X57.745 Y172.016 E0.30226
G1 X57.114 Y172.016 F27000
G1 F3600
G1 X52.984 Y167.886 E0.26218
G1 X52.984 Y168.518 F27000
G1 F3600
G1 X56.482 Y172.016 E0.22211
G1 X55.851 Y172.016 F27000
G1 F3600
G1 X52.984 Y169.149 E0.18203
G1 X52.984 Y169.78 F27000
G1 F3600
G1 X55.22 Y172.016 E0.14196
G1 X54.589 Y172.016 F27000
G1 F3600
G1 X52.984 Y170.411 E0.10188
G1 X52.984 Y171.043 F27000
G1 F3600
G1 X53.957 Y172.016 E0.06181
G1 E-0.5 F1800
M204 S4000
G1 Z0.45 F27000
; acceleration to travel
M204 S10000
G1 X151.588 Y72.823
; decel to extrusion
M204 S2000
G1 X171.114 Y52.984
; end travel
G1 Z0.25
G1 E0.5 F1800
G1 F3600
G1 X172.016 Y53.886 E0.05728
G1 X172.016 Y54.517 F27000
G1 F3600
G1 X170.483 Y52.984 E0.09736
G1 X169.851 Y52.984 F27000
G1 F3600
G1 X172.016 Y55.149 E0.13743
G1 X172.016 Y55.78 F27000
G1 F3600
G1 X169.22 Y52.984 E0.17751
G1 X168.589 Y52.984 F27000
G1 F3600
G1 X172.016 Y56.411 E0.21758
G1 X172.016 Y57.042 F27000
G1 F3600
G1 X167.958 Y52.984 E0.25766
G1 X167.326 Y52.984 F27000
G1 F3600
G1 X172.016 Y57.674 E0.29773
G1 X172.016 Y58.305 F27000
G1 F3600
G1 X166.695 Y52.984 E0.33781
G1 X166.064 Y52.984 F27000
G1 F3600
G1 X172.016 Y58.936 E0.37789
G1 X172.016 Y59.567 F27000
G1 F3600
G1 X165.433 Y52.984 E0.41796
G1 X164.802 Y52.984 F27000
G1 F3600
G1 X171.834 Y60.016 E0.44646
G1 X171.203 Y60.016 F27000
G1 F3600
G1 X164.17 Y52.984 E0.44646
G1 X163.539 Y52.984 F27000
G1 F3600
G1 X170.571 Y60.016 E0.44646
G1 X169.94 Y60.016 F27000
G1 F3600
G1 X162.908 Y52.984 E0.44646
G1 X162.277 Y52.984 F27000
G1 F3600
G1 X169.309 Y60.016 E0.44646
G1 X168.678 Y60.016 F27000
G1 F3600
G1 X161.645 Y52.984 E0.44646
G1 X161.014 Y52.984 F27000
G1 F3600
G1 X168.046 Y60.016 E0.44646
G1 X167.415 Y60.016 F27000
G1 F3600
G1 X160.383 Y52.984 E0.44646
G1 X159.752 Y52.984 F27000
G1 F3600
G1 X166.784 Y60.016 E0.44646
G1 X166.153 Y60.016 F27000
G1 F3600
G1 X159.12 Y52.984 E0.44646
G1 X158.489 Y52.984 F27000
G1 F3600
G1 X165.521 Y60.016 E0.44646
G1 X164.89 Y60.016 F27000
G1 F3600
G1 X157.858 Y52.984 E0.44646
G1 X157.227 Y52.984 F27000
G1 F3600
G1 X164.259 Y60.016 E0.44646
G1 X163.628 Y60.016 F27000
G1 F3600
G1 X156.595 Y52.984 E0.44646
G1 X155.964 Y52.984 F27000
G1 F3600
G1 X162.996 Y60.016 E0.44646
G1 X162.365 Y60.016 F27000
G1 F3600
G1 X155.333 Y52.984 E0.44646
G1 X154.702 Y52.984 F27000
G1 F3600
G1 X161.734 Y60.016 E0.44646
G1 X161.103 Y60.016 F27000
G1 F3600
G1 X154.071 Y52.984 E0.44646
G1 X153.439 Y52.984 F27000
G1 F3600
G1 X160.472 Y60.016 E0.44646
G1 X159.84 Y60.016 F27000
G1 F3600
G1 X152.808 Y52.984 E0.44646
G1 X152.177 Y52.984 F27000
G1 F3600
G1 X159.209 Y60.016 E0.44646
G1 X158.578 Y60.016 F27000
G1 F3600
G1 X151.546 Y52.984 E0.44646
G1 X150.914 Y52.984 F27000
G1 F3600
G1 X157.947 Y60.016 E0.44646
G1 X157.315 Y60.016 F27000
G1 F3600
G1 X150.283 Y52.984 E0.44646
G1 X149.652 Y52.984 F27000
G1 F3600
G1 X156.684 Y60.016 E0.44646
G1 X156.053 Y60.016 F27000
G1 F3600
G1 X149.021 Y52.984 E0.44646
G1 X148.389 Y52.984 F27000
G1 F3600
G1 X155.422 Y60.016 E0.44646
G1 X154.79 Y60.016 F27000
G1 F3600
G1 X147.758 Y52.984 E0.44646
G1 X147.127 Y52.984 F27000
G1 F3600
G1 X154.159 Y60.016 E0.44646
G1 X153.528 Y60.016 F27000
G1 F3600
G1 X146.496 Y52.984 E0.44646
G1 X145.865 Y52.984 F27000
G1 F3600
G1 X152.897 Y60.016 E0.44646
G1 X152.266 Y60.016 F27000
G1 F3600
G1 X145.233 Y52.984 E0.44646
G1 X144.602 Y52.984 F27000
G1 F3600
G1 X151.634 Y60.016 E0.44646
G1 X151.003 Y60.016 F27000
G1 F3600
G1 X143.971 Y52.984 E0.44646
G1 X143.34 Y52.984 F27000
G1 F3600
G1 X150.372 Y60.016 E0.44646
G1 X149.741 Y60.016 F27000
G1 F3600
G1 X142.708 Y52.984 E0.44646
G1 X142.077 Y52.984 F27000
G1 F3600
G1 X149.109 Y60.016 E0.44646
G1 X148.478 Y60.016 F27000
G1 F3600
G1 X141.446 Y52.984 E0.44646
G1 X140.815 Y52.984 F27000
G1 F3600
G1 X147.847 Y60.016 E0.44646
G1 X147.216 Y60.016 F27000
G1 F3600
G1 X140.183 Y52.984 E0.44646
G1 X139.729 Y53.161 F27000
G1 F3600
G1 X146.584 Y60.016 E0.43521
G1 X145.953 Y60.016 F27000
G1 F3600
G1 X139.469 Y53.532 E0.41164
G1 X139.209 Y53.904 F27000
G1 F3600
G1 X145.322 Y60.016 E0.38807
G1 X144.691 Y60.016 F27000
G1 F3600
G1 X138.949 Y54.275 E0.3645
G1 X138.689 Y54.646 F27000
G1 F3600
G1 X144.059 Y60.016 E0.34093
G1 X143.428 Y60.016 F27000
G1 F3600
G1 X138.43 Y55.017 E0.31736
G1 X138.17 Y55.389 F27000
G1 F3600
G1 X142.797 Y60.016 E0.29379
G1 X142.166 Y60.016 F27000
G1 F3600
G1 X137.91 Y55.76 E0.27021
G1 X137.65 Y56.131 F27000
G1 F3600
G1 X141.535 Y60.016 E0.24664
G1 X140.903 Y60.016 F27000
G1 F3600
G1 X137.39 Y56.502 E0.22307
G1 X137.13 Y56.874 F27000
G1 F3600
G1 X140.272 Y60.016 E0.1995
G1 X139.641 Y60.016 F27000
G1 F3600
G1 X136.87 Y57.245 E0.17593
G1 X136.61 Y57.616 F27000
G1 F3600
G1 X139.01 Y60.016 E0.15236
G1 X138.378 Y60.016 F27000
G1 F3600
G1 X136.346 Y57.984 E0.12902
G1 X135.715 Y57.984 F27000
G1 F3600
G1 X137.747 Y60.016 E0.12902
G1 X137.116 Y60.016 F27000
G1 F3600
G1 X135.084 Y57.984 E0.12902
G1 X134.452 Y57.984 F27000
G1 F3600
G1 X136.485 Y60.016 E0.12902
G1 X135.853 Y60.016 F27000
G1 F3600
G1 X133.821 Y57.984 E0.12902
G1 X133.19 Y57.984 F27000
G1 F3600
G1 X135.222 Y60.016 E0.12902
G1 X134.591 Y60.016 F27000
G1 F3600
G1 X132.559 Y57.984 E0.12902
G1 X131.928 Y57.984 F27000
G1 F3600
G1 X133.96 Y60.016 E0.12902
G1 X133.329 Y60.016 F27000
G1 F3600
G1 X131.296 Y57.984 E0.12902
G1 X130.665 Y57.984 F27000
G1 F3600
G1 X132.697 Y60.016 E0.12902
G1 X132.066 Y60.016 F27000
G1 F3600
G1 X130.034 Y57.984 E0.12902
G1 X129.403 Y57.984 F27000
G1 F3600
G1 X131.435 Y60.016 E0.12902
G1 X130.804 Y60.016 F27000
G1 F3600
G1 X128.771 Y57.984 E0.12902
G1 E-0.5 F1800
M204 S4000
G1 Z0.45 F27000
M204 S2000
G1 X125.887 Y54.468
G1 Z0.25
G1 E0.5 F1800
G1 F3600
G1 X124.403 Y52.984 E0.09422
G1 X123.771 Y52.984 F27000
G1 F3600
G1 X127.361 Y56.574 E0.2279
G1 E-0.5 F1800
M204 S4000
G1 Z0.45 F27000
; acceleration to travel
M204 S10000
G1 X123.844 Y53.582
; decel to extrusion
M204 S2000
G1 X123.14 Y52.984
; end travel
G1 Z0.25
G1 E0.5 F1800
G1 F3600
G1 X130.172 Y60.016 E0.44646
G1 X129.541 Y60.016 F27000
G1 F3600
G1 X122.509 Y52.984 E0.44646
G1 X121.878 Y52.984 F27000
G1 F3600
G1 X128.91 Y60.016 E0.44646
G1 X128.279 Y60.016 F27000
G1 F3600
G1 X121.246 Y52.984 E0.44646
G1 X120.615 Y52.984 F27000
G1 F3600
G1 X127.647 Y60.016 E0.44646
G1 X127.016 Y60.016 F27000
G1 F3600
G1 X119.984 Y52.984 E0.44646
G1 X119.353 Y52.984 F27000
G1 F3600
G1 X126.385 Y60.016 E0.44646
G1 X125.754 Y60.016 F27000
G1 F3600
G1 X118.722 Y52.984 E0.44646
G1 X118.09 Y52.984 F27000
G1 F3600
G1 X125.123 Y60.016 E0.44646
G1 X124.491 Y60.016 F27000
G1 F3600
G1 X117.459 Y52.984 E0.44646
G1 X116.828 Y52.984 F27000
G1 F3600
G1 X123.86 Y60.016 E0.44646
G1 X123.229 Y60.016 F27000
G1 F3600
G1 X116.197 Y52.984 E0.44646
G1 X115.565 Y52.984 F27000
G1 F3600
G1 X122.598 Y60.016 E0.44646
G1 X121.966 Y60.016 F27000
G1 F3600
G1 X114.934 Y52.984 E0.44646
G1 X114.303 Y52.984 F27000
G1 F3600
G1 X121.335 Y60.016 E0.44646
G1 X120.704 Y60.016 F27000
G1 F3600
G1 X113.672 Y52.984 E0.44646
G1 X113.04 Y52.984 F27000
G1 F3600
G1 X118.573 Y58.516 E0.35123
G1 X117.941 Y58.516 F27000
G1 F3600
G1 X112.409 Y52.984 E0.35123
G1 X111.778 Y52.984 F27000
G1 F3600
G1 X117.31 Y58.516 E0.35123
G1 X116.679 Y58.516 F27000
G1 F3600
G1 X111.147 Y52.984 E0.35123
G1 X110.515 Y52.984 F27000
G1 F3600
G1 X116.048 Y58.516 E0.35123
G1 X115.416 Y58.516 F27000
G1 F3600
G1 X109.884 Y52.984 E0.35123
G1 X109.253 Y52.984 F27000
G1 F3600
G1 X114.785 Y58.516 E0.35123
G1 X114.154 Y58.516 F27000
G1 F3600
G1 X108.622 Y52.984 E0.35123
