; generated by SuperSlicer 2.5.59.8 on 2024-03-01 at 09:55:36 UTC


;
;

;
;
; 

; external perimeters extrusion width = 0.50mm
; perimeters extrusion width = 0.50mm
; infill extrusion width = 0.50mm
; solid infill extrusion width = 0.50mm
; top infill extrusion width = 0.50mm
; first layer extrusion width = 0.50mm

; object:{"name":"square_tower (4)","id":"square_tower (4).stl id:0 copy 0","object_center":[112.500000,112.500000,0.000000],"boundingbox_center":[112.500000,112.500000,25.000000],"boundingbox_size":[66.000000,65.945206,50.000000]}
EXCLUDE_OBJECT_DEFINE NAME=square_tower_4_stl_id_0_copy_0 CENTER=112.500000,112.500000 POLYGON=[[79.50,84.50],[79.61,83.46],[79.93,82.47],[80.45,81.56],[81.15,80.78],[82.00,80.17],[82.95,79.74],[83.98,79.53],[141.02,79.53],[142.05,79.74],[143.00,80.17],[143.85,80.78],[144.55,81.56],[145.07,82.47],[145.39,83.46],[145.50,84.50],[145.50,140.50],[145.39,141.54],[145.07,142.53],[144.55,143.44],[143.85,144.22],[143.00,144.83],[142.05,145.26],[141.02,145.47],[83.98,145.47],[82.95,145.26],[82.00,144.83],[81.15,144.22],[80.45,143.44],[79.93,142.53],[79.61,141.54],[79.50,140.50],[79.50,84.50]]
; plater:{"center":[112.500000,112.500000,0.000000],"boundingbox_center":[112.500000,112.500000,25.000000],"boundingbox_size":[66.000000,65.945206,50.000000]}

M73 P0 R54
M107
;TYPE:Custom
; custom gcode: start_gcode
G90 ; use absolute coordinates
M83 ; extruder relative mode
M140 S60 ; set final bed temp
M104 S150 ; set temporary nozzle temp to prevent oozing during homing and auto bed leveling
G4 S10 ; allow partial nozzle warmup
G28 ; home all axis
G1 Z50 F240
G1 X2 Y10 F3000
M104 S210 ; set final nozzle temp
M190 S60 ; wait for bed temp to stabilize
M109 S210 ; wait for nozzle temp to stabilize
G1 Z0.28 F240
G92 E0
G1 Y140 E10 F1500 ; prime the nozzle
M73 P1 R54
G1 X2.3 F5000
G92 E0
M73 P1 R53
G1 Y10 E10 F1200 ; prime the nozzle
G92 E0

; custom gcode end: start_gcode

G21 ; set units to millimeters
G90 ; use absolute coordinates
M83 ; use relative distances for extrusion
ACTIVATE_EXTRUDER EXTRUDER=extruder
; custom gcode: start_filament_gcode
; Filament gcode
; Macro syntax: https://help.prusa3d.com/article/macros_1775

; Set pressure advance per-filament
;SET_PRESSURE_ADVANCE ADVANCE=0.0x

; Set pressure advance per-filament for different nozzle sizes
;SET_PRESSURE_ADVANCE ADVANCE=0.0x
;

; custom gcode end: start_filament_gcode
;LAYER_CHANGE
;Z:0.3
;HEIGHT:0.3
G1 Z0.3 F27000
G92 E0
G1 E-0.5 F1800
G1 Z0.5 F27000
M204 S2000
G1 X79.109 Y77.952
G1 Z0.3
G1 E0.5 F1800
;TYPE:Skirt
;WIDTH:0.46
G1 X77.866 Y79.216 E0.08749
G1 X76.912 Y80.71 E0.08749
G1 X76.607 Y81.397 E0.03707
G1 X76.134 Y83.106 E0.08749
G1 X76.007 Y84.5 E0.06908
G1 X76.007 Y140.5 E2.76325
G1 X76.134 Y141.894 E0.06908
G1 X76.29 Y142.629 E0.03707
G1 X76.912 Y144.29 E0.08749
G1 X77.866 Y145.784 E0.08749
G1 X79.109 Y147.048 E0.08749
G1 X80.589 Y148.026 E0.08749
G1 X81.524 Y148.442 E0.05054
G1 X82.239 Y148.675 E0.03708
G1 X83.988 Y148.966 E0.08749
G1 X141.012 Y148.966 E2.81379
G1 X142.761 Y148.675 E0.08749
G1 X144.411 Y148.026 E0.08751
G1 X145.891 Y147.048 E0.08748
G1 X147.134 Y145.784 E0.0875
G1 X147.576 Y145.176 E0.03707
G1 X148.393 Y143.603 E0.08749
G1 X148.866 Y141.894 E0.08749
G1 X148.993 Y140.5 E0.06909
G1 X148.973 Y84.124 E2.7818
G1 X148.71 Y82.371 E0.08749
G1 X148.088 Y80.711 E0.08749
G1 X147.576 Y79.824 E0.05054
G1 X146.449 Y78.455 E0.08749
G1 X145.891 Y77.952 E0.03708
G1 X144.411 Y76.974 E0.08749
G1 X142.761 Y76.325 E0.08749
G1 X141.759 Y76.112 E0.05054
G1 X141.012 Y76.034 E0.03707
G1 X83.988 Y76.034 E2.81379
G1 X82.239 Y76.325 E0.08749
M73 P2 R53
G1 X80.589 Y76.974 E0.08749
G1 X79.109 Y77.952 E0.08749
G1 X79.342 Y78.272 F27000
G1 F1800
G1 X78.16 Y79.48 E0.08342
G1 X77.255 Y80.908 E0.08342
G1 X76.983 Y81.519 E0.03299
G1 X76.527 Y83.147 E0.08342
G1 X76.403 Y84.5 E0.06704
G1 X76.403 Y140.5 E2.76325
G1 X76.527 Y141.853 E0.06704
G1 X76.666 Y142.507 E0.03299
G1 X77.255 Y144.092 E0.08342
G1 X78.16 Y145.52 E0.08341
G1 X79.342 Y146.728 E0.08342
G1 X80.75 Y147.664 E0.08341
G1 X81.685 Y148.081 E0.05054
G1 X82.321 Y148.288 E0.033
G1 X83.988 Y148.57 E0.08342
G1 X141.012 Y148.57 E2.81379
G1 X142.679 Y148.288 E0.08342
G1 X144.251 Y147.664 E0.08343
G1 X145.658 Y146.728 E0.08341
G1 X146.84 Y145.52 E0.08343
G1 X147.233 Y144.979 E0.03299
G1 X148.017 Y143.481 E0.08341
G1 X148.473 Y141.853 E0.08341
G1 X148.597 Y140.5 E0.06705
G1 X148.58 Y84.166 E2.77975
G1 X148.334 Y82.493 E0.08341
G1 X147.745 Y80.908 E0.08342
G1 X146.84 Y79.48 E0.08342
G1 X146.155 Y78.719 E0.05054
G1 X145.658 Y78.272 E0.03299
G1 X144.25 Y77.336 E0.08342
G1 X142.679 Y76.712 E0.08342
G1 X141.677 Y76.499 E0.05054
G1 X141.012 Y76.43 E0.03299
G1 X83.988 Y76.43 E2.81379
G1 X82.321 Y76.712 E0.08342
G1 X80.75 Y77.336 E0.08342
G1 X79.342 Y78.272 E0.08342
G1 E-0.5
M204 S4000
G1 Z0.5 F27000
; printing object square_tower (4).stl id:0 copy 0
EXCLUDE_OBJECT_START NAME=square_tower_4_stl_id_0_copy_0
; acceleration to travel
M204 S10000
G1 X128.878 Y105.307
; decel to extrusion
M204 S2000
G1 X138.786 Y110.714
; end travel
G1 Z0.3
G1 E0.5 F1800
;TYPE:Internal perimeter
;WIDTH:0.5
G1 X138.286 Y110.714 E0.02717
G1 X138.286 Y86.714 E1.30399
G1 X114.286 Y86.714 E1.30399
G1 X114.286 Y86.214 E0.02717
G1 X110.714 Y86.214 E0.19404
G1 X110.714 Y86.714 E0.02717
G1 X86.714 Y86.714 E1.30399
G1 X86.714 Y106.714 E1.08666
G1 X86.214 Y106.714 E0.02717
G1 X86.214 Y110.286 E0.19404
G1 X86.714 Y110.286 E0.02717
G1 X86.714 Y138.286 E1.52132
G1 X110.714 Y138.286 E1.30399
G1 X110.714 Y138.786 E0.02717
G1 X114.286 Y138.786 E0.19404
G1 X114.286 Y138.286 E0.02717
G1 X138.286 Y138.286 E1.30399
G1 X138.286 Y114.286 E1.30399
G1 X138.786 Y114.286 E0.02717
G1 X138.786 Y110.714 E0.19404
M204 S1000
G1 X138.35 Y111.15 F27000
;TYPE:External perimeter
G1 F1800
G1 X137.85 Y111.15 E0.02717
G1 X137.85 Y87.15 E1.30399
G1 X113.85 Y87.15 E1.30399
G1 X113.85 Y86.65 E0.02717
G1 X111.15 Y86.65 E0.1467
G1 X111.15 Y87.15 E0.02717
G1 X87.15 Y87.15 E1.30399
G1 X87.15 Y107.15 E1.08666
G1 X86.65 Y107.15 E0.02717
G1 X86.65 Y109.85 E0.1467
G1 X87.15 Y109.85 E0.02717
G1 X87.15 Y137.85 E1.52132
G1 X111.15 Y137.85 E1.30399
G1 X111.15 Y138.35 E0.02717
G1 X113.85 Y138.35 E0.1467
G1 X113.85 Y137.85 E0.02717
G1 X137.85 Y137.85 E1.30399
G1 X137.85 Y113.85 E1.30399
G1 X138.35 Y113.85 E0.02717
G1 X138.35 Y111.15 E0.1467
;WIPE_START
M204 S4000
G1 X138.35 Y110.75 F27000
;WIPE_END
G1 E-0.5 F1800
G1 Z0.5 F27000
; acceleration to travel
M204 S10000
G1 X141.154 Y132.119
; decel to extrusion
M204 S2000
G1 X141.714 Y136.393
; end travel
G1 Z0.3
G1 E0.5 F1800
;TYPE:Internal perimeter
G1 X141.714 Y136.458 E0.00353
G1 X142.605 Y136.854 E0.05297
G1 X143.317 Y137.371 E0.04782
G1 X143.906 Y138.025 E0.04782
G1 X144.346 Y138.788 E0.04782
G1 X144.618 Y139.625 E0.04782
G1 X144.71 Y140.5 E0.04782
G1 X144.618 Y141.375 E0.04782
G1 X144.346 Y142.212 E0.04782
G1 X143.906 Y142.975 E0.04782
G1 X143.317 Y143.629 E0.04782
G1 X142.605 Y144.146 E0.04782
G1 X141.801 Y144.504 E0.04782
G1 X140.94 Y144.687 E0.04782
G1 X140.06 Y144.687 E0.04782
G1 X139.199 Y144.504 E0.04782
G1 X138.395 Y144.146 E0.04782
G1 X137.683 Y143.629 E0.04782
G1 X137.096 Y142.977 E0.04767
G1 X136.378 Y141.714 E0.07888
G1 X88.622 Y141.714 E2.59477
G1 X87.904 Y142.977 E0.07888
G1 X87.317 Y143.629 E0.04767
G1 X86.605 Y144.146 E0.04782
G1 X85.801 Y144.504 E0.04782
G1 X84.94 Y144.687 E0.04782
G1 X84.06 Y144.687 E0.04782
G1 X83.199 Y144.504 E0.04782
G1 X82.395 Y144.146 E0.04782
G1 X81.683 Y143.629 E0.04782
G1 X81.094 Y142.975 E0.04782
G1 X80.654 Y142.212 E0.04782
G1 X80.382 Y141.375 E0.04782
G1 X80.29 Y140.5 E0.04782
G1 X80.382 Y139.625 E0.04782
G1 X80.654 Y138.788 E0.04782
G1 X81.094 Y138.025 E0.04782
G1 X81.683 Y137.371 E0.04782
G1 X82.395 Y136.854 E0.04782
G1 X83.286 Y136.458 E0.05297
G1 X83.286 Y88.543 E2.60336
G1 X82.395 Y88.146 E0.05297
G1 X81.683 Y87.629 E0.04782
G1 X81.094 Y86.975 E0.04782
G1 X80.654 Y86.212 E0.04782
G1 X80.382 Y85.375 E0.04782
G1 X80.29 Y84.5 E0.04782
G1 X80.382 Y83.625 E0.04782
G1 X80.654 Y82.788 E0.04782
G1 X81.094 Y82.025 E0.04782
G1 X81.683 Y81.371 E0.04782
G1 X82.395 Y80.854 E0.04782
G1 X83.199 Y80.496 E0.04782
G1 X84.06 Y80.313 E0.04782
G1 X84.94 Y80.313 E0.04782
G1 X85.2 Y80.368 E0.01444
G1 X85.801 Y80.496 E0.03338
G1 X86.605 Y80.854 E0.04782
G1 X87.317 Y81.371 E0.04782
G1 X87.904 Y82.023 E0.04767
G1 X88.622 Y83.286 E0.07888
G1 X136.378 Y83.286 E2.59477
G1 X137.096 Y82.023 E0.07888
G1 X137.683 Y81.371 E0.04767
G1 X138.395 Y80.854 E0.04782
G1 X139.199 Y80.496 E0.04782
G1 X140.06 Y80.313 E0.04782
G1 X140.94 Y80.313 E0.04782
G1 X141.801 Y80.496 E0.04782
G1 X142.605 Y80.854 E0.04782
G1 X143.317 Y81.371 E0.04782
G1 X143.906 Y82.025 E0.04782
G1 X144.346 Y82.788 E0.04782
G1 X144.618 Y83.625 E0.04782
G1 X144.71 Y84.5 E0.04782
G1 X144.618 Y85.375 E0.04782
G1 X144.346 Y86.212 E0.04782
G1 X143.906 Y86.975 E0.04782
G1 X143.317 Y87.629 E0.04782
G1 X142.605 Y88.146 E0.04782
G1 X141.714 Y88.543 E0.05297
G1 X141.714 Y136.393 E2.59982
M204 S1000
G1 X142.15 Y136.175 F27000
;TYPE:External perimeter
M73 P3 R53
G1 F1800
G1 X142.824 Y136.475 E0.04009
G1 X143.61 Y137.046 E0.0528
G1 X144.26 Y137.768 E0.05279
G1 X144.746 Y138.609 E0.05279
G1 X145.046 Y139.534 E0.0528
G1 X145.148 Y140.5 E0.0528
G1 X145.046 Y141.466 E0.0528
G1 X144.746 Y142.391 E0.0528
G1 X144.26 Y143.232 E0.05279
G1 X143.61 Y143.954 E0.05279
G1 X142.824 Y144.525 E0.0528
G1 X141.936 Y144.921 E0.0528
G1 X140.986 Y145.123 E0.0528
G1 X140.014 Y145.123 E0.05279
G1 X139.064 Y144.921 E0.0528
G1 X138.176 Y144.525 E0.0528
G1 X137.39 Y143.954 E0.0528
G1 X136.74 Y143.233 E0.05273
G1 X136.125 Y142.15 E0.06768
G1 X88.875 Y142.15 E2.56722
G1 X88.26 Y143.233 E0.06768
G1 X87.61 Y143.954 E0.05273
G1 X86.824 Y144.525 E0.0528
G1 X85.936 Y144.921 E0.0528
G1 X84.986 Y145.123 E0.0528
G1 X84.014 Y145.123 E0.0528
G1 X83.064 Y144.921 E0.0528
G1 X82.176 Y144.525 E0.0528
G1 X81.39 Y143.954 E0.0528
G1 X80.74 Y143.232 E0.0528
G1 X80.254 Y142.391 E0.05279
G1 X79.953 Y141.466 E0.05279
G1 X79.852 Y140.5 E0.0528
G1 X79.953 Y139.534 E0.0528
G1 X80.254 Y138.609 E0.05279
G1 X80.74 Y137.768 E0.05279
G1 X81.39 Y137.046 E0.0528
G1 X82.176 Y136.475 E0.0528
G1 X82.85 Y136.175 E0.04009
G1 X82.85 Y88.825 E2.57261
G1 X82.176 Y88.525 E0.04009
G1 X81.39 Y87.954 E0.0528
G1 X80.74 Y87.232 E0.0528
G1 X80.254 Y86.391 E0.0528
G1 X79.953 Y85.466 E0.0528
G1 X79.852 Y84.5 E0.0528
G1 X79.953 Y83.534 E0.0528
G1 X80.254 Y82.609 E0.0528
G1 X80.74 Y81.768 E0.0528
G1 X81.39 Y81.046 E0.0528
G1 X82.176 Y80.475 E0.0528
G1 X83.064 Y80.079 E0.0528
G1 X84.014 Y79.877 E0.0528
G1 X84.986 Y79.877 E0.0528
G1 X85.291 Y79.942 E0.01693
G1 X85.936 Y80.079 E0.03586
G1 X86.824 Y80.475 E0.0528
G1 X87.61 Y81.046 E0.0528
G1 X88.26 Y81.767 E0.05273
G1 X88.875 Y82.85 E0.06768
G1 X136.125 Y82.85 E2.56723
G1 X136.74 Y81.767 E0.06768
M73 P3 R52
G1 X137.39 Y81.046 E0.05273
G1 X138.176 Y80.475 E0.0528
G1 X139.064 Y80.079 E0.05279
G1 X140.014 Y79.877 E0.0528
G1 X140.986 Y79.877 E0.05279
G1 X141.936 Y80.079 E0.0528
G1 X142.824 Y80.475 E0.05279
G1 X143.61 Y81.046 E0.0528
G1 X144.26 Y81.768 E0.05279
G1 X144.746 Y82.609 E0.05279
G1 X145.046 Y83.534 E0.0528
G1 X145.148 Y84.5 E0.0528
G1 X145.046 Y85.466 E0.0528
G1 X144.746 Y86.391 E0.0528
G1 X144.26 Y87.232 E0.05279
G1 X143.61 Y87.954 E0.05279
G1 X142.824 Y88.525 E0.0528
G1 X142.15 Y88.825 E0.04009
G1 X142.15 Y136.175 E2.57261
;WIPE_START
M204 S4000
G1 X142.04 Y136.559 F27000
;WIPE_END
G1 E-0.5 F1800
G1 Z0.5 F27000
; acceleration to travel
M204 S10000
G1 X142.322 Y90.279
; decel to extrusion
M204 S2000
G1 X142.38 Y80.897
; end travel
G1 Z0.3
G1 E0.5 F1800
;TYPE:Solid infill
;WIDTH:0.474898
G1 F3600
G1 X144.092 Y82.609 E0.12496
G1 X144.475 Y83.608 F27000
G1 F3600
G1 X141.414 Y80.547 E0.22338
G1 X140.695 Y80.444 F27000
G1 F3600
G1 X144.558 Y84.307 E0.28198
G1 X144.536 Y84.902 F27000
G1 F3600
G1 X140.079 Y80.444 E0.32534
G1 X139.57 Y80.551 F27000
G1 F3600
G1 X144.459 Y85.441 E0.35686
G1 X144.308 Y85.906 F27000
G1 F3600
G1 X139.09 Y80.687 E0.38082
G1 X138.664 Y80.877 F27000
G1 F3600
G1 X144.123 Y86.337 E0.39843
G1 X143.898 Y86.727 F27000
G1 F3600
G1 X138.274 Y81.103 E0.41044
G1 X137.917 Y81.363 F27000
G1 F3600
G1 X143.635 Y87.08 E0.41729
G1 X143.343 Y87.405 F27000
G1 F3600
G1 X137.599 Y81.66 E0.41923
G1 X137.307 Y81.984 F27000
G1 F3600
G1 X143.012 Y87.689 E0.41634
G1 X142.655 Y87.948 F27000
G1 F3600
G1 X137.059 Y82.353 E0.40838
G1 X136.836 Y82.745 F27000
G1 F3600
G1 X142.251 Y88.161 E0.39521
G1 X141.825 Y88.35 F27000
G1 F3600
G1 X136.613 Y83.138 E0.38039
G1 X136.275 Y83.416 F27000
G1 F3600
G1 X141.584 Y88.725 E0.38747
G1 X141.584 Y89.342 F27000
G1 F3600
G1 X135.658 Y83.416 E0.43243
G1 X135.042 Y83.416 F27000
G1 F3600
G1 X138.21 Y86.584 E0.23116
G1 X137.594 Y86.584 F27000
G1 F3600
G1 X134.426 Y83.416 E0.23116
G1 X133.81 Y83.416 F27000
G1 F3600
G1 X136.978 Y86.584 E0.23116
G1 X136.362 Y86.584 F27000
G1 F3600
G1 X133.194 Y83.416 E0.23116
G1 X132.578 Y83.416 F27000
G1 F3600
G1 X135.746 Y86.584 E0.23116
G1 X135.13 Y86.584 F27000
G1 F3600
G1 X131.962 Y83.416 E0.23116
G1 X131.346 Y83.416 F27000
G1 F3600
G1 X134.514 Y86.584 E0.23116
G1 X133.897 Y86.584 F27000
G1 F3600
G1 X130.73 Y83.416 E0.23116
G1 X130.114 Y83.416 F27000
G1 F3600
G1 X133.281 Y86.584 E0.23116
G1 X132.665 Y86.584 F27000
G1 F3600
G1 X129.498 Y83.416 E0.23116
G1 X128.882 Y83.416 F27000
G1 F3600
G1 X132.049 Y86.584 E0.23116
G1 X131.433 Y86.584 F27000
G1 F3600
G1 X128.266 Y83.416 E0.23116
G1 X127.65 Y83.416 F27000
G1 F3600
G1 X130.817 Y86.584 E0.23116
G1 X130.201 Y86.584 F27000
G1 F3600
G1 X127.034 Y83.416 E0.23116
G1 X126.418 Y83.416 F27000
G1 F3600
G1 X129.585 Y86.584 E0.23116
G1 X128.969 Y86.584 F27000
G1 F3600
G1 X125.802 Y83.416 E0.23116
G1 X125.185 Y83.416 F27000
G1 F3600
G1 X128.353 Y86.584 E0.23116
G1 X127.737 Y86.584 F27000
G1 F3600
G1 X124.569 Y83.416 E0.23116
G1 X123.953 Y83.416 F27000
G1 F3600
G1 X127.121 Y86.584 E0.23116
G1 X126.505 Y86.584 F27000
G1 F3600
G1 X123.337 Y83.416 E0.23116
G1 X122.721 Y83.416 F27000
G1 F3600
G1 X125.889 Y86.584 E0.23116
G1 X125.273 Y86.584 F27000
G1 F3600
G1 X122.105 Y83.416 E0.23116
G1 X121.489 Y83.416 F27000
G1 F3600
G1 X124.657 Y86.584 E0.23116
G1 X124.041 Y86.584 F27000
G1 F3600
G1 X120.873 Y83.416 E0.23116
G1 X120.257 Y83.416 F27000
G1 F3600
G1 X123.424 Y86.584 E0.23116
G1 X122.808 Y86.584 F27000
G1 F3600
G1 X119.641 Y83.416 E0.23116
G1 X119.025 Y83.416 F27000
G1 F3600
G1 X122.192 Y86.584 E0.23116
G1 X121.576 Y86.584 F27000
G1 F3600
G1 X118.409 Y83.416 E0.23116
G1 X117.793 Y83.416 F27000
G1 F3600
G1 X120.96 Y86.584 E0.23116
G1 X120.344 Y86.584 F27000
G1 F3600
G1 X117.177 Y83.416 E0.23116
G1 X116.561 Y83.416 F27000
G1 F3600
G1 X119.728 Y86.584 E0.23116
G1 X119.112 Y86.584 F27000
G1 F3600
G1 X115.945 Y83.416 E0.23116
G1 X115.329 Y83.416 F27000
G1 F3600
G1 X118.496 Y86.584 E0.23116
G1 X117.88 Y86.584 F27000
G1 F3600
G1 X114.713 Y83.416 E0.23116
G1 X114.096 Y83.416 F27000
G1 F3600
G1 X117.264 Y86.584 E0.23116
G1 X116.648 Y86.584 F27000
G1 F3600
G1 X113.48 Y83.416 E0.23116
G1 X112.864 Y83.416 F27000
G1 F3600
G1 X116.032 Y86.584 E0.23116
G1 X115.416 Y86.584 F27000
G1 F3600
G1 X112.248 Y83.416 E0.23116
G1 X111.632 Y83.416 F27000
G1 F3600
G1 X114.3 Y86.084 E0.19467
G1 X113.684 Y86.084 F27000
G1 F3600
G1 X111.016 Y83.416 E0.19467
G1 X110.4 Y83.416 F27000
G1 F3600
G1 X113.068 Y86.084 E0.19467
G1 X112.451 Y86.084 F27000
G1 F3600
G1 X109.784 Y83.416 E0.19467
G1 X109.168 Y83.416 F27000
G1 F3600
G1 X111.835 Y86.084 E0.19467
G1 X111.219 Y86.084 F27000
G1 F3600
G1 X108.552 Y83.416 E0.19467
G1 X107.936 Y83.416 F27000
G1 F3600
G1 X110.603 Y86.084 E0.19467
G1 X110.487 Y86.584 F27000
G1 F3600
G1 X107.32 Y83.416 E0.23116
G1 X106.704 Y83.416 F27000
G1 F3600
G1 X109.871 Y86.584 E0.23116
G1 X109.255 Y86.584 F27000
G1 F3600
G1 X106.088 Y83.416 E0.23116
G1 X105.472 Y83.416 F27000
G1 F3600
G1 X108.639 Y86.584 E0.23116
G1 X108.023 Y86.584 F27000
G1 F3600
G1 X104.856 Y83.416 E0.23116
G1 X104.24 Y83.416 F27000
G1 F3600
G1 X107.407 Y86.584 E0.23116
G1 X106.791 Y86.584 F27000
G1 F3600
G1 X103.623 Y83.416 E0.23116
G1 X103.007 Y83.416 F27000
G1 F3600
G1 X106.175 Y86.584 E0.23116
