; G-Code originally generated by Simplify3D(R) Version 4.1.2
; This calibration test gcode modified by the Teaching Tech Calibration website: https://teachingtechyt.github.io/calibration.html
;M80 ; power supply on
G90
M82
M106 S0
M140 S60 ; custom bed temp
M190 S60 ; custom bed temp
M104 S155 T0 ; custom hot end temp minus 50 degrees
G28 ; home all axes
BED_MESH_CALIBRATE ; Klipper equivalent of G29
;M420 S1 ; restore ABL mesh
M109 S205 T0 ; custom hot end temp 
;customstart
G0 Z3; fix for delta printers that home at max
;process Process-1
;layer 1, Z = 0.200
T0
G92 E0.0000
G1 E-1.4 F1800 ; custom retraction - A
;fan1;
G1 Z0.200 F1200
G1 X72.9380 Y88.1360 F6000
G1 E0 F2400 ; custom un-retraction/prime - A
G92 E0.0000
G1 X127.0470 Y88.1360 E2.3324 F1800
G1 X127.1410 Y88.1390 E2.3364
G1 X127.9330 Y88.1910 E2.3707
G1 X128.1190 Y88.2160 E2.3788
G1 X128.9450 Y88.3800 E2.4150
G1 X129.1260 Y88.4280 E2.4231
G1 X129.9230 Y88.6990 E2.4594
G1 X130.0960 Y88.7700 E2.4675
G1 X130.8650 Y89.1500 E2.5044
G1 X131.0530 Y89.2610 E2.5139
G1 X131.9460 Y89.8860 E2.5609
G1 X132.1150 Y90.0250 E2.5703
G1 X132.7350 Y90.6180 E2.6072
G1 X132.8610 Y90.7560 E2.6153
G1 X133.3780 Y91.4000 E2.6509
G1 X133.4690 Y91.5270 E2.6577
G1 X133.7790 Y92.0140 E2.6825
G1 X133.8420 Y92.1220 E2.6879
G1 X134.1080 Y92.6340 E2.7128
G1 X134.1720 Y92.7760 E2.7195
G1 X134.4720 Y93.5460 E2.7551
G1 X134.5280 Y93.7250 E2.7632
G1 X134.7320 Y94.5570 E2.8001
G1 X134.7680 Y94.7730 E2.8096
G1 X134.8590 Y95.8130 E2.8546
G1 X134.8640 Y95.9380 E2.8599
G1 X134.8640 Y104.0470 E3.2095
G1 X134.8610 Y104.1410 E3.2135
G1 X134.8080 Y104.9490 E3.2485
G1 X134.7770 Y105.1660 E3.2579
G1 X134.5440 Y106.2150 E3.3042
G1 X134.4920 Y106.3950 E3.3123
G1 X134.2790 Y106.9810 E3.3392
G1 X134.2030 Y107.1530 E3.3473
G1 X133.7000 Y108.1200 E3.3943
G1 X133.5650 Y108.3310 E3.4051
G1 X132.9010 Y109.1960 E3.4521
G1 X132.7780 Y109.3370 E3.4601
G1 X132.3370 Y109.7780 E3.4870
G1 X132.1960 Y109.9010 E3.4951
G1 X131.3560 Y110.5460 E3.5408
G1 X131.2000 Y110.6500 E3.5488
G1 X130.6870 Y110.9470 E3.5744
G1 X130.5760 Y111.0040 E3.5798
G1 X130.0530 Y111.2480 E3.6046
G1 X129.9080 Y111.3060 E3.6114
G1 X129.1110 Y111.5770 E3.6476
G1 X128.8990 Y111.6310 E3.6571
G1 X127.8410 Y111.8180 E3.7034
G1 X127.6540 Y111.8380 E3.7115
G1 X127.0940 Y111.8630 E3.7357
G1 X127.0310 Y111.8640 E3.7384
G1 X72.9530 Y111.8640 E6.0694
G1 X72.8590 Y111.8610 E6.0734
G1 X72.0660 Y111.8090 E6.1077
G1 X71.8810 Y111.7840 E6.1158
G1 X71.0550 Y111.6200 E6.1521
G1 X70.8740 Y111.5720 E6.1601
G1 X70.0920 Y111.3060 E6.1957
G1 X69.9470 Y111.2480 E6.2025
G1 X69.4240 Y111.0040 E6.2273
G1 X69.3130 Y110.9470 E6.2327
G1 X68.8140 Y110.6580 E6.2576
G1 X68.6830 Y110.5730 E6.2643
G1 X68.0170 Y110.0840 E6.2999
G1 X67.8730 Y109.9640 E6.3080
G1 X67.2650 Y109.3820 E6.3443
G1 X67.1390 Y109.2440 E6.3524
G1 X66.6020 Y108.5750 E6.3893
G1 X66.4790 Y108.3950 E6.3987
G1 X65.9330 Y107.4500 E6.4457
G1 X65.8390 Y107.2530 E6.4552
G1 X65.5280 Y106.4540 E6.4921
G1 X65.4720 Y106.2750 E6.5002
G1 X65.2720 Y105.4580 E6.5365
G1 X65.2390 Y105.2730 E6.5446
G1 X65.1490 Y104.4520 E6.5802
G1 X65.1410 Y104.2960 E6.5869
G1 X65.1410 Y95.6880 E6.9580
G1 X65.1530 Y95.5010 E6.9660
G1 X65.2910 Y94.4510 E7.0117
G1 X65.3280 Y94.2670 E7.0198
G1 X65.4890 Y93.6650 E7.0467
G1 X65.5500 Y93.4870 E7.0547
G1 X65.9550 Y92.5090 E7.1004
G1 X66.0380 Y92.3400 E7.1085
G1 X66.3500 Y91.8000 E7.1354
G1 X66.4540 Y91.6440 E7.1434
G1 X67.1180 Y90.7790 E7.1904
G1 X67.2870 Y90.5950 E7.2012
G1 X68.1020 Y89.8480 E7.2489
G1 X68.2740 Y89.7130 E7.2583
G1 X69.0000 Y89.2280 E7.2960
G1 X69.1900 Y89.1200 E7.3054
G1 X70.1640 Y88.6660 E7.3517
G1 X70.3390 Y88.5980 E7.3598
G1 X70.9040 Y88.4200 E7.3853
G1 X71.0250 Y88.3880 E7.3907
G1 X71.6030 Y88.2600 E7.4163
G1 X71.7890 Y88.2310 E7.4243
G1 X72.8130 Y88.1410 E7.4686
G1 X72.9380 Y88.1360 E7.4740
G92 E0.0000
G1 E-1.4 F1800 ; custom retraction - A
;zhop1
G1 X72.9500 Y88.7120 F6000
G1 Z0.200 F1200
G1 E0 F2400 ; custom un-retraction/prime - A
G92 E0.0000
G1 X127.0370 Y88.7120 E2.3314 F1800
G1 X127.1120 Y88.7140 E2.3347
G1 X127.8770 Y88.7650 E2.3677
G1 X128.0260 Y88.7840 E2.3742
G1 X128.8140 Y88.9410 E2.4088
G1 X128.9590 Y88.9800 E2.4153
G1 X129.7200 Y89.2380 E2.4499
G1 X129.8580 Y89.2950 E2.4564
G1 X130.5900 Y89.6560 E2.4916
G1 X130.7410 Y89.7460 E2.4991
G1 X131.5980 Y90.3460 E2.5442
G1 X131.7330 Y90.4570 E2.5517
G1 X132.3230 Y91.0210 E2.5869
G1 X132.4240 Y91.1320 E2.5934
G1 X132.9190 Y91.7490 E2.6275
G1 X132.9920 Y91.8500 E2.6329
G1 X133.2870 Y92.3130 E2.6565
G1 X133.3370 Y92.3990 E2.6608
G1 X133.5900 Y92.8860 E2.6845
G1 X133.6410 Y92.9990 E2.6898
G1 X133.9280 Y93.7370 E2.7240
G1 X133.9730 Y93.8800 E2.7304
G1 X134.1670 Y94.6730 E2.7656
G1 X134.1960 Y94.8450 E2.7731
G1 X134.2840 Y95.8500 E2.8166
G1 X134.2880 Y95.9500 E2.8209
G1 X134.2880 Y104.0370 E3.1695
G1 X134.2860 Y104.1120 E3.1728
G1 X134.2350 Y104.8890 E3.2063
G1 X134.2100 Y105.0630 E3.2139
G1 X133.9860 Y106.0720 E3.2584
G1 X133.9440 Y106.2160 E3.2649
G1 X133.7440 Y106.7660 E3.2902
G1 X133.6830 Y106.9030 E3.2966
G1 X133.2000 Y107.8320 E3.3417
G1 X133.0930 Y108.0000 E3.3503
G1 X132.4560 Y108.8300 E3.3954
G1 X132.3570 Y108.9430 E3.4019
G1 X131.9430 Y109.3570 E3.4271
G1 X131.8300 Y109.4560 E3.4336
G1 X131.0200 Y110.0780 E3.4776
G1 X130.8950 Y110.1610 E3.4841
G1 X130.4100 Y110.4410 E3.5083
G1 X130.3210 Y110.4880 E3.5126
G1 X129.8240 Y110.7190 E3.5362
G1 X129.7080 Y110.7660 E3.5416
G1 X128.9470 Y111.0240 E3.5762
G1 X128.7770 Y111.0680 E3.5838
G1 X127.7590 Y111.2470 E3.6283
G1 X127.6100 Y111.2640 E3.6348
G1 X127.0750 Y111.2870 E3.6579
G1 X127.0250 Y111.2880 E3.6601
G1 X72.9630 Y111.2880 E5.9904
G1 X72.8880 Y111.2860 E5.9937
G1 X72.1230 Y111.2350 E6.0267
G1 X71.9740 Y111.2160 E6.0331
G1 X71.1860 Y111.0590 E6.0678
G1 X71.0410 Y111.0200 E6.0743
G1 X70.2920 Y110.7660 E6.1084
G1 X70.1760 Y110.7190 E6.1137
G1 X69.6790 Y110.4880 E6.1374
G1 X69.5900 Y110.4410 E6.1417
G1 X69.1150 Y110.1670 E6.1653
G1 X69.0110 Y110.0990 E6.1707
G1 X68.3730 Y109.6310 E6.2048
G1 X68.2580 Y109.5350 E6.2113
G1 X67.6770 Y108.9790 E6.2459
G1 X67.5760 Y108.8680 E6.2524
G1 X67.0650 Y108.2320 E6.2876
G1 X66.9660 Y108.0880 E6.2951
G1 X66.4430 Y107.1810 E6.3402
G1 X66.3680 Y107.0240 E6.3478
G1 X66.0720 Y106.2630 E6.3829
G1 X66.0270 Y106.1200 E6.3894
G1 X65.8360 Y105.3390 E6.4240
G1 X65.8100 Y105.1920 E6.4305
G1 X65.7240 Y104.4050 E6.4646
G1 X65.7170 Y104.2810 E6.4700
G1 X65.7170 Y95.7070 E6.8396
G1 X65.7270 Y95.5580 E6.8460
G1 X65.8600 Y94.5450 E6.8900
G1 X65.8890 Y94.3980 E6.8965
G1 X66.0410 Y93.8320 E6.9218
G1 X66.0890 Y93.6900 E6.9282
G1 X66.4800 Y92.7460 E6.9722
G1 X66.5460 Y92.6120 E6.9787
G1 X66.8390 Y92.1050 E7.0040
G1 X66.9220 Y91.9800 E7.0104
G1 X67.5590 Y91.1500 E7.0555
G1 X67.6940 Y91.0030 E7.0641
G1 X68.4750 Y90.2870 E7.1098
G1 X68.6120 Y90.1790 E7.1173
G1 X69.3020 Y89.7190 E7.1530
G1 X69.4540 Y89.6330 E7.1606
G1 X70.3910 Y89.1960 E7.2051
G1 X70.5300 Y89.1420 E7.2116
G1 X71.0650 Y88.9730 E7.2358
G1 X71.1620 Y88.9470 E7.2401
G1 X71.7100 Y88.8260 E7.2643
G1 X71.8580 Y88.8030 E7.2707
G1 X72.8500 Y88.7160 E7.3137
G1 X72.9500 Y88.7120 E7.3180
G92 E0.0000
G1 E-1.4 F1800 ; custom retraction - A
;zhop1
G1 X73.0060 Y91.2880 F6000
G1 X73.0310 Y92.4400
G1 Z0.200 F1200
G1 E0 F2400 ; custom un-retraction/prime - A
G92 E0.0000
G1 X126.9530 Y92.4400 E2.3243 F1440
G1 X127.4640 Y92.4740 E2.3464
G1 X127.9210 Y92.5640 E2.3664
G1 X128.3610 Y92.7140 E2.3865
G1 X128.7930 Y92.9270 E2.4072
G1 X129.0410 Y93.0850 E2.4199
G1 X129.2750 Y93.2640 E2.4326
G1 X129.6220 Y93.5970 E2.4534
G1 X129.9240 Y93.9720 E2.4741
G1 X130.0820 Y94.2210 E2.4868
G1 X130.2180 Y94.4820 E2.4995
G1 X130.3920 Y94.9300 E2.5203
G1 X130.5070 Y95.3980 E2.5410
G1 X130.5450 Y95.6900 E2.5537
G1 X130.5600 Y96.0310 E2.5684
G1 X130.5600 Y103.9530 E2.9099
G1 X130.5250 Y104.4800 E2.9327
G1 X130.4740 Y104.7700 E2.9454
G1 X130.3940 Y105.0700 E2.9587
G1 X130.2880 Y105.3620 E2.9721
G1 X130.1570 Y105.6430 E2.9855
G1 X130.0010 Y105.9120 E2.9989
G1 X129.8230 Y106.1660 E3.0123
G1 X129.6240 Y106.4040 E3.0257
G1 X129.4040 Y106.6240 E3.0390
G1 X129.1660 Y106.8230 E3.0524
G1 X128.9120 Y107.0010 E3.0658
G1 X128.6430 Y107.1570 E3.0792
G1 X128.3760 Y107.2810 E3.0919
G1 X127.9060 Y107.4410 E3.1133
G1 X127.6180 Y107.5050 E3.1260
G1 X127.3100 Y107.5450 E3.1394
G1 X126.9690 Y107.5600 E3.1541
G1 X73.0470 Y107.5600 E5.4784
G1 X72.5360 Y107.5260 E5.5005
G1 X72.0790 Y107.4360 E5.5206
G1 X71.6240 Y107.2810 E5.5413
G1 X71.3570 Y107.1570 E5.5540
G1 X71.1010 Y107.0090 E5.5667
G1 X70.7140 Y106.7250 E5.5874
G1 X70.3780 Y106.4030 E5.6075
G1 X70.0770 Y106.0280 E5.6282
G1 X69.9180 Y105.7790 E5.6409
G1 X69.7820 Y105.5180 E5.6536
G1 X69.6080 Y105.0690 E5.6744
G1 X69.4970 Y104.6180 E5.6944
G1 X69.4450 Y104.1390 E5.7152
G1 X69.4450 Y95.8450 E6.0727
G1 X69.4720 Y95.5350 E6.0861
G1 X69.5260 Y95.2300 E6.0995
G1 X69.6060 Y94.9300 E6.1128
G1 X69.7120 Y94.6380 E6.1262
G1 X69.8430 Y94.3570 E6.1396
G1 X69.9990 Y94.0880 E6.1530
G1 X70.1770 Y93.8340 E6.1664
G1 X70.3760 Y93.5960 E6.1798
G1 X70.5960 Y93.3760 E6.1931
G1 X70.8220 Y93.1870 E6.2058
G1 X71.2350 Y92.9110 E6.2272
G1 X71.4960 Y92.7750 E6.2400
G1 X71.7830 Y92.6560 E6.2533
G1 X72.0790 Y92.5630 E6.2667
G1 X72.3820 Y92.4950 E6.2801
G1 X72.6900 Y92.4550 E6.2935
G1 X73.0310 Y92.4400 E6.3082
G1 X73.0190 Y91.8640 F6000
G92 E0.0000
G1 X126.9720 Y91.8640 E2.3256 F1440
G1 X127.5400 Y91.9010 E2.3502
G1 X128.0700 Y92.0070 E2.3735
G1 X128.5820 Y92.1810 E2.3968
G1 X129.0760 Y92.4240 E2.4205
G1 X129.3720 Y92.6130 E2.4357
G1 X129.6500 Y92.8260 E2.4508
G1 X130.0480 Y93.2070 E2.4745
G1 X130.3920 Y93.6360 E2.4982
G1 X130.5810 Y93.9320 E2.5134
G1 X130.7430 Y94.2440 E2.5285
G1 X130.9430 Y94.7570 E2.5522
G1 X131.0740 Y95.2910 E2.5760
G1 X131.1190 Y95.6400 E2.5911
G1 X131.1360 Y96.0190 E2.6075
G1 X131.1360 Y103.9720 E2.9503
G1 X131.0980 Y104.5490 E2.9752
G1 X131.0370 Y104.8950 E2.9904
G1 X130.9440 Y105.2430 E3.0059
G1 X130.8200 Y105.5820 E3.0215
G1 X130.6680 Y105.9090 E3.0370
G1 X130.4880 Y106.2220 E3.0526
G1 X130.2810 Y106.5170 E3.0681
G1 X130.0490 Y106.7940 E3.0837
G1 X129.7940 Y107.0490 E3.0992
G1 X129.5170 Y107.2810 E3.1148
G1 X129.2220 Y107.4870 E3.1303
G1 X128.9090 Y107.6680 E3.1459
G1 X128.5910 Y107.8160 E3.1610
G1 X128.0610 Y107.9960 E3.1851
G1 X127.7180 Y108.0720 E3.2003
G1 X127.3600 Y108.1190 E3.2158
G1 X126.9810 Y108.1360 E3.2322
G1 X73.0280 Y108.1360 E5.5578
G1 X72.4600 Y108.0990 E5.5824
G1 X71.9300 Y107.9930 E5.6057
G1 X71.4090 Y107.8160 E5.6294
G1 X71.0910 Y107.6680 E5.6445
G1 X70.7860 Y107.4920 E5.6597
G1 X70.3430 Y107.1670 E5.6834
G1 X69.9520 Y106.7930 E5.7067
G1 X69.6080 Y106.3640 E5.7304
G1 X69.4190 Y106.0680 E5.7456
G1 X69.2570 Y105.7560 E5.7607
G1 X69.0570 Y105.2430 E5.7844
G1 X68.9290 Y104.7180 E5.8077
G1 X68.8690 Y104.1710 E5.8315
G1 X68.8690 Y95.8200 E6.1914
G1 X68.9000 Y95.4600 E6.2070
G1 X68.9630 Y95.1050 E6.2225
G1 X69.0560 Y94.7570 E6.2381
G1 X69.1800 Y94.4170 E6.2536
G1 X69.3320 Y94.0910 E6.2692
G1 X69.5120 Y93.7780 E6.2847
G1 X69.7190 Y93.4830 E6.3003
G1 X69.9510 Y93.2060 E6.3158
G1 X70.2060 Y92.9510 E6.3314
G1 X70.4750 Y92.7250 E6.3465
G1 X70.9410 Y92.4140 E6.3707
G1 X71.2520 Y92.2520 E6.3858
G1 X71.5860 Y92.1140 E6.4013
G1 X71.9300 Y92.0060 E6.4169
G1 X72.2820 Y91.9280 E6.4325
G1 X72.6400 Y91.8810 E6.4480
G1 X73.0190 Y91.8640 E6.4644
G1 X73.0060 Y91.2880 F6000
G92 E0.0000
G1 X126.9910 Y91.2880 E2.3270 F1080
G1 X127.6150 Y91.3290 E2.3540
G1 X128.2190 Y91.4490 E2.3805
G1 X128.8030 Y91.6470 E2.4071
G1 X129.3590 Y91.9210 E2.4338
G1 X129.7030 Y92.1400 E2.4514
G1 X130.0260 Y92.3890 E2.4690
G1 X130.4740 Y92.8170 E2.4957
G1 X130.8610 Y93.3000 E2.5224
G1 X131.0800 Y93.6440 E2.5399
G1 X131.2690 Y94.0060 E2.5575
G1 X131.4930 Y94.5830 E2.5842
G1 X131.6410 Y95.1850 E2.6109
G1 X131.6940 Y95.5890 E2.6285
G1 X131.7120 Y96.0060 E2.6465
G1 X131.7120 Y103.9910 E2.9907
G1 X131.6710 Y104.6180 E3.0178
G1 X131.6000 Y105.0200 E3.0354
G1 X131.4940 Y105.4170 E3.0531
G1 X131.3530 Y105.8030 E3.0708
G1 X131.1790 Y106.1760 E3.0885
G1 X130.9740 Y106.5320 E3.1062
G1 X130.7380 Y106.8680 E3.1240
G1 X130.4740 Y107.1830 E3.1417
G1 X130.1830 Y107.4740 E3.1594
G1 X129.8680 Y107.7380 E3.1771
G1 X129.5320 Y107.9740 E3.1948
G1 X129.1760 Y108.1790 E3.2125
G1 X128.8060 Y108.3520 E3.2301
G1 X128.2160 Y108.5520 E3.2570
G1 X127.8180 Y108.6400 E3.2745
G1 X127.4110 Y108.6940 E3.2923
G1 X126.9940 Y108.7120 E3.3103
G1 X73.0090 Y108.7120 E5.6372
G1 X72.3850 Y108.6710 E5.6642
G1 X71.7810 Y108.5510 E5.6908
G1 X71.1940 Y108.3520 E5.7175
G1 X70.8240 Y108.1790 E5.7351
G1 X70.4710 Y107.9750 E5.7526
G1 X69.9720 Y107.6090 E5.7794
G1 X69.5260 Y107.1830 E5.8059
G1 X69.1390 Y106.7000 E5.8326
G1 X68.9200 Y106.3560 E5.8502
G1 X68.7310 Y105.9940 E5.8678
G1 X68.5070 Y105.4170 E5.8945
G1 X68.3600 Y104.8180 E5.9210
G1 X68.2930 Y104.2020 E5.9477
G1 X68.2930 Y95.7940 E6.3102
G1 X68.3290 Y95.3850 E6.3279
G1 X68.4000 Y94.9800 E6.3456
G1 X68.5060 Y94.5830 E6.3633
G1 X68.6470 Y94.1970 E6.3810
G1 X68.8210 Y93.8240 E6.3988
G1 X69.0260 Y93.4680 E6.4165
G1 X69.2620 Y93.1320 E6.4342
G1 X69.5260 Y92.8170 E6.4519
G1 X69.8170 Y92.5260 E6.4696
G1 X70.1290 Y92.2640 E6.4872
G1 X70.6470 Y91.9180 E6.5141
G1 X71.0090 Y91.7300 E6.5316
G1 X71.3890 Y91.5720 E6.5494
G1 X71.7810 Y91.4490 E6.5671
G1 X72.1820 Y91.3600 E6.5848
G1 X72.5890 Y91.3060 E6.6025
G1 X73.0060 Y91.2880 E6.6205
G1 X72.0250 Y107.0520 F6000
G92 E0.0000
G1 X69.9380 Y104.9650 E0.1272 F1440
G1 X69.8380 Y104.5580 E0.1453
G1 X69.7900 Y104.1210 E0.1643
G1 X69.7900 Y104.0030 E0.1693
G1 X72.9980 Y107.2100 E0.3649
G1 X73.0580 Y107.2140 E0.3675
G1 X73.8160 Y107.2140 E0.4002
G1 X69.7900 Y103.1880 E0.6456
G1 X69.7900 Y102.3740 E0.6807
G1 X74.6310 Y107.2140 E0.9758
G1 X75.4460 Y107.2140 E1.0109
G1 X69.7900 Y101.5590 E1.3556
G1 X69.7900 Y100.7450 E1.3907
G1 X76.2600 Y107.2140 E1.7851
G1 X77.0750 Y107.2140 E1.8202
G1 X69.7900 Y99.9300 E2.2643
G1 X69.7900 Y99.1150 E2.2994
G1 X77.8890 Y107.2140 E2.7931
G1 X78.7040 Y107.2140 E2.8282
G1 X69.7900 Y98.3010 E3.3716
G1 X69.7900 Y97.4860 E3.4067
G1 X79.5180 Y107.2140 E3.9997
G1 X80.3330 Y107.2140 E4.0348
G1 X69.7900 Y96.6720 E4.6775
G1 X69.7900 Y95.8600 E4.7125
G1 X81.1480 Y107.2140 E5.4050
G1 X81.9620 Y107.2140 E5.4401
G1 X69.9030 Y95.1560 E6.1752
G1 X69.9360 Y95.0340 E6.1806
G1 X70.0320 Y94.7700 E6.1927
G1 X70.1280 Y94.5650 E6.2024
G1 X82.7770 Y107.2140 E6.9735
G1 X83.5910 Y107.2140 E7.0087
G1 X70.4390 Y94.0620 E7.8104
G1 X70.4510 Y94.0440 E7.8114
G1 X70.6310 Y93.8300 E7.8234
G1 X70.8260 Y93.6350 E7.8353
G1 X84.4060 Y107.2140 E8.6631
G1 X85.2210 Y107.2140 E8.6983
G1 X71.2930 Y93.2870 E9.5473
G1 X71.4110 Y93.2090 E9.5533
G1 X71.6420 Y93.0880 E9.5646
G1 X71.8310 Y93.0100 E9.5734
G1 X86.0350 Y107.2140 E10.4393
G1 X86.8500 Y107.2140 E10.4744
G1 X72.4680 Y92.8330 E11.3511
G1 X72.7200 Y92.8000 E11.3620
G1 X73.0390 Y92.7860 E11.3758
G1 X73.2360 Y92.7860 E11.3843
G1 X87.6640 Y107.2140 E12.2639
G1 X88.4790 Y107.2140 E12.2990
G1 X74.0500 Y92.7860 E13.1786
G1 X74.8650 Y92.7860 E13.2137
G1 X89.2930 Y107.2140 E14.0932
G1 X90.1080 Y107.2140 E14.1284
G1 X75.6790 Y92.7860 E15.0079
G1 X76.4940 Y92.7860 E15.0430
G1 X90.9230 Y107.2140 E15.9226
G1 X91.7370 Y107.2140 E15.9577
G1 X77.3080 Y92.7860 E16.8373
G1 X78.1230 Y92.7860 E16.8724
G1 X92.5520 Y107.2140 E17.7520
G1 X93.3660 Y107.2140 E17.7871
G1 X78.9380 Y92.7860 E18.6667
G1 X79.7520 Y92.7860 E18.7018
G1 X94.1810 Y107.2140 E19.5814
G1 X94.9960 Y107.2140 E19.6165
G1 X80.5670 Y92.7860 E20.4961
G1 X81.3810 Y92.7860 E20.5312
G1 X95.8100 Y107.2140 E21.4108
G1 X96.6250 Y107.2140 E21.4459
G1 X82.1960 Y92.7860 E22.3255
G1 X83.0110 Y92.7860 E22.3606
G1 X97.4390 Y107.2140 E23.2402
G1 X98.2540 Y107.2140 E23.2753
G1 X83.8250 Y92.7860 E24.1548
G1 X84.6400 Y92.7860 E24.1900
G1 X99.0690 Y107.2140 E25.0695
G1 X99.8830 Y107.2140 E25.1046
G1 X85.4540 Y92.7860 E25.9842
G1 X86.2690 Y92.7860 E26.0193
G1 X100.6980 Y107.2140 E26.8989
G1 X101.5120 Y107.2140 E26.9340
G1 X87.0840 Y92.7860 E27.8136
G1 X87.8980 Y92.7860 E27.8487
G1 X102.3270 Y107.2140 E28.7283
G1 X103.1410 Y107.2140 E28.7634
G1 X88.7130 Y92.7860 E29.6430
G1 X89.5270 Y92.7860 E29.6781
G1 X103.9560 Y107.2140 E30.5577
G1 X104.7710 Y107.2140 E30.5928
G1 X90.3420 Y92.7860 E31.4724
G1 X91.1560 Y92.7860 E31.5075
G1 X105.5850 Y107.2140 E32.3871
G1 X106.4000 Y107.2140 E32.4222
G1 X91.9710 Y92.7860 E33.3017
G1 X92.7860 Y92.7860 E33.3369
G1 X107.2140 Y107.2140 E34.2164
G1 X108.0290 Y107.2140 E34.2516
G1 X93.6000 Y92.7860 E35.1311
G1 X94.4150 Y92.7860 E35.1662
G1 X108.8440 Y107.2140 E36.0458
G1 X109.6580 Y107.2140 E36.0809
G1 X95.2290 Y92.7860 E36.9605
G1 X96.0440 Y92.7860 E36.9956
G1 X110.4730 Y107.2140 E37.8752
G1 X111.2870 Y107.2140 E37.9103
G1 X96.8590 Y92.7860 E38.7899
G1 X97.6730 Y92.7860 E38.8250
G1 X112.1020 Y107.2140 E39.7046
G1 X112.9170 Y107.2140 E39.7397
G1 X98.4880 Y92.7860 E40.6193
G1 X99.3020 Y92.7860 E40.6544
G1 X113.7310 Y107.2140 E41.5340
G1 X114.5460 Y107.2140 E41.5691
G1 X100.1170 Y92.7860 E42.4487
G1 X100.9310 Y92.7860 E42.4838
G1 X115.3600 Y107.2140 E43.3633
G1 X116.1750 Y107.2140 E43.3985
G1 X101.7460 Y92.7860 E44.2780
G1 X102.5610 Y92.7860 E44.3131
G1 X116.9890 Y107.2140 E45.1927
G1 X117.8040 Y107.2140 E45.2278
G1 X103.3750 Y92.7860 E46.1074
G1 X104.1900 Y92.7860 E46.1425
G1 X118.6190 Y107.2140 E47.0221
G1 X119.4330 Y107.2140 E47.0572
G1 X105.0040 Y92.7860 E47.9368
G1 X105.8190 Y92.7860 E47.9719
G1 X120.2480 Y107.2140 E48.8515
G1 X121.0620 Y107.2140 E48.8866
G1 X106.6340 Y92.7860 E49.7662
G1 X107.4480 Y92.7860 E49.8013
G1 X121.8770 Y107.2140 E50.6809
G1 X122.6920 Y107.2140 E50.7160
G1 X108.2630 Y92.7860 E51.5956
G1 X109.0770 Y92.7860 E51.6307
G1 X123.5060 Y107.2140 E52.5103
G1 X124.3210 Y107.2140 E52.5454
G1 X109.8920 Y92.7860 E53.4249
G1 X110.7070 Y92.7860 E53.4601
G1 X125.1350 Y107.2140 E54.3396
G1 X125.9500 Y107.2140 E54.3747
G1 X111.5210 Y92.7860 E55.2543
G1 X112.3360 Y92.7860 E55.2894
G1 X126.7650 Y107.2140 E56.1690
G1 X126.9610 Y107.2140 E56.1775
G1 X127.2800 Y107.2000 E56.1912
G1 X127.5320 Y107.1670 E56.2022
G1 X113.1500 Y92.7860 E57.0789
G1 X113.9650 Y92.7860 E57.1140
G1 X128.1670 Y106.9870 E57.9798
G1 X128.2470 Y106.9600 E57.9834
G1 X128.4830 Y106.8500 E57.9947
G1 X128.7120 Y106.7180 E58.0060
G1 X114.7790 Y92.7860 E58.8553
G1 X115.5940 Y92.7860 E58.8904
G1 X129.1740 Y106.3650 E59.7183
G1 X129.3690 Y106.1700 E59.7301
G1 X129.5490 Y105.9560 E59.7422
G1 X129.5610 Y105.9380 E59.7432
G1 X116.4090 Y92.7860 E60.5449
G1 X117.2230 Y92.7860 E60.5800
G1 X129.8720 Y105.4350 E61.3511
G1 X129.9680 Y105.2290 E61.3609
G1 X130.0640 Y104.9660 E61.3730
G1 X130.0970 Y104.8440 E61.3784
G1 X118.0380 Y92.7860 E62.1135
G1 X118.8520 Y92.7860 E62.1486
G1 X130.2020 Y104.1350 E62.8405
G1 X130.2140 Y103.9420 E62.8488
G1 X130.2140 Y103.3330 E62.8751
G1 X119.6670 Y92.7860 E63.5180
G1 X120.4820 Y92.7860 E63.5531
G1 X130.2140 Y102.5180 E64.1465
G1 X130.2140 Y101.7040 E64.1816
G1 X121.2960 Y92.7860 E64.7252
G1 X122.1110 Y92.7860 E64.7603
G1 X130.2140 Y100.8890 E65.2543
G1 X130.2140 Y100.0750 E65.2895
G1 X122.9250 Y92.7860 E65.7338
G1 X123.7400 Y92.7860 E65.7689
G1 X130.2140 Y99.2600 E66.1636
G1 X130.2140 Y98.4450 E66.1987
G1 X124.5550 Y92.7860 E66.5437
G1 X125.3690 Y92.7860 E66.5788
G1 X130.2140 Y97.6310 E66.8742
G1 X130.2140 Y96.8160 E66.9093
G1 X126.1840 Y92.7860 E67.1550
G1 X126.9420 Y92.7860 E67.1877
G1 X127.0020 Y92.7900 E67.1903
G1 X130.2130 Y96.0000 E67.3860
G1 X130.2000 Y95.7200 E67.3981
G1 X130.1660 Y95.4610 E67.4094
G1 X130.0620 Y95.0350 E67.4283
G1 X127.9750 Y92.9480 E67.5555
G92 E0.0000
G1 E-1.4 F1800 ; custom retraction - A
;layer 2, Z = 0.400
M106 S255; custom fan 100% from layer 2
G1 Z0.400 F1200
G1 X73.0260 Y92.2000 F6000
G1 E0 F2400 ; custom un-retraction/prime - A
G92 E0.0000
G1 X126.9610 Y92.2000 E1.9374 F2880
G1 X127.4960 Y92.2350 E1.9566
G1 X127.9830 Y92.3320 E1.9745
G1 X128.4530 Y92.4920 E1.9923
G1 X128.9110 Y92.7170 E2.0106
G1 X129.1790 Y92.8880 E2.0221
G1 X129.4310 Y93.0820 E2.0335
G1 X129.8000 Y93.4340 E2.0518
G1 X130.1190 Y93.8320 E2.0701
G1 X130.2900 Y94.1010 E2.0816
G1 X130.4370 Y94.3830 E2.0930
G1 X130.6220 Y94.8580 E2.1113
G1 X130.7430 Y95.3530 E2.1296
G1 X130.7840 Y95.6690 E2.1411
G1 X130.8000 Y96.0260 E2.1539
G1 X130.8000 Y103.9610 E2.4389
G1 X130.7640 Y104.5090 E2.4587
G1 X130.7090 Y104.8220 E2.4701
G1 X130.6230 Y105.1420 E2.4820
G1 X130.5100 Y105.4540 E2.4939
G1 X130.3700 Y105.7540 E2.5058
G1 X130.2040 Y106.0410 E2.5177
G1 X130.0140 Y106.3130 E2.5296
G1 X129.8010 Y106.5670 E2.5415
G1 X129.5670 Y106.8010 E2.5534
G1 X129.3130 Y107.0140 E2.5653
G1 X129.0410 Y107.2040 E2.5772
G1 X128.7540 Y107.3700 E2.5891
G1 X128.4660 Y107.5040 E2.6006
G1 X127.9700 Y107.6720 E2.6194
G1 X127.6600 Y107.7410 E2.6308
G1 X127.3310 Y107.7840 E2.6427
G1 X126.9740 Y107.8000 E2.6555
G1 X73.0390 Y107.8000 E4.5929
G1 X72.5040 Y107.7650 E4.6122
G1 X72.0170 Y107.6680 E4.6300
G1 X71.5340 Y107.5040 E4.6483
G1 X71.2460 Y107.3700 E4.6598
G1 X70.9700 Y107.2100 E4.6712
G1 X70.5590 Y106.9090 E4.6895
G1 X70.2000 Y106.5660 E4.7074
G1 X69.8810 Y106.1680 E4.7257
G1 X69.7100 Y105.8990 E4.7371
G1 X69.5630 Y105.6170 E4.7485
G1 X69.3780 Y105.1420 E4.7669
G1 X69.2600 Y104.6600 E4.7847
G1 X69.2050 Y104.1520 E4.8030
G1 X69.2050 Y95.8340 E5.1018
G1 X69.2340 Y95.5040 E5.1137
G1 X69.2910 Y95.1780 E5.1256
G1 X69.3770 Y94.8580 E5.1375
G1 X69.4900 Y94.5460 E5.1494
G1 X69.6300 Y94.2460 E5.1613
G1 X69.7960 Y93.9590 E5.1732
G1 X69.9860 Y93.6870 E5.1851
G1 X70.1990 Y93.4330 E5.1970
G1 X70.4340 Y93.1990 E5.2089
G1 X70.6770 Y92.9950 E5.2204
G1 X71.1120 Y92.7040 E5.2392
G1 X71.3950 Y92.5570 E5.2506
G1 X71.7010 Y92.4300 E5.2625
G1 X72.0170 Y92.3310 E5.2744
G1 X72.3400 Y92.2590 E5.2863
G1 X72.6690 Y92.2160 E5.2982
G1 X73.0260 Y92.2000 E5.3111
G1 X73.0160 Y91.7200 F6000
G92 E0.0000
G1 X126.9770 Y91.7200 E1.9383 F2880
G1 X127.5580 Y91.7580 E1.9593
G1 X128.1070 Y91.8670 E1.9794
G1 X128.6370 Y92.0470 E1.9995
G1 X129.1460 Y92.2980 E2.0199
G1 X129.4540 Y92.4950 E2.0330
G1 X129.7440 Y92.7170 E2.0461
G1 X130.1540 Y93.1090 E2.0665
G1 X130.5100 Y93.5520 E2.0869
G1 X130.7060 Y93.8600 E2.1000
G1 X130.8750 Y94.1850 E2.1132
G1 X131.0800 Y94.7130 E2.1335
G1 X131.2150 Y95.2650 E2.1539
G1 X131.2630 Y95.6270 E2.1670
G1 X131.2800 Y96.0160 E2.1810
G1 X131.2800 Y103.9770 E2.4670
G1 X131.2410 Y104.5660 E2.4882
G1 X131.1780 Y104.9260 E2.5013
G1 X131.0810 Y105.2870 E2.5147
G1 X130.9540 Y105.6380 E2.5282
G1 X130.7960 Y105.9760 E2.5416
G1 X130.6090 Y106.2990 E2.5550
G1 X130.3950 Y106.6050 E2.5684
G1 X130.1550 Y106.8910 E2.5818
G1 X129.8910 Y107.1550 E2.5952
G1 X129.6050 Y107.3950 E2.6086
G1 X129.2990 Y107.6090 E2.6220
G1 X128.9760 Y107.7960 E2.6354
G1 X128.6450 Y107.9500 E2.6486
G1 X128.1000 Y108.1350 E2.6692
G1 X127.7430 Y108.2140 E2.6824
G1 X127.3730 Y108.2630 E2.6958
G1 X126.9840 Y108.2800 E2.7097
G1 X73.0230 Y108.2800 E4.6481
G1 X72.4420 Y108.2420 E4.6690
G1 X71.8930 Y108.1330 E4.6891
G1 X71.3550 Y107.9500 E4.7095
G1 X71.0240 Y107.7960 E4.7226
G1 X70.7080 Y107.6130 E4.7358
G1 X70.2500 Y107.2780 E4.7561
G1 X69.8460 Y106.8900 E4.7763
G1 X69.4900 Y106.4480 E4.7966
G1 X69.2940 Y106.1400 E4.8098
G1 X69.1250 Y105.8160 E4.8229
G1 X68.9200 Y105.2860 E4.8433
G1 X68.7870 Y104.7430 E4.8634
G1 X68.7250 Y104.1790 E4.8838
G1 X68.7250 Y95.8130 E5.1843
G1 X68.7570 Y95.4420 E5.1977
G1 X68.8220 Y95.0740 E5.2111
G1 X68.9190 Y94.7130 E5.2245
G1 X69.0460 Y94.3620 E5.2379
G1 X69.2040 Y94.0240 E5.2513
G1 X69.3910 Y93.7010 E5.2647
G1 X69.6050 Y93.3950 E5.2781
G1 X69.8450 Y93.1090 E5.2915
G1 X70.1090 Y92.8450 E5.3050
G1 X70.3890 Y92.6100 E5.3181
G1 X70.8670 Y92.2900 E5.3388
G1 X71.1920 Y92.1220 E5.3519
G1 X71.5370 Y91.9790 E5.3653
G1 X71.8920 Y91.8670 E5.3787
G1 X72.2570 Y91.7860 E5.3921
G1 X72.6270 Y91.7370 E5.4055
G1 X73.0160 Y91.7200 E5.4195
G1 X73.0050 Y91.2400 F6000
G92 E0.0000
G1 X126.9920 Y91.2400 E1.9393 F2160
G1 X127.6210 Y91.2810 E1.9619
G1 X128.2320 Y91.4030 E1.9843
G1 X128.8210 Y91.6030 E2.0066
G1 X129.3820 Y91.8790 E2.0291
G1 X129.7300 Y92.1010 E2.0439
G1 X130.0570 Y92.3520 E2.0587
G1 X130.5090 Y92.7850 E2.0812
G1 X130.9000 Y93.2720 E2.1036
G1 X131.1220 Y93.6200 E2.1185
G1 X131.3130 Y93.9860 E2.1333
G1 X131.5390 Y94.5690 E2.1558
G1 X131.6880 Y95.1760 E2.1782
G1 X131.7420 Y95.5850 E2.1930
G1 X131.7600 Y96.0050 E2.2081
G1 X131.7600 Y103.9920 E2.4950
G1 X131.7190 Y104.6240 E2.5178
G1 X131.6470 Y105.0300 E2.5326
G1 X131.5390 Y105.4310 E2.5475
G1 X131.3970 Y105.8220 E2.5624
G1 X131.2220 Y106.1980 E2.5773
G1 X131.0140 Y106.5570 E2.5923
G1 X130.7760 Y106.8980 E2.6072
G1 X130.5090 Y107.2160 E2.6221
G1 X130.2160 Y107.5090 E2.6370
G1 X129.8980 Y107.7760 E2.6519
G1 X129.5570 Y108.0140 E2.6668
G1 X129.1980 Y108.2220 E2.6817
G1 X128.8240 Y108.3960 E2.6966
G1 X128.2290 Y108.5980 E2.7191
G1 X127.8270 Y108.6870 E2.7339
G1 X127.4150 Y108.7420 E2.7489
G1 X126.9950 Y108.7600 E2.7640
G1 X73.0080 Y108.7600 E4.7032
G1 X72.3790 Y108.7190 E4.7259
G1 X71.7680 Y108.5970 E4.7482
G1 X71.1760 Y108.3960 E4.7707
G1 X70.8020 Y108.2220 E4.7855
G1 X70.4450 Y108.0160 E4.8003
G1 X69.9410 Y107.6460 E4.8228
G1 X69.4910 Y107.2150 E4.8452
G1 X69.1000 Y106.7280 E4.8676
G1 X68.8780 Y106.3800 E4.8824
G1 X68.6870 Y106.0140 E4.8973
G1 X68.4610 Y105.4310 E4.9197
G1 X68.3130 Y104.8260 E4.9421
G1 X68.2450 Y104.2050 E4.9645
G1 X68.2450 Y95.7920 E5.2667
G1 X68.2810 Y95.3790 E5.2816
G1 X68.3530 Y94.9700 E5.2966
G1 X68.4600 Y94.5690 E5.3115
G1 X68.6030 Y94.1790 E5.3264
G1 X68.7780 Y93.8020 E5.3413
G1 X68.9860 Y93.4420 E5.3562
G1 X69.2240 Y93.1020 E5.3711
G1 X69.4910 Y92.7840 E5.3860
G1 X69.7840 Y92.4910 E5.4010
G1 X70.1000 Y92.2250 E5.4158
G1 X70.6220 Y91.8770 E5.4383
G1 X70.9880 Y91.6860 E5.4532
G1 X71.3720 Y91.5270 E5.4681
G1 X71.7680 Y91.4020 E5.4830
G1 X72.1730 Y91.3130 E5.4979
G1 X72.5850 Y91.2580 E5.5128
G1 X73.0050 Y91.2400 E5.5279
G1 X69.6130 Y95.0880 F6000
G92 E0.0000
G1 X72.0920 Y92.6090 E0.1259 F2880
G1 X72.3900 Y92.5430 E0.1369
G1 X72.6940 Y92.5030 E0.1479
G1 X72.8860 Y92.4940 E0.1548
G1 X69.4930 Y95.8870 E0.3271
G1 X69.4930 Y96.5660 E0.3515
G1 X73.5710 Y92.4880 E0.5587
G1 X74.2500 Y92.4880 E0.5831
G1 X69.4930 Y97.2450 E0.8247
G1 X69.4930 Y97.9240 E0.8491
G1 X74.9290 Y92.4880 E1.1253
G1 X75.6070 Y92.4880 E1.1496
G1 X69.4930 Y98.6030 E1.4603
G1 X69.4930 Y99.2810 E1.4847
G1 X76.2860 Y92.4880 E1.8298
G1 X76.9650 Y92.4880 E1.8541
G1 X69.4930 Y99.9600 E2.2337
G1 X69.4930 Y100.6390 E2.2581
G1 X77.6440 Y92.4880 E2.6722
G1 X78.3230 Y92.4880 E2.6966
G1 X69.4930 Y101.3180 E3.1451
G1 X69.4930 Y101.9970 E3.1695
G1 X79.0010 Y92.4880 E3.6526
G1 X79.6800 Y92.4880 E3.6769
G1 X69.4930 Y102.6760 E4.1945
G1 X69.4930 Y103.3540 E4.2189
G1 X80.3590 Y92.4880 E4.7709
G1 X81.0380 Y92.4880 E4.7953
G1 X69.4930 Y104.0330 E5.3817
G1 X69.4930 Y104.1370 E5.3855
G1 X69.5440 Y104.6090 E5.4025
G1 X69.5550 Y104.6500 E5.4041
G1 X81.7170 Y92.4880 E6.0219
G1 X82.3960 Y92.4880 E6.0463
G1 X69.7030 Y105.1810 E6.6911
G1 X69.8260 Y105.4980 E6.7033
G1 X69.9070 Y105.6550 E6.7097
G1 X83.0740 Y92.4880 E7.3785
G1 X83.7530 Y92.4880 E7.4029
G1 X70.1720 Y106.0700 E8.0929
G1 X70.4130 Y106.3700 E8.1067
G1 X70.4830 Y106.4370 E8.1102
G1 X84.4320 Y92.4880 E8.8188
G1 X85.1110 Y92.4880 E8.8432
G1 X70.8410 Y106.7580 E9.5681
G1 X71.1280 Y106.9690 E9.5809
G1 X71.2430 Y107.0350 E9.5857
G1 X85.7900 Y92.4880 E10.3247
G1 X86.4690 Y92.4880 E10.3491
G1 X71.7000 Y107.2560 E11.0993
G1 X72.0920 Y107.3890 E11.1141
G1 X72.2210 Y107.4150 E11.1189
G1 X87.1470 Y92.4880 E11.8771
G1 X87.8260 Y92.4880 E11.9015
G1 X72.8170 Y107.4970 E12.6640
G1 X73.0490 Y107.5120 E12.6723
G1 X73.4810 Y107.5120 E12.6878
G1 X88.5050 Y92.4880 E13.4510
G1 X89.1840 Y92.4880 E13.4754
G1 X74.1600 Y107.5120 E14.2386
G1 X74.8390 Y107.5120 E14.2630
G1 X89.8630 Y92.4880 E15.0262
G1 X90.5410 Y92.4880 E15.0506
G1 X75.5170 Y107.5120 E15.8138
G1 X76.1960 Y107.5120 E15.8382
G1 X91.2200 Y92.4880 E16.6014
G1 X91.8990 Y92.4880 E16.6258
G1 X76.8750 Y107.5120 E17.3891
G1 X77.5540 Y107.5120 E17.4134
G1 X92.5780 Y92.4880 E18.1767
G1 X93.2570 Y92.4880 E18.2010
G1 X78.2330 Y107.5120 E18.9643
G1 X78.9120 Y107.5120 E18.9886
G1 X93.9360 Y92.4880 E19.7519
G1 X94.6140 Y92.4880 E19.7762
G1 X79.5900 Y107.5120 E20.5395
G1 X80.2690 Y107.5120 E20.5638
G1 X95.2930 Y92.4880 E21.3271
G1 X95.9720 Y92.4880 E21.3514
G1 X80.9480 Y107.5120 E22.1147
G1 X81.6270 Y107.5120 E22.1390
G1 X96.6510 Y92.4880 E22.9023
G1 X97.3300 Y92.4880 E22.9266
G1 X82.3060 Y107.5120 E23.6899
G1 X82.9850 Y107.5120 E23.7142
G1 X98.0090 Y92.4880 E24.4775
G1 X98.6870 Y92.4880 E24.5018
G1 X83.6630 Y107.5120 E25.2651
G1 X84.3420 Y107.5120 E25.2894
G1 X99.3660 Y92.4880 E26.0527
G1 X100.0450 Y92.4880 E26.0771
G1 X85.0210 Y107.5120 E26.8403
G1 X85.7000 Y107.5120 E26.8647
G1 X100.7240 Y92.4880 E27.6279
G1 X101.4030 Y92.4880 E27.6523
G1 X86.3790 Y107.5120 E28.4155
G1 X87.0570 Y107.5120 E28.4399
G1 X102.0810 Y92.4880 E29.2031
G1 X102.7600 Y92.4880 E29.2275
G1 X87.7360 Y107.5120 E29.9907
G1 X88.4150 Y107.5120 E30.0151
G1 X103.4390 Y92.4880 E30.7783
G1 X104.1180 Y92.4880 E30.8027
G1 X89.0940 Y107.5120 E31.5659
G1 X89.7730 Y107.5120 E31.5903
G1 X104.7970 Y92.4880 E32.3535
G1 X105.4760 Y92.4880 E32.3779
G1 X90.4520 Y107.5120 E33.1411
G1 X91.1300 Y107.5120 E33.1655
G1 X106.1540 Y92.4880 E33.9287
G1 X106.8330 Y92.4880 E33.9531
G1 X91.8090 Y107.5120 E34.7163
G1 X92.4880 Y107.5120 E34.7407
G1 X107.5120 Y92.4880 E35.5039
G1 X108.1910 Y92.4880 E35.5283
G1 X93.1670 Y107.5120 E36.2915
G1 X93.8460 Y107.5120 E36.3159
G1 X108.8700 Y92.4880 E37.0791
G1 X109.5490 Y92.4880 E37.1035
G1 X94.5250 Y107.5120 E37.8667
G1 X95.2030 Y107.5120 E37.8911
G1 X110.2270 Y92.4880 E38.6543
G1 X110.9060 Y92.4880 E38.6787
G1 X95.8820 Y107.5120 E39.4419
G1 X96.5610 Y107.5120 E39.4663
G1 X111.5850 Y92.4880 E40.2295
G1 X112.2640 Y92.4880 E40.2539
G1 X97.2400 Y107.5120 E41.0171
G1 X97.9190 Y107.5120 E41.0415
G1 X112.9430 Y92.4880 E41.8047
G1 X113.6210 Y92.4880 E41.8291
G1 X98.5970 Y107.5120 E42.5923
G1 X99.2760 Y107.5120 E42.6167
G1 X114.3000 Y92.4880 E43.3799
G1 X114.9790 Y92.4880 E43.4043
G1 X99.9550 Y107.5120 E44.1675
G1 X100.6340 Y107.5120 E44.1919
G1 X115.6580 Y92.4880 E44.9551
G1 X116.3370 Y92.4880 E44.9795
G1 X101.3130 Y107.5120 E45.7427
G1 X101.9920 Y107.5120 E45.7671
G1 X117.0160 Y92.4880 E46.5303
G1 X117.6940 Y92.4880 E46.5547
G1 X102.6700 Y107.5120 E47.3179
G1 X103.3490 Y107.5120 E47.3423
G1 X118.3730 Y92.4880 E48.1055
G1 X119.0520 Y92.4880 E48.1299
G1 X104.0280 Y107.5120 E48.8931
G1 X104.7070 Y107.5120 E48.9175
G1 X119.7310 Y92.4880 E49.6807
G1 X120.4100 Y92.4880 E49.7051
G1 X105.3860 Y107.5120 E50.4683
G1 X106.0640 Y107.5120 E50.4927
G1 X121.0880 Y92.4880 E51.2559
G1 X121.7670 Y92.4880 E51.2803
G1 X106.7430 Y107.5120 E52.0435
G1 X107.4220 Y107.5120 E52.0679
G1 X122.4460 Y92.4880 E52.8311
G1 X123.1250 Y92.4880 E52.8555
G1 X108.1010 Y107.5120 E53.6187
G1 X108.7800 Y107.5120 E53.6431
G1 X123.8040 Y92.4880 E54.4063
G1 X124.4830 Y92.4880 E54.4307
G1 X109.4590 Y107.5120 E55.1939
G1 X110.1370 Y107.5120 E55.2183
G1 X125.1610 Y92.4880 E55.9815
G1 X125.8400 Y92.4880 E56.0059
G1 X110.8160 Y107.5120 E56.7691
G1 X111.4950 Y107.5120 E56.7935
G1 X126.5190 Y92.4880 E57.5567
G1 X126.9510 Y92.4880 E57.5722
G1 X127.1830 Y92.5030 E57.5806
G1 X112.1740 Y107.5120 E58.3430
G1 X112.8530 Y107.5120 E58.3674
G1 X127.7800 Y92.5850 E59.1257
G1 X127.9080 Y92.6110 E59.1304
G1 X128.3000 Y92.7440 E59.1453
G1 X113.5320 Y107.5120 E59.8955
G1 X114.2100 Y107.5120 E59.9199
G1 X128.7590 Y92.9630 E60.6589
G1 X128.7690 Y92.9680 E60.6593
G1 X129.0140 Y93.1240 E60.6698
G1 X129.1630 Y93.2390 E60.6765
G1 X114.8890 Y107.5120 E61.4016
G1 X115.5680 Y107.5120 E61.4260
G1 X129.5170 Y93.5630 E62.1346
G1 X129.5870 Y93.6290 E62.1381
G1 X129.8280 Y93.9300 E62.1519
G1 X116.2470 Y107.5120 E62.8419
G1 X116.9260 Y107.5120 E62.8663
G1 X130.0930 Y94.3450 E63.5351
G1 X130.1740 Y94.5020 E63.5415
G1 X130.2970 Y94.8190 E63.5537
G1 X117.6040 Y107.5120 E64.1985
G1 X118.2830 Y107.5120 E64.2229
G1 X130.4460 Y95.3500 E64.8407
G1 X130.4590 Y95.4060 E64.8428
G1 X130.4970 Y95.6940 E64.8532
G1 X130.5090 Y95.9650 E64.8630
G1 X118.9620 Y107.5120 E65.4496
G1 X119.6410 Y107.5120 E65.4740
G1 X130.5120 Y96.6410 E66.0262
G1 X130.5120 Y97.3200 E66.0506
G1 X120.3200 Y107.5120 E66.5684
G1 X120.9990 Y107.5120 E66.5927
G1 X130.5120 Y97.9990 E67.0760
G1 X130.5120 Y98.6770 E67.1004
G1 X121.6770 Y107.5120 E67.5492
G1 X122.3560 Y107.5120 E67.5736
G1 X130.5120 Y99.3560 E67.9879
G1 X130.5120 Y100.0350 E68.0123
G1 X123.0350 Y107.5120 E68.3921
G1 X123.7140 Y107.5120 E68.4165
G1 X130.5120 Y100.7140 E68.7618
G1 X130.5120 Y101.3930 E68.7862
G1 X124.3930 Y107.5120 E69.0971
G1 X125.0720 Y107.5120 E69.1215
G1 X130.5120 Y102.0720 E69.3978
G1 X130.5120 Y102.7500 E69.4222
G1 X125.7500 Y107.5120 E69.6641
G1 X126.4290 Y107.5120 E69.6885
G1 X130.5120 Y103.4290 E69.8959
G1 X130.5120 Y103.9510 E69.9147
G1 X130.5010 Y104.1190 E69.9207
G1 X127.1140 Y107.5060 E70.0927
G1 X127.3060 Y107.4970 E70.0996
G1 X127.6100 Y107.4570 E70.1106
G1 X127.8930 Y107.3940 E70.1210
G1 X127.9100 Y107.3880 E70.1217
G1 X130.3870 Y104.9120 E70.2475
G92 E0.0000
G1 E-1.4 F1800 ; custom retraction - A
;layer 3, Z = 0.600
;fan3;
G1 Z0.600 F1200
G1 X73.0260 Y92.2000 F6000
G1 E0 F2400 ; custom un-retraction/prime - A
G92 E0.0000
G1 X126.9610 Y92.2000 E1.9374 F2880
G1 X127.4960 Y92.2350 E1.9566
G1 X127.9830 Y92.3320 E1.9745
G1 X128.4530 Y92.4920 E1.9923
G1 X128.9110 Y92.7170 E2.0106
G1 X129.1790 Y92.8880 E2.0221
G1 X129.4310 Y93.0820 E2.0335
G1 X129.8000 Y93.4340 E2.0518
G1 X130.1190 Y93.8320 E2.0701
G1 X130.2900 Y94.1010 E2.0816
G1 X130.4370 Y94.3830 E2.0930
G1 X130.6220 Y94.8580 E2.1113
G1 X130.7430 Y95.3530 E2.1296
G1 X130.7840 Y95.6690 E2.1411
G1 X130.8000 Y96.0260 E2.1539
G1 X130.8000 Y103.9610 E2.4389
G1 X130.7640 Y104.5090 E2.4587
G1 X130.7090 Y104.8220 E2.4701
G1 X130.6230 Y105.1420 E2.4820
G1 X130.5100 Y105.4540 E2.4939
G1 X130.3700 Y105.7540 E2.5058
G1 X130.2040 Y106.0410 E2.5177
G1 X130.0140 Y106.3130 E2.5296
G1 X129.8010 Y106.5670 E2.5415
G1 X129.5670 Y106.8010 E2.5534
G1 X129.3130 Y107.0140 E2.5653
G1 X129.0410 Y107.2040 E2.5772
G1 X128.7540 Y107.3700 E2.5891
G1 X128.4660 Y107.5040 E2.6006
G1 X127.9700 Y107.6720 E2.6194
G1 X127.6600 Y107.7410 E2.6308
G1 X127.3310 Y107.7840 E2.6427
G1 X126.9740 Y107.8000 E2.6555
G1 X73.0390 Y107.8000 E4.5929
G1 X72.5040 Y107.7650 E4.6122
G1 X72.0170 Y107.6680 E4.6300
G1 X71.5340 Y107.5040 E4.6483
G1 X71.2460 Y107.3700 E4.6598
G1 X70.9700 Y107.2100 E4.6712
G1 X70.5590 Y106.9090 E4.6895
G1 X70.2000 Y106.5660 E4.7074
G1 X69.8810 Y106.1680 E4.7257
G1 X69.7100 Y105.8990 E4.7371
G1 X69.5630 Y105.6170 E4.7485
G1 X69.3780 Y105.1420 E4.7669
G1 X69.2600 Y104.6600 E4.7847
G1 X69.2050 Y104.1520 E4.8030
G1 X69.2050 Y95.8340 E5.1018
G1 X69.2340 Y95.5040 E5.1137
G1 X69.2910 Y95.1780 E5.1256
G1 X69.3770 Y94.8580 E5.1375
G1 X69.4900 Y94.5460 E5.1494
G1 X69.6300 Y94.2460 E5.1613
G1 X69.7960 Y93.9590 E5.1732
G1 X69.9860 Y93.6870 E5.1851
G1 X70.1990 Y93.4330 E5.1970
G1 X70.4340 Y93.1990 E5.2089
G1 X70.6770 Y92.9950 E5.2204
G1 X71.1120 Y92.7040 E5.2392
G1 X71.3950 Y92.5570 E5.2506
G1 X71.7010 Y92.4300 E5.2625
G1 X72.0170 Y92.3310 E5.2744
G1 X72.3400 Y92.2590 E5.2863
G1 X72.6690 Y92.2160 E5.2982
G1 X73.0260 Y92.2000 E5.3111
G1 X73.0160 Y91.7200 F6000
G92 E0.0000
G1 X126.9770 Y91.7200 E1.9383 F2880
G1 X127.5580 Y91.7580 E1.9593
G1 X128.1070 Y91.8670 E1.9794
G1 X128.6370 Y92.0470 E1.9995
G1 X129.1460 Y92.2980 E2.0199
G1 X129.4540 Y92.4950 E2.0330
G1 X129.7440 Y92.7170 E2.0461
G1 X130.1540 Y93.1090 E2.0665
G1 X130.5100 Y93.5520 E2.0869
G1 X130.7060 Y93.8600 E2.1000
G1 X130.8750 Y94.1850 E2.1132
G1 X131.0800 Y94.7130 E2.1335
G1 X131.2150 Y95.2650 E2.1539
G1 X131.2630 Y95.6270 E2.1670
G1 X131.2800 Y96.0160 E2.1810
G1 X131.2800 Y103.9770 E2.4670
G1 X131.2410 Y104.5660 E2.4882
G1 X131.1780 Y104.9260 E2.5013
G1 X131.0810 Y105.2870 E2.5147
G1 X130.9540 Y105.6380 E2.5282
G1 X130.7960 Y105.9760 E2.5416
G1 X130.6090 Y106.2990 E2.5550
G1 X130.3950 Y106.6050 E2.5684
G1 X130.1550 Y106.8910 E2.5818
G1 X129.8910 Y107.1550 E2.5952
G1 X129.6050 Y107.3950 E2.6086
G1 X129.2990 Y107.6090 E2.6220
G1 X128.9760 Y107.7960 E2.6354
G1 X128.6450 Y107.9500 E2.6486
G1 X128.1000 Y108.1350 E2.6692
G1 X127.7430 Y108.2140 E2.6824
G1 X127.3730 Y108.2630 E2.6958
G1 X126.9840 Y108.2800 E2.7097
G1 X73.0230 Y108.2800 E4.6481
G1 X72.4420 Y108.2420 E4.6690
G1 X71.8930 Y108.1330 E4.6891
G1 X71.3550 Y107.9500 E4.7095
G1 X71.0240 Y107.7960 E4.7226
G1 X70.7080 Y107.6130 E4.7358
G1 X70.2500 Y107.2780 E4.7561
G1 X69.8460 Y106.8900 E4.7763
G1 X69.4900 Y106.4480 E4.7966
G1 X69.2940 Y106.1400 E4.8098
G1 X69.1250 Y105.8160 E4.8229
G1 X68.9200 Y105.2860 E4.8433
G1 X68.7870 Y104.7430 E4.8634
G1 X68.7250 Y104.1790 E4.8838
G1 X68.7250 Y95.8130 E5.1843
G1 X68.7570 Y95.4420 E5.1977
G1 X68.8220 Y95.0740 E5.2111
G1 X68.9190 Y94.7130 E5.2245
G1 X69.0460 Y94.3620 E5.2379
G1 X69.2040 Y94.0240 E5.2513
G1 X69.3910 Y93.7010 E5.2647
G1 X69.6050 Y93.3950 E5.2781
G1 X69.8450 Y93.1090 E5.2915
G1 X70.1090 Y92.8450 E5.3050
G1 X70.3890 Y92.6100 E5.3181
G1 X70.8670 Y92.2900 E5.3388
G1 X71.1920 Y92.1220 E5.3519
G1 X71.5370 Y91.9790 E5.3653
G1 X71.8920 Y91.8670 E5.3787
G1 X72.2570 Y91.7860 E5.3921
G1 X72.6270 Y91.7370 E5.4055
G1 X73.0160 Y91.7200 E5.4195
G1 X73.0050 Y91.2400 F6000
G92 E0.0000
G1 X126.9920 Y91.2400 E1.9393 F2160
G1 X127.6210 Y91.2810 E1.9619
G1 X128.2320 Y91.4030 E1.9843
G1 X128.8210 Y91.6030 E2.0066
G1 X129.3820 Y91.8790 E2.0291
G1 X129.7300 Y92.1010 E2.0439
G1 X130.0570 Y92.3520 E2.0587
G1 X130.5090 Y92.7850 E2.0812
G1 X130.9000 Y93.2720 E2.1036
G1 X131.1220 Y93.6200 E2.1185
G1 X131.3130 Y93.9860 E2.1333
G1 X131.5390 Y94.5690 E2.1558
G1 X131.6880 Y95.1760 E2.1782
G1 X131.7420 Y95.5850 E2.1930
G1 X131.7600 Y96.0050 E2.2081
G1 X131.7600 Y103.9920 E2.4950
G1 X131.7190 Y104.6240 E2.5178
G1 X131.6470 Y105.0300 E2.5326
G1 X131.5390 Y105.4310 E2.5475
G1 X131.3970 Y105.8220 E2.5624
G1 X131.2220 Y106.1980 E2.5773
G1 X131.0140 Y106.5570 E2.5923
G1 X130.7760 Y106.8980 E2.6072
G1 X130.5090 Y107.2160 E2.6221
G1 X130.2160 Y107.5090 E2.6370
G1 X129.8980 Y107.7760 E2.6519
G1 X129.5570 Y108.0140 E2.6668
G1 X129.1980 Y108.2220 E2.6817
G1 X128.8240 Y108.3960 E2.6966
G1 X128.2290 Y108.5980 E2.7191
G1 X127.8270 Y108.6870 E2.7339
G1 X127.4150 Y108.7420 E2.7489
G1 X126.9950 Y108.7600 E2.7640
G1 X73.0080 Y108.7600 E4.7032
G1 X72.3790 Y108.7190 E4.7259
G1 X71.7680 Y108.5970 E4.7482
G1 X71.1760 Y108.3960 E4.7707
G1 X70.8020 Y108.2220 E4.7855
G1 X70.4450 Y108.0160 E4.8003
G1 X69.9410 Y107.6460 E4.8228
G1 X69.4910 Y107.2150 E4.8452
G1 X69.1000 Y106.7280 E4.8676
G1 X68.8780 Y106.3800 E4.8824
G1 X68.6870 Y106.0140 E4.8973
G1 X68.4610 Y105.4310 E4.9197
G1 X68.3130 Y104.8260 E4.9421
G1 X68.2450 Y104.2050 E4.9645
G1 X68.2450 Y95.7920 E5.2667
G1 X68.2810 Y95.3790 E5.2816
G1 X68.3530 Y94.9700 E5.2966
G1 X68.4600 Y94.5690 E5.3115
G1 X68.6030 Y94.1790 E5.3264
G1 X68.7780 Y93.8020 E5.3413
G1 X68.9860 Y93.4420 E5.3562
G1 X69.2240 Y93.1020 E5.3711
G1 X69.4910 Y92.7840 E5.3860
G1 X69.7840 Y92.4910 E5.4010
G1 X70.1000 Y92.2250 E5.4158
G1 X70.6220 Y91.8770 E5.4383
G1 X70.9880 Y91.6860 E5.4532
G1 X71.3720 Y91.5270 E5.4681
G1 X71.7680 Y91.4020 E5.4830
G1 X72.1730 Y91.3130 E5.4979
G1 X72.5850 Y91.2580 E5.5128
G1 X73.0050 Y91.2400 E5.5279
G1 X72.0900 Y107.3890 F6000
G92 E0.0000
G1 X69.6200 Y104.9190 E0.1255 F2880
G1 X69.5440 Y104.6090 E0.1369
G1 X69.4930 Y104.1370 E0.1540
G1 X69.4930 Y104.1130 E0.1548
G1 X72.8810 Y107.5010 E0.3270
G1 X73.0490 Y107.5120 E0.3330
G1 X73.5710 Y107.5120 E0.3518
G1 X69.4930 Y103.4340 E0.5589
G1 X69.4930 Y102.7550 E0.5833
G1 X74.2500 Y107.5120 E0.8250
G1 X74.9290 Y107.5120 E0.8494
G1 X69.4930 Y102.0760 E1.1255
G1 X69.4930 Y101.3970 E1.1499
G1 X75.6070 Y107.5120 E1.4605
G1 X76.2860 Y107.5120 E1.4849
G1 X69.4930 Y100.7190 E1.8300
G1 X69.4930 Y100.0400 E1.8544
G1 X76.9650 Y107.5120 E2.2340
G1 X77.6440 Y107.5120 E2.2583
G1 X69.4930 Y99.3610 E2.6724
G1 X69.4930 Y98.6820 E2.6968
G1 X78.3230 Y107.5120 E3.1454
G1 X79.0010 Y107.5120 E3.1697
G1 X69.4930 Y98.0030 E3.6528
G1 X69.4930 Y97.3240 E3.6772
G1 X79.6800 Y107.5120 E4.1947
G1 X80.3590 Y107.5120 E4.2191
G1 X69.4930 Y96.6460 E4.7711
G1 X69.4930 Y95.9670 E4.7955
G1 X81.0380 Y107.5120 E5.3820
G1 X81.7170 Y107.5120 E5.4063
G1 X69.5530 Y95.3490 E6.0242
G1 X69.5730 Y95.2400 E6.0282
G1 X69.6520 Y94.9440 E6.0392
G1 X69.6990 Y94.8150 E6.0441
G1 X82.3960 Y107.5120 E6.6891
G1 X83.0740 Y107.5120 E6.7135
G1 X69.9060 Y94.3440 E7.3824
G1 X70.0390 Y94.1140 E7.3920
G1 X70.1690 Y93.9280 E7.4001
G1 X83.7530 Y107.5120 E8.0902
G1 X84.4320 Y107.5120 E8.1146
G1 X70.4800 Y93.5600 E8.8233
G1 X70.6280 Y93.4120 E8.8309
G1 X70.8360 Y93.2370 E8.8406
G1 X85.1110 Y107.5120 E9.5658
G1 X85.7900 Y107.5120 E9.5902
G1 X71.2420 Y92.9640 E10.3292
G1 X71.2590 Y92.9520 E10.3300
G1 X71.5160 Y92.8180 E10.3404
G1 X71.6990 Y92.7430 E10.3475
G1 X86.4690 Y107.5120 E11.0978
G1 X87.1470 Y107.5120 E11.1222
G1 X72.2170 Y92.5810 E11.8806
G1 X72.3900 Y92.5430 E11.8870
G1 X72.6940 Y92.5030 E11.8980
G1 X72.8120 Y92.4980 E11.9023
G1 X87.8260 Y107.5120 E12.6650
G1 X88.5050 Y107.5120 E12.6894
G1 X73.4810 Y92.4880 E13.4526
G1 X74.1600 Y92.4880 E13.4770
G1 X89.1840 Y107.5120 E14.2402
G1 X89.8630 Y107.5120 E14.2646
G1 X74.8390 Y92.4880 E15.0278
G1 X75.5170 Y92.4880 E15.0522
G1 X90.5410 Y107.5120 E15.8154
G1 X91.2200 Y107.5120 E15.8398
G1 X76.1960 Y92.4880 E16.6030
G1 X76.8750 Y92.4880 E16.6274
G1 X91.8990 Y107.5120 E17.3906
G1 X92.5780 Y107.5120 E17.4150
G1 X77.5540 Y92.4880 E18.1782
G1 X78.2330 Y92.4880 E18.2026
G1 X93.2570 Y107.5120 E18.9658
G1 X93.9360 Y107.5120 E18.9902
G1 X78.9120 Y92.4880 E19.7534
G1 X79.5900 Y92.4880 E19.7778
G1 X94.6140 Y107.5120 E20.5410
G1 X95.2930 Y107.5120 E20.5654
G1 X80.2690 Y92.4880 E21.3286
G1 X80.9480 Y92.4880 E21.3530
G1 X95.9720 Y107.5120 E22.1162
G1 X96.6510 Y107.5120 E22.1406
G1 X81.6270 Y92.4880 E22.9038
G1 X82.3060 Y92.4880 E22.9282
G1 X97.3300 Y107.5120 E23.6914
G1 X98.0080 Y107.5120 E23.7158
G1 X82.9840 Y92.4880 E24.4790
G1 X83.6630 Y92.4880 E24.5034
G1 X98.6870 Y107.5120 E25.2666
G1 X99.3660 Y107.5120 E25.2910
G1 X84.3420 Y92.4880 E26.0542
G1 X85.0210 Y92.4880 E26.0786
G1 X100.0450 Y107.5120 E26.8418
G1 X100.7240 Y107.5120 E26.8662
G1 X85.7000 Y92.4880 E27.6294
G1 X86.3790 Y92.4880 E27.6538
G1 X101.4030 Y107.5120 E28.4170
G1 X102.0810 Y107.5120 E28.4414
G1 X87.0570 Y92.4880 E29.2046
G1 X87.7360 Y92.4880 E29.2290
G1 X102.7600 Y107.5120 E29.9922
G1 X103.4390 Y107.5120 E30.0166
G1 X88.4150 Y92.4880 E30.7798
G1 X89.0940 Y92.4880 E30.8042
G1 X104.1180 Y107.5120 E31.5674
G1 X104.7970 Y107.5120 E31.5918
G1 X89.7730 Y92.4880 E32.3550
G1 X90.4520 Y92.4880 E32.3794
G1 X105.4760 Y107.5120 E33.1426
G1 X106.1540 Y107.5120 E33.1670
G1 X91.1300 Y92.4880 E33.9302
G1 X91.8090 Y92.4880 E33.9546
G1 X106.8330 Y107.5120 E34.7178
G1 X107.5120 Y107.5120 E34.7422
G1 X92.4880 Y92.4880 E35.5054
G1 X93.1670 Y92.4880 E35.5298
G1 X108.1910 Y107.5120 E36.2930
G1 X108.8700 Y107.5120 E36.3174
G1 X93.8460 Y92.4880 E37.0806
G1 X94.5240 Y92.4880 E37.1050
G1 X109.5480 Y107.5120 E37.8682
G1 X110.2270 Y107.5120 E37.8926
G1 X95.2030 Y92.4880 E38.6558
G1 X95.8820 Y92.4880 E38.6802
G1 X110.9060 Y107.5120 E39.4434
G1 X111.5850 Y107.5120 E39.4678
G1 X96.5610 Y92.4880 E40.2310
G1 X97.2400 Y92.4880 E40.2554
G1 X112.2640 Y107.5120 E41.0186
G1 X112.9430 Y107.5120 E41.0430
G1 X97.9190 Y92.4880 E41.8062
G1 X98.5970 Y92.4880 E41.8306
G1 X113.6210 Y107.5120 E42.5938
G1 X114.3000 Y107.5120 E42.6182
G1 X99.2760 Y92.4880 E43.3814
G1 X99.9550 Y92.4880 E43.4058
G1 X114.9790 Y107.5120 E44.1690
G1 X115.6580 Y107.5120 E44.1934
G1 X100.6340 Y92.4880 E44.9567
G1 X101.3130 Y92.4880 E44.9810
G1 X116.3370 Y107.5120 E45.7443
G1 X117.0160 Y107.5120 E45.7686
G1 X101.9920 Y92.4880 E46.5319
G1 X102.6700 Y92.4880 E46.5562
G1 X117.6940 Y107.5120 E47.3195
G1 X118.3730 Y107.5120 E47.3438
G1 X103.3490 Y92.4880 E48.1071
G1 X104.0280 Y92.4880 E48.1314
G1 X119.0520 Y107.5120 E48.8947
G1 X119.7310 Y107.5120 E48.9190
G1 X104.7070 Y92.4880 E49.6823
G1 X105.3860 Y92.4880 E49.7066
G1 X120.4100 Y107.5120 E50.4699
G1 X121.0880 Y107.5120 E50.4942
G1 X106.0640 Y92.4880 E51.2575
G1 X106.7430 Y92.4880 E51.2818
G1 X121.7670 Y107.5120 E52.0451
G1 X122.4460 Y107.5120 E52.0694
G1 X107.4220 Y92.4880 E52.8327
G1 X108.1010 Y92.4880 E52.8570
G1 X123.1250 Y107.5120 E53.6203
G1 X123.8040 Y107.5120 E53.6447
G1 X108.7800 Y92.4880 E54.4079
G1 X109.4590 Y92.4880 E54.4323
G1 X124.4830 Y107.5120 E55.1955
G1 X125.1610 Y107.5120 E55.2199
G1 X110.1370 Y92.4880 E55.9831
G1 X110.8160 Y92.4880 E56.0075
G1 X125.8400 Y107.5120 E56.7707
G1 X126.5190 Y107.5120 E56.7951
G1 X111.4950 Y92.4880 E57.5583
G1 X112.1740 Y92.4880 E57.5827
G1 X127.1880 Y107.5020 E58.3454
G1 X127.3060 Y107.4970 E58.3496
G1 X127.6100 Y107.4570 E58.3606
G1 X127.7830 Y107.4190 E58.3670
G1 X112.8530 Y92.4880 E59.1255
G1 X113.5320 Y92.4880 E59.1499
G1 X128.3000 Y107.2560 E59.9001
G1 X128.3580 Y107.2360 E59.9023
G1 X128.6210 Y107.1140 E59.9127
G1 X128.7570 Y107.0350 E59.9184
G1 X114.2100 Y92.4880 E60.6574
G1 X114.8890 Y92.4880 E60.6818
G1 X129.1640 Y106.7630 E61.4069
G1 X129.3720 Y106.5880 E61.4167
G1 X129.5200 Y106.4400 E61.4242
G1 X115.5680 Y92.4880 E62.1330
G1 X116.2470 Y92.4880 E62.1573
G1 X129.8310 Y106.0720 E62.8474
G1 X129.9610 Y105.8860 E62.8556
G1 X130.0940 Y105.6560 E62.8651
G1 X116.9260 Y92.4880 E63.5340
G1 X117.6040 Y92.4880 E63.5584
G1 X130.3010 Y105.1850 E64.2034
G1 X130.3480 Y105.0560 E64.2083
G1 X130.4270 Y104.7600 E64.2193
G1 X130.4470 Y104.6510 E64.2233
G1 X118.2830 Y92.4880 E64.8412
G1 X118.9620 Y92.4880 E64.8656
G1 X130.5070 Y104.0330 E65.4520
G1 X130.5120 Y103.9510 E65.4550
G1 X130.5120 Y103.3590 E65.4762
G1 X119.6410 Y92.4880 E66.0285
G1 X120.3200 Y92.4880 E66.0529
G1 X130.5120 Y102.6800 E66.5706
G1 X130.5120 Y102.0010 E66.5950
G1 X120.9990 Y92.4880 E67.0783
G1 X121.6770 Y92.4880 E67.1027
G1 X130.5120 Y101.3230 E67.5515
G1 X130.5120 Y100.6440 E67.5759
G1 X122.3560 Y92.4880 E67.9902
G1 X123.0350 Y92.4880 E68.0146
G1 X130.5120 Y99.9650 E68.3944
G1 X130.5120 Y99.2860 E68.4188
G1 X123.7140 Y92.4880 E68.7641
G1 X124.3930 Y92.4880 E68.7885
G1 X130.5120 Y98.6070 E69.0994
G1 X130.5120 Y97.9290 E69.1238
G1 X125.0710 Y92.4880 E69.4001
G1 X125.7500 Y92.4880 E69.4245
G1 X130.5120 Y97.2500 E69.6664
G1 X130.5120 Y96.5710 E69.6908
G1 X126.4290 Y92.4880 E69.8982
G1 X126.9510 Y92.4880 E69.9170
G1 X127.1190 Y92.4990 E69.9230
G1 X130.5060 Y95.8860 E70.0950
G1 X130.4970 Y95.6940 E70.1019
G1 X130.4590 Y95.4060 E70.1123
G1 X130.3800 Y95.0810 E70.1244
G1 X127.9100 Y92.6110 E70.2498
G92 E0.0000
G1 E-1.4 F1800 ; custom retraction - A
;layer 4, Z = 0.800
;fan4;
G1 Z0.800 F1200
G1 X73.0260 Y92.2000 F6000
G1 E0 F2400 ; custom un-retraction/prime - A
G92 E0.0000
G1 X126.9610 Y92.2000 E1.9374 F2880
G1 X127.4960 Y92.2350 E1.9566
G1 X127.9830 Y92.3320 E1.9745
G1 X128.4530 Y92.4920 E1.9923
G1 X128.9110 Y92.7170 E2.0106
G1 X129.1790 Y92.8880 E2.0221
G1 X129.4310 Y93.0820 E2.0335
G1 X129.8000 Y93.4340 E2.0518
G1 X130.1190 Y93.8320 E2.0701
G1 X130.2900 Y94.1010 E2.0816
G1 X130.4370 Y94.3830 E2.0930
G1 X130.6220 Y94.8580 E2.1113
G1 X130.7430 Y95.3530 E2.1296
G1 X130.7840 Y95.6690 E2.1411
G1 X130.8000 Y96.0260 E2.1539
G1 X130.8000 Y103.9610 E2.4389
G1 X130.7640 Y104.5090 E2.4587
G1 X130.7090 Y104.8220 E2.4701
G1 X130.6230 Y105.1420 E2.4820
G1 X130.5100 Y105.4540 E2.4939
G1 X130.3700 Y105.7540 E2.5058
G1 X130.2040 Y106.0410 E2.5177
G1 X130.0140 Y106.3130 E2.5296
G1 X129.8010 Y106.5670 E2.5415
G1 X129.5670 Y106.8010 E2.5534
G1 X129.3130 Y107.0140 E2.5653
G1 X129.0410 Y107.2040 E2.5772
G1 X128.7540 Y107.3700 E2.5891
G1 X128.4660 Y107.5040 E2.6006
G1 X127.9700 Y107.6720 E2.6194
G1 X127.6600 Y107.7410 E2.6308
G1 X127.3310 Y107.7840 E2.6427
G1 X126.9740 Y107.8000 E2.6555
G1 X73.0390 Y107.8000 E4.5929
G1 X72.5040 Y107.7650 E4.6122
G1 X72.0170 Y107.6680 E4.6300
G1 X71.5340 Y107.5040 E4.6483
G1 X71.2460 Y107.3700 E4.6598
G1 X70.9700 Y107.2100 E4.6712
G1 X70.5590 Y106.9090 E4.6895
G1 X70.2000 Y106.5660 E4.7074
G1 X69.8810 Y106.1680 E4.7257
G1 X69.7100 Y105.8990 E4.7371
G1 X69.5630 Y105.6170 E4.7485
G1 X69.3780 Y105.1420 E4.7669
G1 X69.2600 Y104.6600 E4.7847
G1 X69.2050 Y104.1520 E4.8030
G1 X69.2050 Y95.8340 E5.1018
G1 X69.2340 Y95.5040 E5.1137
G1 X69.2910 Y95.1780 E5.1256
G1 X69.3770 Y94.8580 E5.1375
G1 X69.4900 Y94.5460 E5.1494
G1 X69.6300 Y94.2460 E5.1613
G1 X69.7960 Y93.9590 E5.1732
G1 X69.9860 Y93.6870 E5.1851
G1 X70.1990 Y93.4330 E5.1970
G1 X70.4340 Y93.1990 E5.2089
G1 X70.6770 Y92.9950 E5.2204
G1 X71.1120 Y92.7040 E5.2392
G1 X71.3950 Y92.5570 E5.2506
G1 X71.7010 Y92.4300 E5.2625
G1 X72.0170 Y92.3310 E5.2744
G1 X72.3400 Y92.2590 E5.2863
G1 X72.6690 Y92.2160 E5.2982
G1 X73.0260 Y92.2000 E5.3111
G1 X73.0160 Y91.7200 F6000
G92 E0.0000
G1 X126.9770 Y91.7200 E1.9383 F2880
G1 X127.5580 Y91.7580 E1.9593
G1 X128.1070 Y91.8670 E1.9794
G1 X128.6370 Y92.0470 E1.9995
G1 X129.1460 Y92.2980 E2.0199
G1 X129.4540 Y92.4950 E2.0330
G1 X129.7440 Y92.7170 E2.0461
G1 X130.1540 Y93.1090 E2.0665
G1 X130.5100 Y93.5520 E2.0869
G1 X130.7060 Y93.8600 E2.1000
G1 X130.8750 Y94.1850 E2.1132
G1 X131.0800 Y94.7130 E2.1335
G1 X131.2150 Y95.2650 E2.1539
G1 X131.2630 Y95.6270 E2.1670
G1 X131.2800 Y96.0160 E2.1810
G1 X131.2800 Y103.9770 E2.4670
G1 X131.2410 Y104.5660 E2.4882
G1 X131.1780 Y104.9260 E2.5013
G1 X131.0810 Y105.2870 E2.5147
G1 X130.9540 Y105.6380 E2.5282
G1 X130.7960 Y105.9760 E2.5416
G1 X130.6090 Y106.2990 E2.5550
G1 X130.3950 Y106.6050 E2.5684
G1 X130.1550 Y106.8910 E2.5818
G1 X129.8910 Y107.1550 E2.5952
G1 X129.6050 Y107.3950 E2.6086
G1 X129.2990 Y107.6090 E2.6220
G1 X128.9760 Y107.7960 E2.6354
G1 X128.6450 Y107.9500 E2.6486
G1 X128.1000 Y108.1350 E2.6692
G1 X127.7430 Y108.2140 E2.6824
G1 X127.3730 Y108.2630 E2.6958
G1 X126.9840 Y108.2800 E2.7097
G1 X73.0230 Y108.2800 E4.6481
G1 X72.4420 Y108.2420 E4.6690
G1 X71.8930 Y108.1330 E4.6891
G1 X71.3550 Y107.9500 E4.7095
G1 X71.0240 Y107.7960 E4.7226
G1 X70.7080 Y107.6130 E4.7358
G1 X70.2500 Y107.2780 E4.7561
G1 X69.8460 Y106.8900 E4.7763
G1 X69.4900 Y106.4480 E4.7966
G1 X69.2940 Y106.1400 E4.8098
G1 X69.1250 Y105.8160 E4.8229
G1 X68.9200 Y105.2860 E4.8433
G1 X68.7870 Y104.7430 E4.8634
G1 X68.7250 Y104.1790 E4.8838
G1 X68.7250 Y95.8130 E5.1843
G1 X68.7570 Y95.4420 E5.1977
G1 X68.8220 Y95.0740 E5.2111
G1 X68.9190 Y94.7130 E5.2245
G1 X69.0460 Y94.3620 E5.2379
G1 X69.2040 Y94.0240 E5.2513
G1 X69.3910 Y93.7010 E5.2647
G1 X69.6050 Y93.3950 E5.2781
G1 X69.8450 Y93.1090 E5.2915
G1 X70.1090 Y92.8450 E5.3050
G1 X70.3890 Y92.6100 E5.3181
G1 X70.8670 Y92.2900 E5.3388
G1 X71.1920 Y92.1220 E5.3519
G1 X71.5370 Y91.9790 E5.3653
G1 X71.8920 Y91.8670 E5.3787
G1 X72.2570 Y91.7860 E5.3921
G1 X72.6270 Y91.7370 E5.4055
G1 X73.0160 Y91.7200 E5.4195
G1 X73.0050 Y91.2400 F6000
G92 E0.0000
G1 X126.9920 Y91.2400 E1.9393 F2160
G1 X127.6210 Y91.2810 E1.9619
G1 X128.2320 Y91.4030 E1.9843
G1 X128.8210 Y91.6030 E2.0066
G1 X129.3820 Y91.8790 E2.0291
G1 X129.7300 Y92.1010 E2.0439
G1 X130.0570 Y92.3520 E2.0587
G1 X130.5090 Y92.7850 E2.0812
G1 X130.9000 Y93.2720 E2.1036
G1 X131.1220 Y93.6200 E2.1185
G1 X131.3130 Y93.9860 E2.1333
G1 X131.5390 Y94.5690 E2.1558
G1 X131.6880 Y95.1760 E2.1782
G1 X131.7420 Y95.5850 E2.1930
G1 X131.7600 Y96.0050 E2.2081
G1 X131.7600 Y103.9920 E2.4950
G1 X131.7190 Y104.6240 E2.5178
G1 X131.6470 Y105.0300 E2.5326
G1 X131.5390 Y105.4310 E2.5475
G1 X131.3970 Y105.8220 E2.5624
G1 X131.2220 Y106.1980 E2.5773
G1 X131.0140 Y106.5570 E2.5923
G1 X130.7760 Y106.8980 E2.6072
G1 X130.5090 Y107.2160 E2.6221
G1 X130.2160 Y107.5090 E2.6370
G1 X129.8980 Y107.7760 E2.6519
G1 X129.5570 Y108.0140 E2.6668
G1 X129.1980 Y108.2220 E2.6817
G1 X128.8240 Y108.3960 E2.6966
G1 X128.2290 Y108.5980 E2.7191
G1 X127.8270 Y108.6870 E2.7339
G1 X127.4150 Y108.7420 E2.7489
G1 X126.9950 Y108.7600 E2.7640
G1 X73.0080 Y108.7600 E4.7032
G1 X72.3790 Y108.7190 E4.7259
G1 X71.7680 Y108.5970 E4.7482
G1 X71.1760 Y108.3960 E4.7707
G1 X70.8020 Y108.2220 E4.7855
G1 X70.4450 Y108.0160 E4.8003
G1 X69.9410 Y107.6460 E4.8228
G1 X69.4910 Y107.2150 E4.8452
G1 X69.1000 Y106.7280 E4.8676
G1 X68.8780 Y106.3800 E4.8824
G1 X68.6870 Y106.0140 E4.8973
G1 X68.4610 Y105.4310 E4.9197
G1 X68.3130 Y104.8260 E4.9421
G1 X68.2450 Y104.2050 E4.9645
G1 X68.2450 Y95.7920 E5.2667
G1 X68.2810 Y95.3790 E5.2816
G1 X68.3530 Y94.9700 E5.2966
G1 X68.4600 Y94.5690 E5.3115
G1 X68.6030 Y94.1790 E5.3264
G1 X68.7780 Y93.8020 E5.3413
G1 X68.9860 Y93.4420 E5.3562
G1 X69.2240 Y93.1020 E5.3711
G1 X69.4910 Y92.7840 E5.3860
G1 X69.7840 Y92.4910 E5.4010
G1 X70.1000 Y92.2250 E5.4158
G1 X70.6220 Y91.8770 E5.4383
G1 X70.9880 Y91.6860 E5.4532
G1 X71.3720 Y91.5270 E5.4681
G1 X71.7680 Y91.4020 E5.4830
G1 X72.1730 Y91.3130 E5.4979
G1 X72.5850 Y91.2580 E5.5128
G1 X73.0050 Y91.2400 E5.5279
G1 X69.6130 Y95.0880 F6000
G92 E0.0000
G1 X72.0920 Y92.6090 E0.1259 F2880
G1 X72.3900 Y92.5430 E0.1369
G1 X72.6940 Y92.5030 E0.1479
G1 X72.8860 Y92.4940 E0.1548
G1 X69.4930 Y95.8870 E0.3271
G1 X69.4930 Y96.5660 E0.3515
G1 X73.5710 Y92.4880 E0.5587
G1 X74.2500 Y92.4880 E0.5831
G1 X69.4930 Y97.2450 E0.8247
G1 X69.4930 Y97.9240 E0.8491
G1 X74.9290 Y92.4880 E1.1253
G1 X75.6070 Y92.4880 E1.1496
G1 X69.4930 Y98.6030 E1.4603
G1 X69.4930 Y99.2810 E1.4847
G1 X76.2860 Y92.4880 E1.8298
G1 X76.9650 Y92.4880 E1.8541
G1 X69.4930 Y99.9600 E2.2337
G1 X69.4930 Y100.6390 E2.2581
G1 X77.6440 Y92.4880 E2.6722
G1 X78.3230 Y92.4880 E2.6966
G1 X73.7550 Y97.0560 E2.9286
G1 X72.7720 Y97.3750 E2.9657
G1 X72.7720 Y98.0390 E2.9896
G1 X69.4930 Y101.3180 E3.1562
G1 X69.4930 Y101.9970 E3.1805
G1 X72.7720 Y98.7180 E3.3471
G1 X72.7720 Y99.3960 E3.3715
G1 X69.4930 Y102.6760 E3.5381
G1 X69.4930 Y103.3540 E3.5625
G1 X72.7720 Y100.0750 E3.7291
G1 X72.7720 Y100.6130 E3.7484
G1 X72.8780 Y100.6480 E3.7524
G1 X69.4930 Y104.0330 E3.9244
G1 X69.4930 Y104.1370 E3.9281
G1 X69.5440 Y104.6090 E3.9452
G1 X69.5550 Y104.6500 E3.9467
G1 X73.3910 Y100.8140 E4.1416
G1 X73.9030 Y100.9810 E4.1609
G1 X69.7030 Y105.1810 E4.3743
G1 X69.8260 Y105.4980 E4.3865
G1 X69.9070 Y105.6550 E4.3929
G1 X74.4150 Y101.1470 E4.6219
G1 X74.9280 Y101.3130 E4.6412
G1 X70.1720 Y106.0700 E4.8829
G1 X70.4130 Y106.3700 E4.8967
G1 X70.4830 Y106.4370 E4.9002
G1 X75.4400 Y101.4800 E5.1520
G1 X75.8510 Y101.6130 E5.1675
G1 X77.2980 Y99.6230 E5.2559
G1 X84.4320 Y92.4880 E5.6184
G1 X85.1110 Y92.4880 E5.6427
G1 X70.8410 Y106.7580 E6.3677
G1 X71.1280 Y106.9690 E6.3805
G1 X71.2430 Y107.0350 E6.3852
G1 X85.7900 Y92.4880 E7.1242
G1 X86.4690 Y92.4880 E7.1486
G1 X71.7000 Y107.2560 E7.8988
G1 X72.0920 Y107.3890 E7.9137
G1 X72.2210 Y107.4150 E7.9184
G1 X87.1470 Y92.4880 E8.6767
G1 X87.8260 Y92.4880 E8.7011
G1 X72.8170 Y107.4970 E9.4635
G1 X73.0490 Y107.5120 E9.4718
G1 X73.4810 Y107.5120 E9.4874
G1 X88.5050 Y92.4880 E10.2506
G1 X89.1840 Y92.4880 E10.2750
G1 X74.1600 Y107.5120 E11.0382
G1 X74.8390 Y107.5120 E11.0626
G1 X89.8630 Y92.4880 E11.8258
G1 X90.5410 Y92.4880 E11.8502
G1 X75.5170 Y107.5120 E12.6134
G1 X76.1960 Y107.5120 E12.6378
G1 X91.2200 Y92.4880 E13.4010
G1 X91.8990 Y92.4880 E13.4254
G1 X76.8750 Y107.5120 E14.1886
G1 X77.5540 Y107.5120 E14.2130
G1 X92.5780 Y92.4880 E14.9762
G1 X93.2570 Y92.4880 E15.0006
G1 X78.2330 Y107.5120 E15.7638
G1 X78.9120 Y107.5120 E15.7882
G1 X93.9360 Y92.4880 E16.5514
G1 X94.6140 Y92.4880 E16.5758
G1 X79.5900 Y107.5120 E17.3390
G1 X80.2690 Y107.5120 E17.3634
G1 X95.2930 Y92.4880 E18.1266
G1 X95.9720 Y92.4880 E18.1510
G1 X80.9480 Y107.5120 E18.9142
G1 X81.6270 Y107.5120 E18.9386
G1 X96.6510 Y92.4880 E19.7018
G1 X97.3300 Y92.4880 E19.7262
G1 X82.3060 Y107.5120 E20.4894
G1 X82.9850 Y107.5120 E20.5138
G1 X98.0090 Y92.4880 E21.2770
G1 X98.6870 Y92.4880 E21.3014
G1 X83.6630 Y107.5120 E22.0646
G1 X84.3420 Y107.5120 E22.0890
G1 X99.3660 Y92.4880 E22.8522
G1 X100.0450 Y92.4880 E22.8766
G1 X85.0210 Y107.5120 E23.6398
G1 X85.7000 Y107.5120 E23.6642
G1 X100.7240 Y92.4880 E24.4274
G1 X101.4030 Y92.4880 E24.4518
G1 X86.3790 Y107.5120 E25.2150
G1 X87.0570 Y107.5120 E25.2394
G1 X102.0810 Y92.4880 E26.0026
G1 X102.7600 Y92.4880 E26.0270
G1 X87.7360 Y107.5120 E26.7902
G1 X88.4150 Y107.5120 E26.8146
G1 X103.4390 Y92.4880 E27.5778
G1 X104.1180 Y92.4880 E27.6022
G1 X89.0940 Y107.5120 E28.3654
G1 X89.7730 Y107.5120 E28.3898
G1 X104.7970 Y92.4880 E29.1530
G1 X105.4760 Y92.4880 E29.1774
G1 X90.4520 Y107.5120 E29.9406
G1 X91.1300 Y107.5120 E29.9650
G1 X106.1540 Y92.4880 E30.7282
G1 X106.8330 Y92.4880 E30.7526
G1 X91.8090 Y107.5120 E31.5158
G1 X92.4880 Y107.5120 E31.5402
G1 X107.5120 Y92.4880 E32.3034
G1 X108.1910 Y92.4880 E32.3278
G1 X93.1670 Y107.5120 E33.0910
G1 X93.8460 Y107.5120 E33.1154
G1 X108.8700 Y92.4880 E33.8786
G1 X109.5490 Y92.4880 E33.9030
G1 X94.5250 Y107.5120 E34.6662
G1 X95.2030 Y107.5120 E34.6906
G1 X110.2270 Y92.4880 E35.4538
G1 X110.9060 Y92.4880 E35.4782
G1 X95.8820 Y107.5120 E36.2414
G1 X96.5610 Y107.5120 E36.2658
G1 X111.5850 Y92.4880 E37.0290
G1 X112.2640 Y92.4880 E37.0534
G1 X97.2400 Y107.5120 E37.8166
G1 X97.9190 Y107.5120 E37.8410
G1 X112.9430 Y92.4880 E38.6042
G1 X113.6210 Y92.4880 E38.6286
G1 X98.5970 Y107.5120 E39.3918
G1 X99.2760 Y107.5120 E39.4162
G1 X114.3000 Y92.4880 E40.1794
G1 X114.9790 Y92.4880 E40.2038
G1 X99.9550 Y107.5120 E40.9670
G1 X100.6340 Y107.5120 E40.9914
G1 X115.6580 Y92.4880 E41.7546
G1 X116.3370 Y92.4880 E41.7790
G1 X101.3130 Y107.5120 E42.5423
G1 X101.9920 Y107.5120 E42.5666
G1 X117.0160 Y92.4880 E43.3299
G1 X117.6940 Y92.4880 E43.3542
G1 X102.6700 Y107.5120 E44.1175
G1 X103.3490 Y107.5120 E44.1418
G1 X118.3730 Y92.4880 E44.9051
G1 X119.0520 Y92.4880 E44.9294
G1 X104.0280 Y107.5120 E45.6927
G1 X104.7070 Y107.5120 E45.7170
G1 X119.7310 Y92.4880 E46.4803
G1 X120.4100 Y92.4880 E46.5046
G1 X105.3860 Y107.5120 E47.2679
G1 X106.0640 Y107.5120 E47.2922
G1 X121.0880 Y92.4880 E48.0555
G1 X121.7670 Y92.4880 E48.0798
G1 X106.7430 Y107.5120 E48.8431
G1 X107.4220 Y107.5120 E48.8674
G1 X122.4460 Y92.4880 E49.6307
G1 X123.1250 Y92.4880 E49.6550
G1 X108.1010 Y107.5120 E50.4183
G1 X108.7800 Y107.5120 E50.4426
G1 X123.8040 Y92.4880 E51.2059
G1 X124.4830 Y92.4880 E51.2303
G1 X109.4590 Y107.5120 E51.9935
G1 X110.1370 Y107.5120 E52.0179
G1 X125.1610 Y92.4880 E52.7811
G1 X125.8400 Y92.4880 E52.8055
G1 X110.8160 Y107.5120 E53.5687
G1 X111.4950 Y107.5120 E53.5931
G1 X126.5190 Y92.4880 E54.3563
G1 X126.9510 Y92.4880 E54.3718
G1 X127.1830 Y92.5030 E54.3801
G1 X112.1740 Y107.5120 E55.1426
G1 X112.8530 Y107.5120 E55.1670
G1 X127.7800 Y92.5850 E55.9252
G1 X127.9080 Y92.6110 E55.9300
G1 X128.3000 Y92.7440 E55.9448
G1 X124.5410 Y96.5020 E56.1357
G1 X124.1490 Y96.3750 E56.1506
G1 X122.7680 Y98.2750 E56.2349
G1 X113.5320 Y107.5120 E56.7042
G1 X114.2100 Y107.5120 E56.7285
G1 X122.4490 Y99.2730 E57.1471
G1 X122.7350 Y99.6670 E57.1645
G1 X114.8890 Y107.5120 E57.5631
G1 X115.5680 Y107.5120 E57.5874
G1 X123.0200 Y100.0600 E57.9660
G1 X123.3060 Y100.4530 E57.9835
G1 X116.2470 Y107.5120 E58.3421
G1 X116.9260 Y107.5120 E58.3665
G1 X123.5910 Y100.8460 E58.7051
G1 X123.8770 Y101.2390 E58.7225
G1 X117.6040 Y107.5120 E59.0412
G1 X118.2830 Y107.5120 E59.0656
G1 X124.1980 Y101.5980 E59.3660
G1 X125.2030 Y101.2710 E59.4040
G1 X118.9620 Y107.5120 E59.7210
G1 X119.6410 Y107.5120 E59.7454
G1 X126.2090 Y100.9440 E60.0791
G1 X127.2140 Y100.6170 E60.1171
G1 X120.3200 Y107.5120 E60.4673
G1 X120.9990 Y107.5120 E60.4917
G1 X130.5120 Y97.9990 E60.9750
G1 X130.5120 Y98.6770 E60.9993
G1 X121.6770 Y107.5120 E61.4481
G1 X122.3560 Y107.5120 E61.4725
G1 X130.5120 Y99.3560 E61.8868
G1 X130.5120 Y100.0350 E61.9112
G1 X123.0350 Y107.5120 E62.2911
G1 X123.7140 Y107.5120 E62.3154
G1 X130.5120 Y100.7140 E62.6608
G1 X130.5120 Y101.3930 E62.6852
G1 X124.3930 Y107.5120 E62.9960
G1 X125.0720 Y107.5120 E63.0204
G1 X130.5120 Y102.0720 E63.2968
G1 X130.5120 Y102.7500 E63.3212
G1 X125.7500 Y107.5120 E63.5631
G1 X126.4290 Y107.5120 E63.5874
G1 X130.5120 Y103.4290 E63.7949
G1 X130.5120 Y103.9510 E63.8136
G1 X130.5010 Y104.1190 E63.8196
G1 X127.1140 Y107.5060 E63.9917
G1 X127.3060 Y107.4970 E63.9986
G1 X127.6100 Y107.4570 E64.0096
G1 X127.7520 Y107.4260 E64.0148
G1 X127.8930 Y107.3940 E64.0200
G1 X127.9100 Y107.3890 E64.0207
G1 X130.3870 Y104.9120 E64.1464
G1 X127.2280 Y100.6040 F6000
G92 E0.0000
G1 X130.5120 Y97.3200 E0.1668 F2880
G1 X130.5120 Y96.6410 E0.1912
G1 X127.2280 Y99.9250 E0.3580
G1 X127.2280 Y99.2460 E0.3824
G1 X130.5090 Y95.9650 E0.5491
G1 X130.4970 Y95.6940 E0.5588
G1 X130.4590 Y95.4060 E0.5693
G1 X130.4460 Y95.3500 E0.5713
G1 X127.2280 Y98.5670 E0.7348
G1 X127.2280 Y97.8880 E0.7592
G1 X130.2970 Y94.8190 E0.9151
G1 X130.1740 Y94.5020 E0.9273
G1 X130.1100 Y94.3790 E0.9323
G1 X130.0930 Y94.3450 E0.9337
G1 X127.1030 Y97.3350 E1.0855
G1 X126.5910 Y97.1680 E1.1049
G1 X129.8280 Y93.9300 E1.2694
G1 X129.5870 Y93.6290 E1.2832
G1 X129.5170 Y93.5630 E1.2867
G1 X126.0780 Y97.0020 E1.4614
G1 X125.5660 Y96.8350 E1.4808
G1 X129.1630 Y93.2390 E1.6635
G1 X129.0140 Y93.1240 E1.6702
G1 X128.8680 Y93.0310 E1.6764
G1 X128.7690 Y92.9690 E1.6806
G1 X128.7590 Y92.9630 E1.6810
G1 X125.0540 Y96.6690 E1.8693
G1 X77.5410 Y98.7010 F6000
G92 E0.0000
G1 X83.7530 Y92.4880 E0.3156 F2880
G1 X83.0740 Y92.4880 E0.3400
G1 X77.2550 Y98.3070 E0.6356
G1 X76.9690 Y97.9140 E0.6531
G1 X82.3960 Y92.4880 E0.9287
G1 X81.7170 Y92.4880 E0.9531
G1 X76.6840 Y97.5210 E1.2088
G1 X76.3980 Y97.1280 E1.2262
G1 X81.0380 Y92.4880 E1.4619
G1 X80.3590 Y92.4880 E1.4863
G1 X76.1120 Y96.7350 E1.7020
G1 X75.8510 Y96.3750 E1.7180
G1 X75.7660 Y96.4030 E1.7212
G1 X79.6800 Y92.4880 E1.9201
G1 X79.0010 Y92.4880 E1.9445
G1 X74.7600 Y96.7290 E2.1600
G92 E0.0000
G1 E-1.4 F1800 ; custom retraction - A
;layer 5, Z = 1.000
;fan5;
;
G1 Z1.000 F1200
G1 X73.0260 Y92.2000 F6000
G1 E0 F2400 ; custom un-retraction/prime - A
G92 E0.0000
G1 X126.9610 Y92.2000 E1.9374 F2880
G1 X127.4960 Y92.2350 E1.9566
G1 X127.9830 Y92.3320 E1.9745
G1 X128.4530 Y92.4920 E1.9923
G1 X128.9110 Y92.7170 E2.0106
G1 X129.1790 Y92.8880 E2.0221
G1 X129.4310 Y93.0820 E2.0335
G1 X129.8000 Y93.4340 E2.0518
G1 X130.1190 Y93.8320 E2.0701
G1 X130.2900 Y94.1010 E2.0816
G1 X130.4370 Y94.3830 E2.0930
G1 X130.6220 Y94.8580 E2.1113
G1 X130.7430 Y95.3530 E2.1296
G1 X130.7840 Y95.6690 E2.1411
G1 X130.8000 Y96.0260 E2.1539
G1 X130.8000 Y103.9610 E2.4389
G1 X130.7640 Y104.5090 E2.4587
G1 X130.7090 Y104.8220 E2.4701
G1 X130.6230 Y105.1420 E2.4820
G1 X130.5100 Y105.4540 E2.4939
G1 X130.3700 Y105.7540 E2.5058
G1 X130.2040 Y106.0410 E2.5177
G1 X130.0140 Y106.3130 E2.5296
G1 X129.8010 Y106.5670 E2.5415
G1 X129.5670 Y106.8010 E2.5534
G1 X129.3130 Y107.0140 E2.5653
G1 X129.0410 Y107.2040 E2.5772
G1 X128.7540 Y107.3700 E2.5891
G1 X128.4660 Y107.5040 E2.6006
G1 X127.9700 Y107.6720 E2.6194
G1 X127.6600 Y107.7410 E2.6308
G1 X127.3310 Y107.7840 E2.6427
G1 X126.9740 Y107.8000 E2.6555
G1 X73.0390 Y107.8000 E4.5929
G1 X72.5040 Y107.7650 E4.6122
G1 X72.0170 Y107.6680 E4.6300
G1 X71.5340 Y107.5040 E4.6483
G1 X71.2460 Y107.3700 E4.6598
G1 X70.9700 Y107.2100 E4.6712
G1 X70.5590 Y106.9090 E4.6895
G1 X70.2000 Y106.5660 E4.7074
G1 X69.8810 Y106.1680 E4.7257
G1 X69.7100 Y105.8990 E4.7371
G1 X69.5630 Y105.6170 E4.7485
G1 X69.3780 Y105.1420 E4.7669
G1 X69.2600 Y104.6600 E4.7847
G1 X69.2050 Y104.1520 E4.8030
G1 X69.2050 Y95.8340 E5.1018
G1 X69.2340 Y95.5040 E5.1137
G1 X69.2910 Y95.1780 E5.1256
G1 X69.3770 Y94.8580 E5.1375
G1 X69.4900 Y94.5460 E5.1494
G1 X69.6300 Y94.2460 E5.1613
G1 X69.7960 Y93.9590 E5.1732
G1 X69.9860 Y93.6870 E5.1851
G1 X70.1990 Y93.4330 E5.1970
G1 X70.4340 Y93.1990 E5.2089
G1 X70.6770 Y92.9950 E5.2204
G1 X71.1120 Y92.7040 E5.2392
G1 X71.3950 Y92.5570 E5.2506
G1 X71.7010 Y92.4300 E5.2625
G1 X72.0170 Y92.3310 E5.2744
G1 X72.3400 Y92.2590 E5.2863
G1 X72.6690 Y92.2160 E5.2982
G1 X73.0260 Y92.2000 E5.3111
G1 X73.0160 Y91.7200 F6000
G92 E0.0000
G1 X126.9770 Y91.7200 E1.9383 F2880
G1 X127.5580 Y91.7580 E1.9593
G1 X128.1070 Y91.8670 E1.9794
G1 X128.6370 Y92.0470 E1.9995
G1 X129.1460 Y92.2980 E2.0199
G1 X129.4540 Y92.4950 E2.0330
G1 X129.7440 Y92.7170 E2.0461
G1 X130.1540 Y93.1090 E2.0665
G1 X130.5100 Y93.5520 E2.0869
G1 X130.7060 Y93.8600 E2.1000
G1 X130.8750 Y94.1850 E2.1132
G1 X131.0800 Y94.7130 E2.1335
G1 X131.2150 Y95.2650 E2.1539
G1 X131.2630 Y95.6270 E2.1670
G1 X131.2800 Y96.0160 E2.1810
G1 X131.2800 Y103.9770 E2.4670
G1 X131.2410 Y104.5660 E2.4882
G1 X131.1780 Y104.9260 E2.5013
G1 X131.0810 Y105.2870 E2.5147
G1 X130.9540 Y105.6380 E2.5282
G1 X130.7960 Y105.9760 E2.5416
G1 X130.6090 Y106.2990 E2.5550
G1 X130.3950 Y106.6050 E2.5684
G1 X130.1550 Y106.8910 E2.5818
G1 X129.8910 Y107.1550 E2.5952
G1 X129.6050 Y107.3950 E2.6086
G1 X129.2990 Y107.6090 E2.6220
G1 X128.9760 Y107.7960 E2.6354
G1 X128.6450 Y107.9500 E2.6486
G1 X128.1000 Y108.1350 E2.6692
G1 X127.7430 Y108.2140 E2.6824
G1 X127.3730 Y108.2630 E2.6958
G1 X126.9840 Y108.2800 E2.7097
G1 X73.0230 Y108.2800 E4.6481
G1 X72.4420 Y108.2420 E4.6690
G1 X71.8930 Y108.1330 E4.6891
G1 X71.3550 Y107.9500 E4.7095
G1 X71.0240 Y107.7960 E4.7226
G1 X70.7080 Y107.6130 E4.7358
G1 X70.2500 Y107.2780 E4.7561
G1 X69.8460 Y106.8900 E4.7763
G1 X69.4900 Y106.4480 E4.7966
G1 X69.2940 Y106.1400 E4.8098
G1 X69.1250 Y105.8160 E4.8229
G1 X68.9200 Y105.2860 E4.8433
G1 X68.7870 Y104.7430 E4.8634
G1 X68.7250 Y104.1790 E4.8838
G1 X68.7250 Y95.8130 E5.1843
G1 X68.7570 Y95.4420 E5.1977
G1 X68.8220 Y95.0740 E5.2111
G1 X68.9190 Y94.7130 E5.2245
G1 X69.0460 Y94.3620 E5.2379
G1 X69.2040 Y94.0240 E5.2513
G1 X69.3910 Y93.7010 E5.2647
G1 X69.6050 Y93.3950 E5.2781
G1 X69.8450 Y93.1090 E5.2915
G1 X70.1090 Y92.8450 E5.3050
G1 X70.3890 Y92.6100 E5.3181
G1 X70.8670 Y92.2900 E5.3388
G1 X71.1920 Y92.1220 E5.3519
G1 X71.5370 Y91.9790 E5.3653
G1 X71.8920 Y91.8670 E5.3787
G1 X72.2570 Y91.7860 E5.3921
G1 X72.6270 Y91.7370 E5.4055
G1 X73.0160 Y91.7200 E5.4195
G1 X73.0050 Y91.2400 F6000
G92 E0.0000
G1 X126.9920 Y91.2400 E1.9393 F2160
G1 X127.6210 Y91.2810 E1.9619
G1 X128.2320 Y91.4030 E1.9843
G1 X128.8210 Y91.6030 E2.0066
G1 X129.3820 Y91.8790 E2.0291
G1 X129.7300 Y92.1010 E2.0439
G1 X130.0570 Y92.3520 E2.0587
G1 X130.5090 Y92.7850 E2.0812
G1 X130.9000 Y93.2720 E2.1036
G1 X131.1220 Y93.6200 E2.1185
G1 X131.3130 Y93.9860 E2.1333
G1 X131.5390 Y94.5690 E2.1558
G1 X131.6880 Y95.1760 E2.1782
G1 X131.7420 Y95.5850 E2.1930
G1 X131.7600 Y96.0050 E2.2081
G1 X131.7600 Y103.9920 E2.4950
G1 X131.7190 Y104.6240 E2.5178
G1 X131.6470 Y105.0300 E2.5326
G1 X131.5390 Y105.4310 E2.5475
G1 X131.3970 Y105.8220 E2.5624
G1 X131.2220 Y106.1980 E2.5773
G1 X131.0140 Y106.5570 E2.5923
G1 X130.7760 Y106.8980 E2.6072
G1 X130.5090 Y107.2160 E2.6221
G1 X130.2160 Y107.5090 E2.6370
G1 X129.8980 Y107.7760 E2.6519
G1 X129.5570 Y108.0140 E2.6668
G1 X129.1980 Y108.2220 E2.6817
G1 X128.8240 Y108.3960 E2.6966
G1 X128.2290 Y108.5980 E2.7191
G1 X127.8270 Y108.6870 E2.7339
G1 X127.4150 Y108.7420 E2.7489
G1 X126.9950 Y108.7600 E2.7640
G1 X73.0080 Y108.7600 E4.7032
G1 X72.3790 Y108.7190 E4.7259
G1 X71.7680 Y108.5970 E4.7482
G1 X71.1760 Y108.3960 E4.7707
G1 X70.8020 Y108.2220 E4.7855
G1 X70.4450 Y108.0160 E4.8003
G1 X69.9410 Y107.6460 E4.8228
G1 X69.4910 Y107.2150 E4.8452
G1 X69.1000 Y106.7280 E4.8676
G1 X68.8780 Y106.3800 E4.8824
G1 X68.6870 Y106.0140 E4.8973
G1 X68.4610 Y105.4310 E4.9197
G1 X68.3130 Y104.8260 E4.9421
G1 X68.2450 Y104.2050 E4.9645
G1 X68.2450 Y95.7920 E5.2667
G1 X68.2810 Y95.3790 E5.2816
G1 X68.3530 Y94.9700 E5.2966
G1 X68.4600 Y94.5690 E5.3115
G1 X68.6030 Y94.1790 E5.3264
G1 X68.7780 Y93.8020 E5.3413
G1 X68.9860 Y93.4420 E5.3562
G1 X69.2240 Y93.1020 E5.3711
G1 X69.4910 Y92.7840 E5.3860
G1 X69.7840 Y92.4910 E5.4010
G1 X70.1000 Y92.2250 E5.4158
G1 X70.6220 Y91.8770 E5.4383
G1 X70.9880 Y91.6860 E5.4532
G1 X71.3720 Y91.5270 E5.4681
G1 X71.7680 Y91.4020 E5.4830
G1 X72.1730 Y91.3130 E5.4979
G1 X72.5850 Y91.2580 E5.5128
G1 X73.0050 Y91.2400 E5.5279
G1 X77.5510 Y99.2730 F6000
G92 E0.0000
G1 X85.7900 Y107.5120 E0.4185 F2880
G1 X85.1110 Y107.5120 E0.4429
G1 X77.2650 Y99.6670 E0.8414
G1 X76.9800 Y100.0600 E0.8589
G1 X84.4320 Y107.5120 E1.2375
G1 X83.7530 Y107.5120 E1.2619
G1 X76.6940 Y100.4530 E1.6205
G1 X76.4090 Y100.8460 E1.6379
G1 X83.0740 Y107.5120 E1.9765
G1 X82.3960 Y107.5120 E2.0009
G1 X76.1230 Y101.2390 E2.3196
G1 X75.8510 Y101.6130 E2.3362
G1 X75.8020 Y101.5980 E2.3380
G1 X81.7170 Y107.5120 E2.6385
G1 X81.0380 Y107.5120 E2.6629
G1 X74.7970 Y101.2710 E2.9799
G1 X73.7910 Y100.9440 E3.0179
G1 X80.3590 Y107.5120 E3.3515
G1 X79.6800 Y107.5120 E3.3759
G1 X72.7860 Y100.6170 E3.7261
G1 X72.0900 Y107.3890 F6000
G92 E0.0000
G1 X69.6200 Y104.9190 E0.1255 F2880
G1 X69.5440 Y104.6090 E0.1369
G1 X69.4930 Y104.1370 E0.1540
G1 X69.4930 Y104.1130 E0.1548
G1 X72.8810 Y107.5010 E0.3270
G1 X73.0490 Y107.5120 E0.3330
G1 X73.5710 Y107.5120 E0.3518
G1 X69.4930 Y103.4340 E0.5589
G1 X69.4930 Y102.7550 E0.5833
G1 X74.2500 Y107.5120 E0.8250
G1 X74.9290 Y107.5120 E0.8494
G1 X69.4930 Y102.0760 E1.1255
G1 X69.4930 Y101.3970 E1.1499
G1 X75.6070 Y107.5120 E1.4605
G1 X76.2860 Y107.5120 E1.4849
G1 X69.4930 Y100.7190 E1.8300
G1 X69.4930 Y100.0400 E1.8544
G1 X76.9650 Y107.5120 E2.2340
G1 X77.6440 Y107.5120 E2.2583
G1 X69.4930 Y99.3610 E2.6724
G1 X69.4930 Y98.6820 E2.6968
G1 X78.3230 Y107.5120 E3.1454
G1 X79.0010 Y107.5120 E3.1697
G1 X69.4930 Y98.0030 E3.6528
G1 X69.4930 Y97.3240 E3.6772
G1 X72.7720 Y100.6040 E3.8437
G1 X72.7720 Y99.9250 E3.8681
G1 X69.4930 Y96.6460 E4.0347
G1 X69.4930 Y95.9670 E4.0591
G1 X72.7720 Y99.2460 E4.2257
G1 X72.7720 Y98.5670 E4.2501
G1 X69.5530 Y95.3490 E4.4136
G1 X69.5730 Y95.2400 E4.4175
G1 X69.6520 Y94.9440 E4.4285
G1 X69.6990 Y94.8150 E4.4335
G1 X72.7720 Y97.8880 E4.5896
G1 X72.7720 Y97.3750 E4.6080
G1 X72.8970 Y97.3350 E4.6127
G1 X69.9060 Y94.3440 E4.7647
G1 X70.0390 Y94.1140 E4.7742
G1 X70.1690 Y93.9280 E4.7823
G1 X73.4090 Y97.1680 E4.9469
G1 X73.9220 Y97.0020 E4.9663
G1 X70.4800 Y93.5600 E5.1411
G1 X70.6280 Y93.4120 E5.1487
G1 X70.7590 Y93.3020 E5.1548
G1 X70.8360 Y93.2370 E5.1584
G1 X74.4340 Y96.8350 E5.3412
G1 X74.9470 Y96.6690 E5.3605
G1 X71.2420 Y92.9640 E5.5488
G1 X71.2500 Y92.9590 E5.5491
G1 X71.2590 Y92.9520 E5.5495
G1 X71.3810 Y92.8890 E5.5544
G1 X71.5160 Y92.8180 E5.5599
G1 X71.6990 Y92.7430 E5.5670
G1 X75.4590 Y96.5020 E5.7580
G1 X75.8510 Y96.3750 E5.7728
G1 X77.2320 Y98.2750 E5.8572
G1 X86.4690 Y107.5120 E6.3264
G1 X87.1470 Y107.5120 E6.3508
G1 X72.2170 Y92.5810 E7.1093
G1 X72.3900 Y92.5430 E7.1157
G1 X72.6940 Y92.5030 E7.1267
G1 X72.8120 Y92.4980 E7.1309
G1 X87.8260 Y107.5120 E7.8937
G1 X88.5050 Y107.5120 E7.9181
G1 X73.4810 Y92.4880 E8.6813
G1 X74.1600 Y92.4880 E8.7057
G1 X89.1840 Y107.5120 E9.4689
G1 X89.8630 Y107.5120 E9.4933
G1 X74.8390 Y92.4880 E10.2565
G1 X75.5170 Y92.4880 E10.2809
G1 X90.5410 Y107.5120 E11.0441
G1 X91.2200 Y107.5120 E11.0685
G1 X76.1960 Y92.4880 E11.8317
G1 X76.8750 Y92.4880 E11.8561
G1 X91.8990 Y107.5120 E12.6193
G1 X92.5780 Y107.5120 E12.6437
G1 X77.5540 Y92.4880 E13.4069
G1 X78.2330 Y92.4880 E13.4313
G1 X93.2570 Y107.5120 E14.1945
G1 X93.9360 Y107.5120 E14.2189
G1 X78.9120 Y92.4880 E14.9821
G1 X79.5900 Y92.4880 E15.0065
G1 X94.6140 Y107.5120 E15.7697
G1 X95.2930 Y107.5120 E15.7941
G1 X80.2690 Y92.4880 E16.5573
G1 X80.9480 Y92.4880 E16.5817
G1 X95.9720 Y107.5120 E17.3449
G1 X96.6510 Y107.5120 E17.3693
G1 X81.6270 Y92.4880 E18.1325
G1 X82.3060 Y92.4880 E18.1569
G1 X97.3300 Y107.5120 E18.9201
G1 X98.0080 Y107.5120 E18.9445
G1 X82.9840 Y92.4880 E19.7077
G1 X83.6630 Y92.4880 E19.7321
G1 X98.6870 Y107.5120 E20.4953
G1 X99.3660 Y107.5120 E20.5197
G1 X84.3420 Y92.4880 E21.2829
G1 X85.0210 Y92.4880 E21.3073
G1 X100.0450 Y107.5120 E22.0705
G1 X100.7240 Y107.5120 E22.0949
G1 X85.7000 Y92.4880 E22.8581
G1 X86.3790 Y92.4880 E22.8825
G1 X101.4030 Y107.5120 E23.6457
G1 X102.0810 Y107.5120 E23.6701
G1 X87.0570 Y92.4880 E24.4333
G1 X87.7360 Y92.4880 E24.4577
G1 X102.7600 Y107.5120 E25.2209
G1 X103.4390 Y107.5120 E25.2453
G1 X88.4150 Y92.4880 E26.0085
G1 X89.0940 Y92.4880 E26.0329
G1 X104.1180 Y107.5120 E26.7961
G1 X104.7970 Y107.5120 E26.8205
G1 X89.7730 Y92.4880 E27.5837
G1 X90.4520 Y92.4880 E27.6081
G1 X105.4760 Y107.5120 E28.3713
G1 X106.1540 Y107.5120 E28.3957
G1 X91.1300 Y92.4880 E29.1589
G1 X91.8090 Y92.4880 E29.1833
G1 X106.8330 Y107.5120 E29.9465
G1 X107.5120 Y107.5120 E29.9709
G1 X92.4880 Y92.4880 E30.7341
G1 X93.1670 Y92.4880 E30.7585
G1 X108.1910 Y107.5120 E31.5217
G1 X108.8700 Y107.5120 E31.5461
G1 X93.8460 Y92.4880 E32.3093
G1 X94.5240 Y92.4880 E32.3337
G1 X109.5480 Y107.5120 E33.0969
G1 X110.2270 Y107.5120 E33.1213
G1 X95.2030 Y92.4880 E33.8845
G1 X95.8820 Y92.4880 E33.9089
G1 X110.9060 Y107.5120 E34.6721
G1 X111.5850 Y107.5120 E34.6965
G1 X96.5610 Y92.4880 E35.4597
G1 X97.2400 Y92.4880 E35.4841
G1 X112.2640 Y107.5120 E36.2473
G1 X112.9430 Y107.5120 E36.2717
G1 X97.9190 Y92.4880 E37.0349
G1 X98.5970 Y92.4880 E37.0593
G1 X113.6210 Y107.5120 E37.8225
G1 X114.3000 Y107.5120 E37.8469
G1 X99.2760 Y92.4880 E38.6101
G1 X99.9550 Y92.4880 E38.6345
G1 X114.9790 Y107.5120 E39.3977
G1 X115.6580 Y107.5120 E39.4221
G1 X100.6340 Y92.4880 E40.1853
G1 X101.3130 Y92.4880 E40.2097
G1 X116.3370 Y107.5120 E40.9729
G1 X117.0160 Y107.5120 E40.9973
G1 X101.9920 Y92.4880 E41.7605
G1 X102.6700 Y92.4880 E41.7849
G1 X117.6940 Y107.5120 E42.5481
G1 X118.3730 Y107.5120 E42.5725
G1 X103.3490 Y92.4880 E43.3357
G1 X104.0280 Y92.4880 E43.3601
G1 X119.0520 Y107.5120 E44.1233
G1 X119.7310 Y107.5120 E44.1477
G1 X104.7070 Y92.4880 E44.9109
G1 X105.3860 Y92.4880 E44.9353
G1 X120.4100 Y107.5120 E45.6985
G1 X121.0880 Y107.5120 E45.7229
G1 X106.0640 Y92.4880 E46.4861
G1 X106.7430 Y92.4880 E46.5105
G1 X121.7670 Y107.5120 E47.2737
G1 X122.4460 Y107.5120 E47.2981
G1 X107.4220 Y92.4880 E48.0613
G1 X108.1010 Y92.4880 E48.0857
G1 X123.1250 Y107.5120 E48.8489
G1 X123.8040 Y107.5120 E48.8733
G1 X108.7800 Y92.4880 E49.6365
G1 X109.4590 Y92.4880 E49.6609
G1 X124.4830 Y107.5120 E50.4241
G1 X125.1610 Y107.5120 E50.4485
G1 X110.1370 Y92.4880 E51.2117
G1 X110.8160 Y92.4880 E51.2361
G1 X125.8400 Y107.5120 E51.9993
G1 X126.5190 Y107.5120 E52.0237
G1 X111.4950 Y92.4880 E52.7870
G1 X112.1740 Y92.4880 E52.8113
G1 X127.1880 Y107.5020 E53.5741
G1 X127.3060 Y107.4970 E53.5783
G1 X127.6100 Y107.4570 E53.5893
G1 X127.7520 Y107.4260 E53.5946
G1 X127.7830 Y107.4190 E53.5957
G1 X112.8530 Y92.4880 E54.3542
G1 X113.5320 Y92.4880 E54.3786
G1 X128.3000 Y107.2560 E55.1288
G1 X128.3580 Y107.2360 E55.1310
G1 X128.3870 Y107.2230 E55.1321
G1 X128.6210 Y107.1140 E55.1414
G1 X128.7220 Y107.0560 E55.1456
G1 X128.7570 Y107.0350 E55.1471
G1 X114.2100 Y92.4880 E55.8861
G1 X114.8890 Y92.4880 E55.9104
G1 X129.1640 Y106.7630 E56.6356
G1 X129.3720 Y106.5880 E56.6453
G1 X129.5200 Y106.4400 E56.6529
G1 X124.5600 Y101.4800 E56.9049
G1 X124.1490 Y101.6130 E56.9204
G1 X122.7020 Y99.6220 E57.0088
G1 X115.5680 Y92.4880 E57.3712
G1 X116.2470 Y92.4880 E57.3956
G1 X122.4590 Y98.7010 E57.7112
G1 X122.7450 Y98.3070 E57.7286
G1 X116.9260 Y92.4880 E58.0243
G1 X117.6040 Y92.4880 E58.0486
G1 X123.0310 Y97.9140 E58.3243
G1 X123.3160 Y97.5210 E58.3418
G1 X118.2830 Y92.4880 E58.5974
G1 X118.9620 Y92.4880 E58.6218
G1 X123.6020 Y97.1280 E58.8575
G1 X123.8880 Y96.7350 E58.8750
G1 X119.6410 Y92.4880 E59.0907
G1 X120.3200 Y92.4880 E59.1151
G1 X124.2340 Y96.4030 E59.3140
G1 X125.2400 Y96.7290 E59.3519
G1 X120.9990 Y92.4880 E59.5674
G1 X121.6770 Y92.4880 E59.5918
G1 X126.2460 Y97.0560 E59.8238
G1 X127.2280 Y97.3750 E59.8610
G1 X127.2280 Y98.0390 E59.8848
G1 X130.5120 Y101.3230 E60.0516
G1 X130.5120 Y100.6440 E60.0760
G1 X122.3560 Y92.4880 E60.4903
G1 X123.0350 Y92.4880 E60.5147
G1 X130.5120 Y99.9650 E60.8945
G1 X130.5120 Y99.2860 E60.9189
G1 X123.7140 Y92.4880 E61.2642
G1 X124.3930 Y92.4880 E61.2886
G1 X130.5120 Y98.6070 E61.5995
G1 X130.5120 Y97.9290 E61.6239
G1 X125.0710 Y92.4880 E61.9002
G1 X125.7500 Y92.4880 E61.9246
G1 X130.5120 Y97.2500 E62.1665
G1 X130.5120 Y96.5710 E62.1909
G1 X126.4290 Y92.4880 E62.3983
G1 X126.9510 Y92.4880 E62.4171
G1 X127.1190 Y92.4990 E62.4231
G1 X130.5060 Y95.8860 E62.5951
G1 X130.4970 Y95.6940 E62.6020
G1 X130.4590 Y95.4060 E62.6125
G1 X130.3800 Y95.0810 E62.6245
G1 X127.9100 Y92.6110 E62.7499
G1 X127.2280 Y98.7180 F6000
G92 E0.0000
G1 X130.5120 Y102.0010 E0.1668 F2880
G1 X130.5120 Y102.6800 E0.1912
G1 X127.2280 Y99.3960 E0.3580
G1 X127.2280 Y100.0750 E0.3824
G1 X130.5120 Y103.3590 E0.5492
G1 X130.5120 Y103.9510 E0.5705
G1 X130.5070 Y104.0330 E0.5734
G1 X127.1220 Y100.6480 E0.7454
G1 X126.6090 Y100.8140 E0.7647
G1 X130.4470 Y104.6510 E0.9597
G1 X130.4270 Y104.7600 E0.9636
G1 X130.3480 Y105.0560 E0.9746
G1 X130.3010 Y105.1850 E0.9796
G1 X126.0970 Y100.9810 E1.1931
G1 X125.5850 Y101.1470 E1.2125
G1 X130.0940 Y105.6560 E1.4416
G1 X129.9610 Y105.8860 E1.4511
G1 X129.8800 Y106.0020 E1.4562
G1 X129.8310 Y106.0720 E1.4592
G1 X125.0720 Y101.3130 E1.7010
G92 E0.0000
G1 E-1.4 F1800 ; custom retraction - A
;layer 6, Z = 1.200
;fan6;
G1 Z1.200 F1200
G1 X122.4830 Y98.9940 F6000
G1 E0 F2400 ; custom un-retraction/prime - A
G92 E0.0000
G1 X124.2220 Y96.6010 E0.1063 F2880
G1 X127.0360 Y97.5150 E0.2125
G1 X127.0360 Y100.4730 E0.3188
G1 X124.2220 Y101.3880 E0.4251
G1 X122.4830 Y98.9940 E0.5314
G1 X121.8900 Y98.9940 F6000
G92 E0.0000
G1 X124.0390 Y96.0360 E0.1313 F2880
G1 X127.5160 Y97.1660 E0.2627
G1 X127.5160 Y100.8220 E0.3940
G1 X124.0390 Y101.9520 E0.5253
G1 X121.8900 Y98.9940 E0.6566
G1 X121.2970 Y98.9940 F6000
G92 E0.0000
G1 X123.8560 Y95.4720 E0.1564 F2160
G1 X127.9960 Y96.8170 E0.3128
G1 X127.9960 Y101.1710 E0.4691
G1 X123.8560 Y102.5160 E0.6255
G1 X121.2970 Y98.9940 E0.7819
G92 E0.0000
G1 E-1.4 F1800 ; custom retraction - A
;zhop1
G1 X77.5170 Y98.9940 F6000
G1 Z1.200 F1200
G1 E0 F2400 ; custom un-retraction/prime - A
G92 E0.0000
G1 X75.7780 Y101.3880 E0.1063 F2880
G1 X72.9640 Y100.4730 E0.2125
G1 X72.9640 Y97.5150 E0.3188
G1 X75.7780 Y96.6010 E0.4251
G1 X77.5170 Y98.9940 E0.5314
G1 X78.1100 Y98.9940 F6000
G92 E0.0000
G1 X75.9610 Y101.9520 E0.1313 F2880
G1 X72.4840 Y100.8220 E0.2627
G1 X72.4840 Y97.1660 E0.3940
G1 X75.9610 Y96.0360 E0.5253
G1 X78.1100 Y98.9940 E0.6566
G1 X78.7030 Y98.9940 F6000
G92 E0.0000
G1 X76.1440 Y102.5160 E0.1564 F2160
G1 X72.0040 Y101.1710 E0.3128
G1 X72.0040 Y96.8170 E0.4691
G1 X76.1440 Y95.4720 E0.6255
G1 X78.7030 Y98.9940 E0.7819
G92 E0.0000
G1 E-1.4 F1800 ; custom retraction - A
;layer 7, Z = 1.400
;fan7;
G1 Z1.400 F1200
G1 X77.5170 Y98.9940 F6000
G1 E0 F2400 ; custom un-retraction/prime - A
G92 E0.0000
G1 X75.7780 Y101.3880 E0.1063 F2880
G1 X72.9640 Y100.4730 E0.2125
G1 X72.9640 Y97.5150 E0.3188
G1 X75.7780 Y96.6010 E0.4251
G1 X77.5170 Y98.9940 E0.5314
G1 X78.1100 Y98.9940 F6000
G92 E0.0000
G1 X75.9610 Y101.9520 E0.1313 F2880
G1 X72.4840 Y100.8220 E0.2627
G1 X72.4840 Y97.1660 E0.3940
G1 X75.9610 Y96.0360 E0.5253
G1 X78.1100 Y98.9940 E0.6566
G1 X78.7030 Y98.9940 F6000
G92 E0.0000
G1 X76.1440 Y102.5160 E0.1564 F2160
G1 X72.0040 Y101.1710 E0.3128
G1 X72.0040 Y96.8170 E0.4691
G1 X76.1440 Y95.4720 E0.6255
G1 X78.7030 Y98.9940 E0.7819
G92 E0.0000
G1 E-1.4 F1800 ; custom retraction - A
;zhop1
G1 X122.4830 Y98.9940 F6000
G1 Z1.400 F1200
G1 E0 F2400 ; custom un-retraction/prime - A
G92 E0.0000
G1 X124.2220 Y96.6010 E0.1063 F2880
G1 X127.0360 Y97.5150 E0.2125
G1 X127.0360 Y100.4730 E0.3188
G1 X124.2220 Y101.3880 E0.4251
G1 X122.4830 Y98.9940 E0.5314
G1 X121.8900 Y98.9940 F6000
G92 E0.0000
G1 X124.0390 Y96.0360 E0.1313 F2880
G1 X127.5160 Y97.1660 E0.2627
G1 X127.5160 Y100.8220 E0.3940
G1 X124.0390 Y101.9520 E0.5253
G1 X121.8900 Y98.9940 E0.6566
G1 X121.2970 Y98.9940 F6000
G92 E0.0000
G1 X123.8560 Y95.4720 E0.1564 F2160
G1 X127.9960 Y96.8170 E0.3128
G1 X127.9960 Y101.1710 E0.4691
G1 X123.8560 Y102.5160 E0.6255
G1 X121.2970 Y98.9940 E0.7819
G92 E0.0000
G1 E-1.4 F1800 ; custom retraction - A
;layer 8, Z = 1.600
;fan8;
G1 Z1.600 F1200
G1 X122.4830 Y98.9940 F6000
G1 E0 F2400 ; custom un-retraction/prime - A
G92 E0.0000
G1 X124.2220 Y96.6010 E0.1063 F2880
G1 X127.0360 Y97.5150 E0.2125
G1 X127.0360 Y100.4730 E0.3188
G1 X124.2220 Y101.3880 E0.4251
G1 X122.4830 Y98.9940 E0.5314
G1 X121.8900 Y98.9940 F6000
G92 E0.0000
G1 X124.0390 Y96.0360 E0.1313 F2880
G1 X127.5160 Y97.1660 E0.2627
G1 X127.5160 Y100.8220 E0.3940
G1 X124.0390 Y101.9520 E0.5253
G1 X121.8900 Y98.9940 E0.6566
G1 X121.2970 Y98.9940 F6000
G92 E0.0000
G1 X123.8560 Y95.4720 E0.1564 F2160
G1 X127.9960 Y96.8170 E0.3128
G1 X127.9960 Y101.1710 E0.4691
G1 X123.8560 Y102.5160 E0.6255
G1 X121.2970 Y98.9940 E0.7819
G92 E0.0000
G1 E-1.4 F1800 ; custom retraction - A
;zhop1
G1 X77.5170 Y98.9940 F6000
G1 Z1.600 F1200
G1 E0 F2400 ; custom un-retraction/prime - A
G92 E0.0000
G1 X75.7780 Y101.3880 E0.1063 F2880
G1 X72.9640 Y100.4730 E0.2125
G1 X72.9640 Y97.5150 E0.3188
G1 X75.7780 Y96.6010 E0.4251
G1 X77.5170 Y98.9940 E0.5314
G1 X78.1100 Y98.9940 F6000
G92 E0.0000
G1 X75.9610 Y101.9520 E0.1313 F2880
G1 X72.4840 Y100.8220 E0.2627
G1 X72.4840 Y97.1660 E0.3940
G1 X75.9610 Y96.0360 E0.5253
G1 X78.1100 Y98.9940 E0.6566
G1 X78.7030 Y98.9940 F6000
G92 E0.0000
G1 X76.1440 Y102.5160 E0.1564 F2160
G1 X72.0040 Y101.1710 E0.3128
G1 X72.0040 Y96.8170 E0.4691
G1 X76.1440 Y95.4720 E0.6255
G1 X78.7030 Y98.9940 E0.7819
G92 E0.0000
G1 E-1.4 F1800 ; custom retraction - A
;layer 9, Z = 1.800
;fan9;
G1 Z1.800 F1200
G1 X77.5170 Y98.9940 F6000
G1 E0 F2400 ; custom un-retraction/prime - A
G92 E0.0000
G1 X75.7780 Y101.3880 E0.1063 F2880
G1 X72.9640 Y100.4730 E0.2125
G1 X72.9640 Y97.5150 E0.3188
G1 X75.7780 Y96.6010 E0.4251
G1 X77.5170 Y98.9940 E0.5314
G1 X78.1100 Y98.9940 F6000
G92 E0.0000
G1 X75.9610 Y101.9520 E0.1313 F2880
G1 X72.4840 Y100.8220 E0.2627
G1 X72.4840 Y97.1660 E0.3940
G1 X75.9610 Y96.0360 E0.5253
G1 X78.1100 Y98.9940 E0.6566
G1 X78.7030 Y98.9940 F6000
G92 E0.0000
G1 X76.1440 Y102.5160 E0.1564 F2160
G1 X72.0040 Y101.1710 E0.3128
G1 X72.0040 Y96.8170 E0.4691
G1 X76.1440 Y95.4720 E0.6255
G1 X78.7030 Y98.9940 E0.7819
G92 E0.0000
G1 E-1.4 F1800 ; custom retraction - A
;zhop1
G1 X122.4830 Y98.9940 F6000
G1 Z1.800 F1200
G1 E0 F2400 ; custom un-retraction/prime - A
G92 E0.0000
G1 X124.2220 Y96.6010 E0.1063 F2880
G1 X127.0360 Y97.5150 E0.2125
G1 X127.0360 Y100.4730 E0.3188
G1 X124.2220 Y101.3880 E0.4251
G1 X122.4830 Y98.9940 E0.5314
G1 X121.8900 Y98.9940 F6000
G92 E0.0000
G1 X124.0390 Y96.0360 E0.1313 F2880
G1 X127.5160 Y97.1660 E0.2627
G1 X127.5160 Y100.8220 E0.3940
G1 X124.0390 Y101.9520 E0.5253
G1 X121.8900 Y98.9940 E0.6566
G1 X121.2970 Y98.9940 F6000
G92 E0.0000
G1 X123.8560 Y95.4720 E0.1564 F2160
G1 X127.9960 Y96.8170 E0.3128
G1 X127.9960 Y101.1710 E0.4691
G1 X123.8560 Y102.5160 E0.6255
G1 X121.2970 Y98.9940 E0.7819
G92 E0.0000
G1 E-1.4 F1800 ; custom retraction - A
;layer 10, Z = 2.000
;fan10;
G1 Z2.000 F1200
G1 X122.4830 Y98.9940 F6000
G1 E0 F2400 ; custom un-retraction/prime - A
G92 E0.0000
G1 X124.2220 Y96.6010 E0.1063 F2880
G1 X127.0360 Y97.5150 E0.2125
G1 X127.0360 Y100.4730 E0.3188
G1 X124.2220 Y101.3880 E0.4251
G1 X122.4830 Y98.9940 E0.5314
G1 X121.8900 Y98.9940 F6000
G92 E0.0000
G1 X124.0390 Y96.0360 E0.1313 F2880
G1 X127.5160 Y97.1660 E0.2627
G1 X127.5160 Y100.8220 E0.3940
G1 X124.0390 Y101.9520 E0.5253
G1 X121.8900 Y98.9940 E0.6566
G1 X121.2970 Y98.9940 F6000
G92 E0.0000
G1 X123.8560 Y95.4720 E0.1564 F2160
G1 X127.9960 Y96.8170 E0.3128
G1 X127.9960 Y101.1710 E0.4691
G1 X123.8560 Y102.5160 E0.6255
G1 X121.2970 Y98.9940 E0.7819
G92 E0.0000
G1 E-1.4 F1800 ; custom retraction - A
;zhop1
G1 X77.5170 Y98.9940 F6000
G1 Z2.000 F1200
G1 E0 F2400 ; custom un-retraction/prime - A
G92 E0.0000
G1 X75.7780 Y101.3880 E0.1063 F2880
G1 X72.9640 Y100.4730 E0.2125
G1 X72.9640 Y97.5150 E0.3188
G1 X75.7780 Y96.6010 E0.4251
G1 X77.5170 Y98.9940 E0.5314
G1 X78.1100 Y98.9940 F6000
G92 E0.0000
G1 X75.9610 Y101.9520 E0.1313 F2880
G1 X72.4840 Y100.8220 E0.2627
G1 X72.4840 Y97.1660 E0.3940
G1 X75.9610 Y96.0360 E0.5253
G1 X78.1100 Y98.9940 E0.6566
G1 X78.7030 Y98.9940 F6000
G92 E0.0000
G1 X76.1440 Y102.5160 E0.1564 F2160
G1 X72.0040 Y101.1710 E0.3128
G1 X72.0040 Y96.8170 E0.4691
G1 X76.1440 Y95.4720 E0.6255
G1 X78.7030 Y98.9940 E0.7819
G92 E0.0000
G1 E-1.4 F1800 ; custom retraction - A
;process Process-2
;layer 11, Z = 2.200
;fan11;
G1 Z2.200 F1200
G1 X77.5170 Y98.9940 F6000
G1 E0 F2400 ; custom un-retraction/prime - A
G92 E0.0000
G1 X75.7780 Y101.3880 E0.1063 F2880
G1 X72.9640 Y100.4730 E0.2125
G1 X72.9640 Y97.5150 E0.3188
G1 X75.7780 Y96.6010 E0.4251
G1 X77.5170 Y98.9940 E0.5314
G1 X78.1100 Y98.9940 F6000
G92 E0.0000
G1 X75.9610 Y101.9520 E0.1313 F2880
G1 X72.4840 Y100.8220 E0.2627
G1 X72.4840 Y97.1660 E0.3940
G1 X75.9610 Y96.0360 E0.5253
G1 X78.1100 Y98.9940 E0.6566
G1 X78.7030 Y98.9940 F6000
G92 E0.0000
G1 X76.1440 Y102.5160 E0.1564 F2160
G1 X72.0040 Y101.1710 E0.3128
G1 X72.0040 Y96.8170 E0.4691
G1 X76.1440 Y95.4720 E0.6255
G1 X78.7030 Y98.9940 E0.7819
G92 E0.0000
G1 E-1.4 F1800 ; custom retraction - A
;zhop1
G1 X122.4830 Y98.9940 F6000
G1 Z2.200 F1200
G1 E0 F2400 ; custom un-retraction/prime - A
G92 E0.0000
G1 X124.2220 Y96.6010 E0.1063 F2880
G1 X127.0360 Y97.5150 E0.2125
G1 X127.0360 Y100.4730 E0.3188
G1 X124.2220 Y101.3880 E0.4251
G1 X122.4830 Y98.9940 E0.5314
G1 X121.8900 Y98.9940 F6000
G92 E0.0000
G1 X124.0390 Y96.0360 E0.1313 F2880
G1 X127.5160 Y97.1660 E0.2627
G1 X127.5160 Y100.8220 E0.3940
G1 X124.0390 Y101.9520 E0.5253
G1 X121.8900 Y98.9940 E0.6566
G1 X121.2970 Y98.9940 F6000
G92 E0.0000
G1 X123.8560 Y95.4720 E0.1564 F2160
G1 X127.9960 Y96.8170 E0.3128
G1 X127.9960 Y101.1710 E0.4691
G1 X123.8560 Y102.5160 E0.6255
G1 X121.2970 Y98.9940 E0.7819
G92 E0.0000
G1 E-1.4 F1800 ; custom retraction - A
;layer 12, Z = 2.400
;fan12;
G1 Z2.400 F1200
G1 X122.4830 Y98.9940 F6000
G1 E0 F2400 ; custom un-retraction/prime - A
G92 E0.0000
G1 X124.2220 Y96.6010 E0.1063 F2880
G1 X127.0360 Y97.5150 E0.2125
G1 X127.0360 Y100.4730 E0.3188
G1 X124.2220 Y101.3880 E0.4251
G1 X122.4830 Y98.9940 E0.5314
G1 X121.8900 Y98.9940 F6000
G92 E0.0000
G1 X124.0390 Y96.0360 E0.1313 F2880
G1 X127.5160 Y97.1660 E0.2627
G1 X127.5160 Y100.8220 E0.3940
G1 X124.0390 Y101.9520 E0.5253
G1 X121.8900 Y98.9940 E0.6566
G1 X121.2970 Y98.9940 F6000
G92 E0.0000
G1 X123.8560 Y95.4720 E0.1564 F2160
G1 X127.9960 Y96.8170 E0.3128
G1 X127.9960 Y101.1710 E0.4691
G1 X123.8560 Y102.5160 E0.6255
G1 X121.2970 Y98.9940 E0.7819
G92 E0.0000
G1 E-1.4 F1800 ; custom retraction - A
;zhop1
G1 X77.5170 Y98.9940 F6000
G1 Z2.400 F1200
G1 E0 F2400 ; custom un-retraction/prime - A
G92 E0.0000
G1 X75.7780 Y101.3880 E0.1063 F2880
G1 X72.9640 Y100.4730 E0.2125
G1 X72.9640 Y97.5150 E0.3188
G1 X75.7780 Y96.6010 E0.4251
G1 X77.5170 Y98.9940 E0.5314
G1 X78.1100 Y98.9940 F6000
G92 E0.0000
G1 X75.9610 Y101.9520 E0.1313 F2880
G1 X72.4840 Y100.8220 E0.2627
G1 X72.4840 Y97.1660 E0.3940
G1 X75.9610 Y96.0360 E0.5253
G1 X78.1100 Y98.9940 E0.6566
G1 X78.7030 Y98.9940 F6000
G92 E0.0000
G1 X76.1440 Y102.5160 E0.1564 F2160
G1 X72.0040 Y101.1710 E0.3128
G1 X72.0040 Y96.8170 E0.4691
G1 X76.1440 Y95.4720 E0.6255
G1 X78.7030 Y98.9940 E0.7819
G92 E0.0000
G1 E-1.4 F1800 ; custom retraction - A
;layer 13, Z = 2.600
;fan13;
G1 Z2.600 F1200
G1 X77.5170 Y98.9940 F6000
G1 E0 F2400 ; custom un-retraction/prime - A
G92 E0.0000
G1 X75.7780 Y101.3880 E0.1063 F2880
G1 X72.9640 Y100.4730 E0.2125
G1 X72.9640 Y97.5150 E0.3188
G1 X75.7780 Y96.6010 E0.4251
G1 X77.5170 Y98.9940 E0.5314
G1 X78.1100 Y98.9940 F6000
G92 E0.0000
G1 X75.9610 Y101.9520 E0.1313 F2880
G1 X72.4840 Y100.8220 E0.2627
G1 X72.4840 Y97.1660 E0.3940
G1 X75.9610 Y96.0360 E0.5253
G1 X78.1100 Y98.9940 E0.6566
G1 X78.7030 Y98.9940 F6000
G92 E0.0000
G1 X76.1440 Y102.5160 E0.1564 F2160
G1 X72.0040 Y101.1710 E0.3128
G1 X72.0040 Y96.8170 E0.4691
G1 X76.1440 Y95.4720 E0.6255
G1 X78.7030 Y98.9940 E0.7819
G92 E0.0000
G1 E-1.4 F1800 ; custom retraction - A
;zhop1
G1 X122.4830 Y98.9940 F6000
G1 Z2.600 F1200
G1 E0 F2400 ; custom un-retraction/prime - A
G92 E0.0000
G1 X124.2220 Y96.6010 E0.1063 F2880
G1 X127.0360 Y97.5150 E0.2125
G1 X127.0360 Y100.4730 E0.3188
G1 X124.2220 Y101.3880 E0.4251
G1 X122.4830 Y98.9940 E0.5314
G1 X121.8900 Y98.9940 F6000
G92 E0.0000
G1 X124.0390 Y96.0360 E0.1313 F2880
G1 X127.5160 Y97.1660 E0.2627
G1 X127.5160 Y100.8220 E0.3940
G1 X124.0390 Y101.9520 E0.5253
G1 X121.8900 Y98.9940 E0.6566
G1 X121.2970 Y98.9940 F6000
G92 E0.0000
G1 X123.8560 Y95.4720 E0.1564 F2160
G1 X127.9960 Y96.8170 E0.3128
G1 X127.9960 Y101.1710 E0.4691
G1 X123.8560 Y102.5160 E0.6255
G1 X121.2970 Y98.9940 E0.7819
G92 E0.0000
G1 E-1.4 F1800 ; custom retraction - A
;layer 14, Z = 2.800
;fan14;
G1 Z2.800 F1200
G1 X122.4830 Y98.9940 F6000
G1 E0 F2400 ; custom un-retraction/prime - A
G92 E0.0000
G1 X124.2220 Y96.6010 E0.1063 F2880
G1 X127.0360 Y97.5150 E0.2125
G1 X127.0360 Y100.4730 E0.3188
G1 X124.2220 Y101.3880 E0.4251
G1 X122.4830 Y98.9940 E0.5314
G1 X121.8900 Y98.9940 F6000
G92 E0.0000
G1 X124.0390 Y96.0360 E0.1313 F2880
G1 X127.5160 Y97.1660 E0.2627
G1 X127.5160 Y100.8220 E0.3940
G1 X124.0390 Y101.9520 E0.5253
G1 X121.8900 Y98.9940 E0.6566
G1 X121.2970 Y98.9940 F6000
G92 E0.0000
G1 X123.8560 Y95.4720 E0.1564 F2160
G1 X127.9960 Y96.8170 E0.3128
G1 X127.9960 Y101.1710 E0.4691
G1 X123.8560 Y102.5160 E0.6255
G1 X121.2970 Y98.9940 E0.7819
G92 E0.0000
G1 E-1.4 F1800 ; custom retraction - A
;zhop1
G1 X77.5170 Y98.9940 F6000
G1 Z2.800 F1200
G1 E0 F2400 ; custom un-retraction/prime - A
G92 E0.0000
G1 X75.7780 Y101.3880 E0.1063 F2880
G1 X72.9640 Y100.4730 E0.2125
G1 X72.9640 Y97.5150 E0.3188
G1 X75.7780 Y96.6010 E0.4251
G1 X77.5170 Y98.9940 E0.5314
G1 X78.1100 Y98.9940 F6000
G92 E0.0000
G1 X75.9610 Y101.9520 E0.1313 F2880
G1 X72.4840 Y100.8220 E0.2627
G1 X72.4840 Y97.1660 E0.3940
G1 X75.9610 Y96.0360 E0.5253
G1 X78.1100 Y98.9940 E0.6566
G1 X78.7030 Y98.9940 F6000
G92 E0.0000
G1 X76.1440 Y102.5160 E0.1564 F2160
G1 X72.0040 Y101.1710 E0.3128
G1 X72.0040 Y96.8170 E0.4691
G1 X76.1440 Y95.4720 E0.6255
G1 X78.7030 Y98.9940 E0.7819
G92 E0.0000
G1 E-1.4 F1800 ; custom retraction - A
;layer 15, Z = 3.000
;fan15;
G1 Z3.000 F1200
G1 X77.5170 Y98.9940 F6000
G1 E0 F2400 ; custom un-retraction/prime - A
G92 E0.0000
G1 X75.7780 Y101.3880 E0.1063 F2880
G1 X72.9640 Y100.4730 E0.2125
G1 X72.9640 Y97.5150 E0.3188
G1 X75.7780 Y96.6010 E0.4251
G1 X77.5170 Y98.9940 E0.5314
G1 X78.1100 Y98.9940 F6000
G92 E0.0000
G1 X75.9610 Y101.9520 E0.1313 F2880
G1 X72.4840 Y100.8220 E0.2627
G1 X72.4840 Y97.1660 E0.3940
G1 X75.9610 Y96.0360 E0.5253
G1 X78.1100 Y98.9940 E0.6566
G1 X78.7030 Y98.9940 F6000
G92 E0.0000
G1 X76.1440 Y102.5160 E0.1564 F2160
G1 X72.0040 Y101.1710 E0.3128
G1 X72.0040 Y96.8170 E0.4691
G1 X76.1440 Y95.4720 E0.6255
G1 X78.7030 Y98.9940 E0.7819
G92 E0.0000
G1 E-1.4 F1800 ; custom retraction - A
;zhop1
G1 X122.4830 Y98.9940 F6000
G1 Z3.000 F1200
G1 E0 F2400 ; custom un-retraction/prime - A
G92 E0.0000
G1 X124.2220 Y96.6010 E0.1063 F2880
G1 X127.0360 Y97.5150 E0.2125
G1 X127.0360 Y100.4730 E0.3188
G1 X124.2220 Y101.3880 E0.4251
G1 X122.4830 Y98.9940 E0.5314
G1 X121.8900 Y98.9940 F6000
G92 E0.0000
G1 X124.0390 Y96.0360 E0.1313 F2880
G1 X127.5160 Y97.1660 E0.2627
G1 X127.5160 Y100.8220 E0.3940
G1 X124.0390 Y101.9520 E0.5253
G1 X121.8900 Y98.9940 E0.6566
G1 X121.2970 Y98.9940 F6000
G92 E0.0000
G1 X123.8560 Y95.4720 E0.1564 F2160
G1 X127.9960 Y96.8170 E0.3128
G1 X127.9960 Y101.1710 E0.4691
G1 X123.8560 Y102.5160 E0.6255
G1 X121.2970 Y98.9940 E0.7819
G92 E0.0000
G1 E-1.4 F1800 ; custom retraction - A
;layer 16, Z = 3.200
;fan16;
G1 Z3.200 F1200
G1 X122.4830 Y98.9940 F6000
G1 E0 F2400 ; custom un-retraction/prime - A
G92 E0.0000
G1 X124.2220 Y96.6010 E0.1063 F2880
G1 X127.0360 Y97.5150 E0.2125
G1 X127.0360 Y100.4730 E0.3188
G1 X124.2220 Y101.3880 E0.4251
G1 X122.4830 Y98.9940 E0.5314
G1 X121.8900 Y98.9940 F6000
G92 E0.0000
G1 X124.0390 Y96.0360 E0.1313 F2880
G1 X127.5160 Y97.1660 E0.2627
G1 X127.5160 Y100.8220 E0.3940
G1 X124.0390 Y101.9520 E0.5253
G1 X121.8900 Y98.9940 E0.6566
G1 X121.2970 Y98.9940 F6000
G92 E0.0000
G1 X123.8560 Y95.4720 E0.1564 F2160
G1 X127.9960 Y96.8170 E0.3128
G1 X127.9960 Y101.1710 E0.4691
G1 X123.8560 Y102.5160 E0.6255
G1 X121.2970 Y98.9940 E0.7819
G92 E0.0000
G1 E-1.4 F1800 ; custom retraction - A
;zhop1
G1 X77.5170 Y98.9940 F6000
G1 Z3.200 F1200
G1 E0 F2400 ; custom un-retraction/prime - A
G92 E0.0000
G1 X75.7780 Y101.3880 E0.1063 F2880
G1 X72.9640 Y100.4730 E0.2125
G1 X72.9640 Y97.5150 E0.3188
G1 X75.7780 Y96.6010 E0.4251
G1 X77.5170 Y98.9940 E0.5314
G1 X78.1100 Y98.9940 F6000
G92 E0.0000
G1 X75.9610 Y101.9520 E0.1313 F2880
G1 X72.4840 Y100.8220 E0.2627
G1 X72.4840 Y97.1660 E0.3940
G1 X75.9610 Y96.0360 E0.5253
G1 X78.1100 Y98.9940 E0.6566
G1 X78.7030 Y98.9940 F6000
G92 E0.0000
G1 X76.1440 Y102.5160 E0.1564 F2160
G1 X72.0040 Y101.1710 E0.3128
G1 X72.0040 Y96.8170 E0.4691
G1 X76.1440 Y95.4720 E0.6255
G1 X78.7030 Y98.9940 E0.7819
G92 E0.0000
G1 E-1.4 F1800 ; custom retraction - A
;layer 17, Z = 3.400
;fan17;
G1 Z3.400 F1200
G1 X77.5170 Y98.9940 F6000
G1 E0 F2400 ; custom un-retraction/prime - A
G92 E0.0000
G1 X75.7780 Y101.3880 E0.1063 F2880
G1 X72.9640 Y100.4730 E0.2125
G1 X72.9640 Y97.5150 E0.3188
G1 X75.7780 Y96.6010 E0.4251
G1 X77.5170 Y98.9940 E0.5314
G1 X78.1100 Y98.9940 F6000
G92 E0.0000
G1 X75.9610 Y101.9520 E0.1313 F2880
G1 X72.4840 Y100.8220 E0.2627
G1 X72.4840 Y97.1660 E0.3940
G1 X75.9610 Y96.0360 E0.5253
G1 X78.1100 Y98.9940 E0.6566
G1 X78.7030 Y98.9940 F6000
G92 E0.0000
G1 X76.1440 Y102.5160 E0.1564 F2160
G1 X72.0040 Y101.1710 E0.3128
G1 X72.0040 Y96.8170 E0.4691
G1 X76.1440 Y95.4720 E0.6255
G1 X78.7030 Y98.9940 E0.7819
G92 E0.0000
G1 E-1.4 F1800 ; custom retraction - A
;zhop1
G1 X122.4830 Y98.9940 F6000
G1 Z3.400 F1200
G1 E0 F2400 ; custom un-retraction/prime - A
G92 E0.0000
G1 X124.2220 Y96.6010 E0.1063 F2880
G1 X127.0360 Y97.5150 E0.2125
G1 X127.0360 Y100.4730 E0.3188
G1 X124.2220 Y101.3880 E0.4251
G1 X122.4830 Y98.9940 E0.5314
G1 X121.8900 Y98.9940 F6000
G92 E0.0000
G1 X124.0390 Y96.0360 E0.1313 F2880
G1 X127.5160 Y97.1660 E0.2627
G1 X127.5160 Y100.8220 E0.3940
G1 X124.0390 Y101.9520 E0.5253
G1 X121.8900 Y98.9940 E0.6566
G1 X121.2970 Y98.9940 F6000
G92 E0.0000
G1 X123.8560 Y95.4720 E0.1564 F2160
G1 X127.9960 Y96.8170 E0.3128
G1 X127.9960 Y101.1710 E0.4691
G1 X123.8560 Y102.5160 E0.6255
G1 X121.2970 Y98.9940 E0.7819
G92 E0.0000
G1 E-1.4 F1800 ; custom retraction - A
;layer 18, Z = 3.600
;fan18;
G1 Z3.600 F1200
G1 X122.4830 Y98.9940 F6000
G1 E0 F2400 ; custom un-retraction/prime - A
G92 E0.0000
G1 X124.2220 Y96.6010 E0.1063 F2880
G1 X127.0360 Y97.5150 E0.2125
G1 X127.0360 Y100.4730 E0.3188
G1 X124.2220 Y101.3880 E0.4251
G1 X122.4830 Y98.9940 E0.5314
G1 X121.8900 Y98.9940 F6000
G92 E0.0000
G1 X124.0390 Y96.0360 E0.1313 F2880
G1 X127.5160 Y97.1660 E0.2627
G1 X127.5160 Y100.8220 E0.3940
G1 X124.0390 Y101.9520 E0.5253
G1 X121.8900 Y98.9940 E0.6566
G1 X121.2970 Y98.9940 F6000
G92 E0.0000
G1 X123.8560 Y95.4720 E0.1564 F2160
G1 X127.9960 Y96.8170 E0.3128
G1 X127.9960 Y101.1710 E0.4691
G1 X123.8560 Y102.5160 E0.6255
G1 X121.2970 Y98.9940 E0.7819
G92 E0.0000
G1 E-1.4 F1800 ; custom retraction - A
;zhop1
G1 X77.5170 Y98.9940 F6000
G1 Z3.600 F1200
G1 E0 F2400 ; custom un-retraction/prime - A
G92 E0.0000
G1 X75.7780 Y101.3880 E0.1063 F2880
G1 X72.9640 Y100.4730 E0.2125
G1 X72.9640 Y97.5150 E0.3188
G1 X75.7780 Y96.6010 E0.4251
G1 X77.5170 Y98.9940 E0.5314
G1 X78.1100 Y98.9940 F6000
G92 E0.0000
G1 X75.9610 Y101.9520 E0.1313 F2880
G1 X72.4840 Y100.8220 E0.2627
G1 X72.4840 Y97.1660 E0.3940
G1 X75.9610 Y96.0360 E0.5253
G1 X78.1100 Y98.9940 E0.6566
G1 X78.7030 Y98.9940 F6000
G92 E0.0000
G1 X76.1440 Y102.5160 E0.1564 F2160
G1 X72.0040 Y101.1710 E0.3128
G1 X72.0040 Y96.8170 E0.4691
G1 X76.1440 Y95.4720 E0.6255
G1 X78.7030 Y98.9940 E0.7819
G92 E0.0000
G1 E-1.4 F1800 ; custom retraction - A
;layer 19, Z = 3.800
;fan19;
G1 Z3.800 F1200
G1 X77.5170 Y98.9940 F6000
G1 E0 F2400 ; custom un-retraction/prime - A
G92 E0.0000
G1 X75.7780 Y101.3880 E0.1063 F2880
G1 X72.9640 Y100.4730 E0.2125
G1 X72.9640 Y97.5150 E0.3188
G1 X75.7780 Y96.6010 E0.4251
G1 X77.5170 Y98.9940 E0.5314
G1 X78.1100 Y98.9940 F6000
G92 E0.0000
G1 X75.9610 Y101.9520 E0.1313 F2880
G1 X72.4840 Y100.8220 E0.2627
G1 X72.4840 Y97.1660 E0.3940
G1 X75.9610 Y96.0360 E0.5253
G1 X78.1100 Y98.9940 E0.6566
G1 X78.7030 Y98.9940 F6000
G92 E0.0000
G1 X76.1440 Y102.5160 E0.1564 F2160
G1 X72.0040 Y101.1710 E0.3128
G1 X72.0040 Y96.8170 E0.4691
G1 X76.1440 Y95.4720 E0.6255
G1 X78.7030 Y98.9940 E0.7819
G92 E0.0000
G1 E-1.4 F1800 ; custom retraction - A
;zhop1
G1 X122.4830 Y98.9940 F6000
G1 Z3.800 F1200
G1 E0 F2400 ; custom un-retraction/prime - A
G92 E0.0000
G1 X124.2220 Y96.6010 E0.1063 F2880
G1 X127.0360 Y97.5150 E0.2125
G1 X127.0360 Y100.4730 E0.3188
G1 X124.2220 Y101.3880 E0.4251
G1 X122.4830 Y98.9940 E0.5314
G1 X121.8900 Y98.9940 F6000
G92 E0.0000
G1 X124.0390 Y96.0360 E0.1313 F2880
G1 X127.5160 Y97.1660 E0.2627
G1 X127.5160 Y100.8220 E0.3940
G1 X124.0390 Y101.9520 E0.5253
G1 X121.8900 Y98.9940 E0.6566
G1 X121.2970 Y98.9940 F6000
G92 E0.0000
G1 X123.8560 Y95.4720 E0.1564 F2160
G1 X127.9960 Y96.8170 E0.3128
G1 X127.9960 Y101.1710 E0.4691
G1 X123.8560 Y102.5160 E0.6255
G1 X121.2970 Y98.9940 E0.7819
G92 E0.0000
G1 E-1.4 F1800 ; custom retraction - A
;layer 20, Z = 4.000
;fan20;
G1 Z4.000 F1200
G1 X122.4830 Y98.9940 F6000
G1 E0 F2400 ; custom un-retraction/prime - A
G92 E0.0000
G1 X124.2220 Y96.6010 E0.1063 F2880
G1 X127.0360 Y97.5150 E0.2125
G1 X127.0360 Y100.4730 E0.3188
G1 X124.2220 Y101.3880 E0.4251
G1 X122.4830 Y98.9940 E0.5314
G1 X121.8900 Y98.9940 F6000
G92 E0.0000
G1 X124.0390 Y96.0360 E0.1313 F2880
G1 X127.5160 Y97.1660 E0.2627
G1 X127.5160 Y100.8220 E0.3940
G1 X124.0390 Y101.9520 E0.5253
G1 X121.8900 Y98.9940 E0.6566
G1 X121.2970 Y98.9940 F6000
G92 E0.0000
G1 X123.8560 Y95.4720 E0.1564 F2160
G1 X127.9960 Y96.8170 E0.3128
G1 X127.9960 Y101.1710 E0.4691
G1 X123.8560 Y102.5160 E0.6255
G1 X121.2970 Y98.9940 E0.7819
G92 E0.0000
G1 E-1.4 F1800 ; custom retraction - A
;zhop1
G1 X77.5170 Y98.9940 F6000
G1 Z4.000 F1200
G1 E0 F2400 ; custom un-retraction/prime - A
G92 E0.0000
G1 X75.7780 Y101.3880 E0.1063 F2880
G1 X72.9640 Y100.4730 E0.2125
G1 X72.9640 Y97.5150 E0.3188
G1 X75.7780 Y96.6010 E0.4251
G1 X77.5170 Y98.9940 E0.5314
G1 X78.1100 Y98.9940 F6000
G92 E0.0000
G1 X75.9610 Y101.9520 E0.1313 F2880
G1 X72.4840 Y100.8220 E0.2627
G1 X72.4840 Y97.1660 E0.3940
G1 X75.9610 Y96.0360 E0.5253
G1 X78.1100 Y98.9940 E0.6566
G1 X78.7030 Y98.9940 F6000
G92 E0.0000
G1 X76.1440 Y102.5160 E0.1564 F2160
G1 X72.0040 Y101.1710 E0.3128
G1 X72.0040 Y96.8170 E0.4691
G1 X76.1440 Y95.4720 E0.6255
G1 X78.7030 Y98.9940 E0.7819
G92 E0.0000
G1 E-1.4 F1800 ; custom retraction - A
;layer 21, Z = 4.200
;fan21;
G1 Z4.200 F1200
G1 X77.5170 Y98.9940 F6000
G1 E0 F2400 ; custom un-retraction/prime - A
G92 E0.0000
G1 X75.7780 Y101.3880 E0.1063 F2880
G1 X72.9640 Y100.4730 E0.2125
G1 X72.9640 Y97.5150 E0.3188
G1 X75.7780 Y96.6010 E0.4251
G1 X77.5170 Y98.9940 E0.5314
G1 X78.1100 Y98.9940 F6000
G92 E0.0000
G1 X75.9610 Y101.9520 E0.1313 F2880
G1 X72.4840 Y100.8220 E0.2627
G1 X72.4840 Y97.1660 E0.3940
G1 X75.9610 Y96.0360 E0.5253
G1 X78.1100 Y98.9940 E0.6566
G1 X78.7030 Y98.9940 F6000
G92 E0.0000
G1 X76.1440 Y102.5160 E0.1564 F2160
G1 X72.0040 Y101.1710 E0.3128
G1 X72.0040 Y96.8170 E0.4691
G1 X76.1440 Y95.4720 E0.6255
G1 X78.7030 Y98.9940 E0.7819
G92 E0.0000
G1 E-1.4 F1800 ; custom retraction - A
;zhop1
G1 X122.4830 Y98.9940 F6000
G1 Z4.200 F1200
G1 E0 F2400 ; custom un-retraction/prime - A
G92 E0.0000
G1 X124.2220 Y96.6010 E0.1063 F2880
G1 X127.0360 Y97.5150 E0.2125
G1 X127.0360 Y100.4730 E0.3188
G1 X124.2220 Y101.3880 E0.4251
G1 X122.4830 Y98.9940 E0.5314
G1 X121.8900 Y98.9940 F6000
G92 E0.0000
G1 X124.0390 Y96.0360 E0.1313 F2880
G1 X127.5160 Y97.1660 E0.2627
G1 X127.5160 Y100.8220 E0.3940
G1 X124.0390 Y101.9520 E0.5253
G1 X121.8900 Y98.9940 E0.6566
G1 X121.2970 Y98.9940 F6000
G92 E0.0000
G1 X123.8560 Y95.4720 E0.1564 F2160
G1 X127.9960 Y96.8170 E0.3128
G1 X127.9960 Y101.1710 E0.4691
G1 X123.8560 Y102.5160 E0.6255
G1 X121.2970 Y98.9940 E0.7819
G92 E0.0000
G1 E-1.4 F1800 ; custom retraction - A
;layer 22, Z = 4.400
;fan22;
G1 Z4.400 F1200
G1 X122.4830 Y98.9940 F6000
G1 E0 F2400 ; custom un-retraction/prime - A
G92 E0.0000
G1 X124.2220 Y96.6010 E0.1063 F2880
G1 X127.0360 Y97.5150 E0.2125
G1 X127.0360 Y100.4730 E0.3188
G1 X124.2220 Y101.3880 E0.4251
G1 X122.4830 Y98.9940 E0.5314
G1 X121.8900 Y98.9940 F6000
G92 E0.0000
G1 X124.0390 Y96.0360 E0.1313 F2880
G1 X127.5160 Y97.1660 E0.2627
G1 X127.5160 Y100.8220 E0.3940
G1 X124.0390 Y101.9520 E0.5253
G1 X121.8900 Y98.9940 E0.6566
G1 X121.2970 Y98.9940 F6000
G92 E0.0000
G1 X123.8560 Y95.4720 E0.1564 F2160
G1 X127.9960 Y96.8170 E0.3128
G1 X127.9960 Y101.1710 E0.4691
G1 X123.8560 Y102.5160 E0.6255
G1 X121.2970 Y98.9940 E0.7819
G92 E0.0000
G1 E-1.4 F1800 ; custom retraction - A
;zhop1
G1 X77.5170 Y98.9940 F6000
G1 Z4.400 F1200
G1 E0 F2400 ; custom un-retraction/prime - A
G92 E0.0000
G1 X75.7780 Y101.3880 E0.1063 F2880
G1 X72.9640 Y100.4730 E0.2125
G1 X72.9640 Y97.5150 E0.3188
G1 X75.7780 Y96.6010 E0.4251
G1 X77.5170 Y98.9940 E0.5314
G1 X78.1100 Y98.9940 F6000
G92 E0.0000
G1 X75.9610 Y101.9520 E0.1313 F2880
G1 X72.4840 Y100.8220 E0.2627
G1 X72.4840 Y97.1660 E0.3940
G1 X75.9610 Y96.0360 E0.5253
G1 X78.1100 Y98.9940 E0.6566
G1 X78.7030 Y98.9940 F6000
G92 E0.0000
G1 X76.1440 Y102.5160 E0.1564 F2160
G1 X72.0040 Y101.1710 E0.3128
G1 X72.0040 Y96.8170 E0.4691
G1 X76.1440 Y95.4720 E0.6255
G1 X78.7030 Y98.9940 E0.7819
G92 E0.0000
G1 E-1.4 F1800 ; custom retraction - A
;layer 23, Z = 4.600
;fan23;
G1 Z4.600 F1200
G1 X77.5170 Y98.9940 F6000
