; generated by SuperSlicer 2.5.59.8 on 2024-03-11 at 10:08:55 UTC


;
;

;
;
; 

; external perimeters extrusion width = 0.50mm
; perimeters extrusion width = 0.50mm
; infill extrusion width = 0.50mm
; solid infill extrusion width = 0.50mm
; top infill extrusion width = 0.50mm
; first layer extrusion width = 0.50mm

; external perimeters extrusion width = 0.50mm
; perimeters extrusion width = 0.50mm
; infill extrusion width = 0.50mm
; solid infill extrusion width = 0.50mm
; top infill extrusion width = 0.50mm
; first layer extrusion width = 0.50mm

; external perimeters extrusion width = 0.50mm
; perimeters extrusion width = 0.50mm
; infill extrusion width = 0.50mm
; solid infill extrusion width = 0.50mm
; top infill extrusion width = 0.50mm
; first layer extrusion width = 0.50mm

; external perimeters extrusion width = 0.50mm
; perimeters extrusion width = 0.50mm
; infill extrusion width = 0.50mm
; solid infill extrusion width = 0.50mm
; top infill extrusion width = 0.50mm
; first layer extrusion width = 0.50mm

; external perimeters extrusion width = 0.50mm
; perimeters extrusion width = 0.50mm
; infill extrusion width = 0.50mm
; solid infill extrusion width = 0.50mm
; top infill extrusion width = 0.50mm
; first layer extrusion width = 0.50mm

; external perimeters extrusion width = 0.50mm
; perimeters extrusion width = 0.50mm
; infill extrusion width = 0.50mm
; solid infill extrusion width = 0.50mm
; top infill extrusion width = 0.50mm
; first layer extrusion width = 0.50mm

; external perimeters extrusion width = 0.50mm
; perimeters extrusion width = 0.50mm
; infill extrusion width = 0.50mm
; solid infill extrusion width = 0.50mm
; top infill extrusion width = 0.50mm
; first layer extrusion width = 0.50mm

; external perimeters extrusion width = 0.50mm
; perimeters extrusion width = 0.50mm
; infill extrusion width = 0.50mm
; solid infill extrusion width = 0.50mm
; top infill extrusion width = 0.50mm
; first layer extrusion width = 0.50mm

; object:{"name":"Double-Sided Snap - Part B - Standard (0","id":"Double-Sided Snap - Part B - Standard (0.5) v2.stl id:0 copy 0","object_center":[102.942398,103.617765,0.000000],"boundingbox_center":[102.942398,103.617765,4.500000],"boundingbox_size":[24.000000,24.000000,9.000000]}
EXCLUDE_OBJECT_DEFINE NAME=Double_Sided_Snap_Part_B_Standard_0_5_v2_stl_id_0_copy_0 CENTER=102.942398,103.617765 POLYGON=[[90.94,98.65],[97.97,91.62],[107.91,91.62],[114.94,98.65],[114.94,108.59],[107.91,115.62],[97.97,115.62],[90.94,108.59],[90.94,98.65]]
; object:{"name":"8 mm, Offset Snap - DS Part A (2)","id":"8 mm, Offset Snap - DS Part A (2).stl id:1 copy 0","object_center":[81.939747,103.194007,0.000000],"boundingbox_center":[81.939747,103.194007,8.000000],"boundingbox_size":[14.400000,24.000000,16.000000]}
EXCLUDE_OBJECT_DEFINE NAME=8_mm_Offset_Snap_DS_Part_A_2_stl_id_1_copy_0 CENTER=81.939747,103.194007 POLYGON=[[74.74,91.19],[82.74,91.19],[89.14,91.89],[89.14,114.49],[82.74,115.19],[74.74,115.19],[74.74,91.19]]
; object:{"name":"Double-Sided Snap - Part B - Standard (0","id":"Double-Sided Snap - Part B - Standard (0.5) v2.stl id:2 copy 0","object_center":[102.724840,131.098320,0.000000],"boundingbox_center":[102.724840,131.098320,4.500000],"boundingbox_size":[24.000000,24.000000,9.000000]}
EXCLUDE_OBJECT_DEFINE NAME=Double_Sided_Snap_Part_B_Standard_0_5_v2_stl_id_2_copy_0 CENTER=102.724840,131.098320 POLYGON=[[90.72,126.13],[97.75,119.10],[107.70,119.10],[114.72,126.13],[114.72,136.07],[107.70,143.10],[97.75,143.10],[90.72,136.07],[90.72,126.13]]
; object:{"name":"8 mm, Offset Snap - DS Part A (2)","id":"8 mm, Offset Snap - DS Part A (2).stl id:3 copy 0","object_center":[81.722189,130.674563,0.000000],"boundingbox_center":[81.722189,130.674563,8.000000],"boundingbox_size":[14.400000,24.000000,16.000000]}
EXCLUDE_OBJECT_DEFINE NAME=8_mm_Offset_Snap_DS_Part_A_2_stl_id_3_copy_0 CENTER=81.722189,130.674563 POLYGON=[[74.52,118.67],[82.52,118.67],[88.92,119.37],[88.92,141.97],[82.52,142.67],[74.52,142.67],[74.52,118.67]]
; object:{"name":"Double-Sided Snap - Part B - Standard (0","id":"Double-Sided Snap - Part B - Standard (0.5) v2.stl id:4 copy 0","object_center":[148.477811,104.325437,0.000000],"boundingbox_center":[148.477811,104.325437,4.500000],"boundingbox_size":[24.000000,24.000000,9.000000]}
EXCLUDE_OBJECT_DEFINE NAME=Double_Sided_Snap_Part_B_Standard_0_5_v2_stl_id_4_copy_0 CENTER=148.477811,104.325437 POLYGON=[[136.48,99.35],[143.51,92.33],[153.45,92.33],[160.48,99.35],[160.48,109.30],[153.45,116.33],[143.51,116.33],[136.48,109.30],[136.48,99.35]]
; object:{"name":"8 mm, Offset Snap - DS Part A (2)","id":"8 mm, Offset Snap - DS Part A (2).stl id:5 copy 0","object_center":[127.475160,103.901680,0.000000],"boundingbox_center":[127.475160,103.901680,8.000000],"boundingbox_size":[14.400000,24.000000,16.000000]}
EXCLUDE_OBJECT_DEFINE NAME=8_mm_Offset_Snap_DS_Part_A_2_stl_id_5_copy_0 CENTER=127.475160,103.901680 POLYGON=[[120.28,91.90],[128.28,91.90],[134.68,92.60],[134.68,115.20],[128.28,115.90],[120.28,115.90],[120.28,91.90]]
; object:{"name":"Double-Sided Snap - Part B - Standard (0","id":"Double-Sided Snap - Part B - Standard (0.5) v2.stl id:6 copy 0","object_center":[148.260253,131.805993,0.000000],"boundingbox_center":[148.260253,131.805993,4.500000],"boundingbox_size":[24.000000,24.000000,9.000000]}
EXCLUDE_OBJECT_DEFINE NAME=Double_Sided_Snap_Part_B_Standard_0_5_v2_stl_id_6_copy_0 CENTER=148.260253,131.805993 POLYGON=[[136.26,126.84],[143.29,119.81],[153.23,119.81],[160.26,126.84],[160.26,136.78],[153.23,143.81],[143.29,143.81],[136.26,136.78],[136.26,126.84]]
; object:{"name":"8 mm, Offset Snap - DS Part A (2)","id":"8 mm, Offset Snap - DS Part A (2).stl id:7 copy 0","object_center":[127.257602,131.382235,0.000000],"boundingbox_center":[127.257602,131.382235,8.000000],"boundingbox_size":[14.400000,24.000000,16.000000]}
EXCLUDE_OBJECT_DEFINE NAME=8_mm_Offset_Snap_DS_Part_A_2_stl_id_7_copy_0 CENTER=127.257602,131.382235 POLYGON=[[120.06,119.38],[128.06,119.38],[134.46,120.08],[134.46,142.68],[128.06,143.38],[120.06,143.38],[120.06,119.38]]
; plater:{"center":[117.500000,117.500000,0.000000],"boundingbox_center":[117.500000,117.500000,8.000000],"boundingbox_size":[85.955622,52.611986,16.000000]}

M73 P0 R65
M107
;TYPE:Custom
; custom gcode: start_gcode
START_PRINT
; custom gcode end: start_gcode

G21 ; set units to millimeters
G90 ; use absolute coordinates
M83 ; use relative distances for extrusion
; custom gcode: start_filament_gcode
; Filament gcode
; Macro syntax: https://help.prusa3d.com/article/macros_1775

; Set pressure advance per-filament
;SET_PRESSURE_ADVANCE ADVANCE=0.0x

; Set pressure advance per-filament for different nozzle sizes
;SET_PRESSURE_ADVANCE ADVANCE=0.0x
;

; custom gcode end: start_filament_gcode
M104 S210 ; set temperature
M109 S210 ; set temperature and wait for it to be reached
M190 S60 ; set bed temperature and wait for it to be reached
;LAYER_CHANGE
;Z:0.25
;HEIGHT:0.25
G1 Z0.25 F27000
G92 E0
G1 E-0.5 F3000
G1 Z0.45 F27000
M204 S2000
G1 X72.745 Y91.259
G1 Z0.25
G1 E0.5 F1800
;TYPE:Skirt
;WIDTH:0.46
G1 X71.638 Y92.532 E0.07127
G1 X71.23 Y94.17 E0.07127
G1 X71.013 Y121.679 E1.16189
G1 X71.013 Y139.67 E0.75986
G1 X71.449 Y141.39 E0.07494
G1 X72.577 Y142.645 E0.07127
G1 X74.153 Y143.249 E0.07127
G1 X97.854 Y146.332 E1.00943
G1 X143.389 Y147.04 E1.92343
G1 X153.075 Y147.041 E0.40911
G1 X154.189 Y146.865 E0.0476
G1 X155.628 Y145.983 E0.07127
G1 X162.438 Y139.174 E0.40674
G1 X163.087 Y138.287 E0.04641
G1 X163.495 Y136.65 E0.07127
G1 X163.712 Y109.169 E1.16068
G1 X163.712 Y99.51 E0.40795
G1 X163.536 Y98.397 E0.0476
G1 X162.655 Y96.958 E0.07127
G1 X155.845 Y90.148 E0.40674
G1 X154.984 Y89.511 E0.04526
G1 X153.349 Y89.091 E0.07127
G1 X107.814 Y88.384 E1.92343
G1 X97.787 Y88.399 E0.42349
G1 X74.499 Y90.605 E0.98795
G1 X72.745 Y91.259 E0.07907
G1 X73.064 Y91.562 F27000
G1 F1800
G1 X72.043 Y92.638 E0.06265
G1 X71.637 Y94.173 E0.06708
G1 X71.419 Y121.654 E1.16068
G1 X71.419 Y139.67 E0.76093
G1 X71.722 Y141.03 E0.05882
G1 X72.731 Y142.256 E0.06708
G1 X74.206 Y142.846 E0.06708
G1 X97.86 Y145.926 E1.00747
G1 X143.395 Y146.634 E1.92343
G1 X153.075 Y146.634 E0.40885
G1 X153.974 Y146.506 E0.03834
G1 X155.34 Y145.696 E0.06708
G1 X162.15 Y138.886 E0.40674
G1 X162.682 Y138.182 E0.03728
G1 X163.088 Y136.647 E0.06708
G1 X163.306 Y109.166 E1.16068
G1 X163.306 Y99.51 E0.40781
G1 X163.177 Y98.612 E0.03834
G1 X162.368 Y97.245 E0.06708
G1 X155.558 Y90.435 E0.40674
G1 X154.875 Y89.915 E0.03626
G1 X153.343 Y89.498 E0.06708
G1 X107.807 Y88.79 E1.92343
G1 X97.825 Y88.804 E0.4216
G1 X74.538 Y91.01 E0.98795
G1 X73.136 Y91.486 E0.06252
G1 X73.064 Y91.562 E0.00443
G1 E-0.5 F3000
M204 S4000
G1 Z0.45 F27000
; printing object Double-Sided Snap - Part B - Standard (0.5) v2.stl id:0 copy 0
EXCLUDE_OBJECT_START NAME=Double_Sided_Snap_Part_B_Standard_0_5_v2_stl_id_0_copy_0
; acceleration to travel
M204 S10000
M73 P1 R65
G1 X89.885 Y98.238
; decel to extrusion
M204 S1000
G1 X91.567 Y98.906
; end travel
G1 Z0.25
G1 E0.5 F1800
;TYPE:External perimeter
;WIDTH:0.499999
G1 X98.231 Y92.243 E0.43717
G1 X107.654 Y92.243 E0.43717
G1 X114.317 Y98.906 E0.43717
G1 X114.317 Y108.329 E0.43717
G1 X107.654 Y114.993 E0.43717
G1 X98.231 Y114.993 E0.43717
G1 X91.567 Y108.329 E0.43717
G1 X91.567 Y98.906 E0.43717
;WIPE_START
M204 S4000
G1 X91.967 Y98.906 F27000
;WIPE_END
G1 E-0.5 F3000
G1 Z0.45 F27000
; acceleration to travel
M204 S10000
G1 X111.354 Y99.376
; decel to extrusion
M204 S1000
G1 X113.292 Y99.423
; end travel
G1 Z0.25
G1 E0.5 F1800
G1 X113.227 Y99.265 E0.00792
G1 X107.295 Y93.333 E0.3892
G1 X107.137 Y93.268 E0.00792
G1 X98.748 Y93.268 E0.3892
G1 X98.59 Y93.333 E0.00792
G1 X92.658 Y99.265 E0.3892
G1 X92.592 Y99.423 E0.00792
G1 X92.592 Y107.812 E0.3892
G1 X92.658 Y107.97 E0.00792
G1 X98.59 Y113.902 E0.3892
G1 X98.748 Y113.968 E0.00792
G1 X107.137 Y113.968 E0.3892
G1 X107.295 Y113.902 E0.00792
G1 X113.227 Y107.97 E0.3892
G1 X113.292 Y107.812 E0.00792
G1 X113.292 Y99.423 E0.3892
;WIPE_START
M204 S4000
G1 X113.575 Y99.14 F27000
;WIPE_END
M204 S2000
G1 X113.798 Y99.358
;TYPE:Internal perimeter
;WIDTH:0.632302
G1 F1800
G1 X113.805 Y99.423 E0.00394
G1 X113.805 Y107.812 E0.50457
G1 X113.79 Y107.959 E0.00884
;WIDTH:0.690518
G1 X113.776 Y108.105 E0.00973
G1 X113.683 Y108.219 E0.00973
;WIDTH:0.632302
G1 X113.589 Y108.333 E0.00884
G1 X107.657 Y114.265 E0.50457
G1 X107.544 Y114.358 E0.00884
;WIDTH:0.690516
G1 X107.43 Y114.451 E0.00973
G1 X107.283 Y114.466 E0.00973
;WIDTH:0.632302
G1 X107.137 Y114.48 E0.00884
G1 X98.748 Y114.48 E0.50457
G1 X98.601 Y114.466 E0.00884
;WIDTH:0.690518
G1 X98.455 Y114.451 E0.00973
G1 X98.341 Y114.358 E0.00973
;WIDTH:0.632304
G1 X98.228 Y114.265 E0.00884
G1 X92.295 Y108.333 E0.50457
G1 X92.202 Y108.219 E0.00884
;WIDTH:0.690518
G1 X92.109 Y108.105 E0.00973
G1 X92.094 Y107.959 E0.00973
;WIDTH:0.632302
G1 X92.08 Y107.812 E0.00884
G1 X92.08 Y99.423 E0.50457
G1 X92.094 Y99.277 E0.00884
;WIDTH:0.690518
G1 X92.109 Y99.13 E0.00973
G1 X92.202 Y99.017 E0.00973
;WIDTH:0.632302
G1 X92.295 Y98.903 E0.00884
G1 X98.228 Y92.971 E0.50457
G1 X98.341 Y92.878 E0.00884
;WIDTH:0.690518
G1 X98.455 Y92.784 E0.00973
G1 X98.601 Y92.77 E0.00973
;WIDTH:0.632302
G1 X98.748 Y92.755 E0.00884
G1 X107.137 Y92.755 E0.50457
G1 X107.283 Y92.77 E0.00884
;WIDTH:0.690516
G1 X107.43 Y92.784 E0.00973
G1 X107.543 Y92.878 E0.00973
;WIDTH:0.632302
G1 X107.657 Y92.971 E0.00884
G1 X113.589 Y98.903 E0.50457
G1 X113.683 Y99.017 E0.00884
;WIDTH:0.690518
G1 X113.776 Y99.13 E0.00973
G1 X113.79 Y99.277 E0.00973
;WIDTH:0.632302
G1 X113.798 Y99.358 E0.00491
G1 E-0.5 F3000
M204 S4000
G1 Z0.45 F27000
; acceleration to travel
M204 S10000
G1 X100.672 Y111.094
; decel to extrusion
M204 S1000
G1 X99.359 Y112.268
; end travel
G1 Z0.25
G1 E0.5 F1800
;TYPE:External perimeter
;WIDTH:0.499999
G1 X94.292 Y107.201 E0.33244
G1 X94.292 Y100.035 E0.33244
G1 X99.359 Y94.968 E0.33244
G1 X106.525 Y94.968 E0.33244
G1 X111.592 Y100.035 E0.33244
G1 X111.592 Y107.201 E0.33244
G1 X106.525 Y112.268 E0.33244
G1 X99.359 Y112.268 E0.33244
;WIPE_START
M204 S4000
G1 X99.359 Y111.868 F27000
;WIPE_END
M204 S2000
G1 X99.545 Y111.82
;TYPE:Internal perimeter
;WIDTH:0.502029
G1 F1800
G1 X99.385 Y111.673 E0.01015
;WIDTH:0.467977
G1 X94.888 Y107.175 E0.27389
;WIDTH:0.502029
G1 X94.74 Y107.015 E0.01015
G1 X94.731 Y106.798 E0.01015
;WIDTH:0.467976
G1 X94.731 Y100.438 E0.27389
;WIDTH:0.502029
G1 X94.74 Y100.22 E0.01015
G1 X94.888 Y100.06 E0.01015
;WIDTH:0.467977
G1 X99.385 Y95.563 E0.27389
;WIDTH:0.502029
G1 X99.545 Y95.415 E0.01015
G1 X99.762 Y95.407 E0.01015
;WIDTH:0.467976
G1 X106.122 Y95.407 E0.27389
;WIDTH:0.502029
G1 X106.34 Y95.415 E0.01015
G1 X106.5 Y95.563 E0.01015
;WIDTH:0.467975
G1 X110.997 Y100.06 E0.27389
;WIDTH:0.50203
G1 X111.145 Y100.22 E0.01015
G1 X111.154 Y100.438 E0.01015
;WIDTH:0.467976
G1 X111.154 Y106.798 E0.27389
;WIDTH:0.50203
G1 X111.145 Y107.015 E0.01015
G1 X110.997 Y107.175 E0.01015
;WIDTH:0.467975
G1 X106.5 Y111.673 E0.27389
;WIDTH:0.502029
G1 X106.34 Y111.82 E0.01015
G1 X106.122 Y111.829 E0.01015
;WIDTH:0.467976
G1 X99.762 Y111.829 E0.27389
;WIDTH:0.502029
G1 X99.545 Y111.82 E0.01015
M204 S1000
G1 X99.822 Y110.927 F27000
;TYPE:External perimeter
;WIDTH:0.499999
G1 F1800
G1 X99.98 Y110.993 E0.00792
G1 X105.905 Y110.993 E0.27487
G1 X106.063 Y110.927 E0.00792
G1 X110.252 Y106.738 E0.27487
G1 X110.317 Y106.58 E0.00792
G1 X110.317 Y100.655 E0.27487
G1 X110.252 Y100.498 E0.00792
G1 X106.063 Y96.308 E0.27487
G1 X105.905 Y96.243 E0.00792
G1 X99.98 Y96.243 E0.27487
G1 X99.822 Y96.308 E0.00792
G1 X95.633 Y100.498 E0.27487
G1 X95.567 Y100.655 E0.00792
G1 X95.567 Y106.58 E0.27487
G1 X95.633 Y106.738 E0.00792
G1 X99.822 Y110.927 E0.27487
;WIPE_START
M204 S4000
G1 X99.822 Y111.327 F27000
;WIPE_END
M204 S2000
G1 X99.569 Y111.271
;TYPE:Internal perimeter
;WIDTH:0.467977
G1 F1800
G1 X99.621 Y111.31 E0.00279
;WIDTH:0.502029
G1 X99.723 Y111.389 E0.00603
G1 X99.852 Y111.406 E0.00603
;WIDTH:0.467976
G1 X99.98 Y111.423 E0.00557
G1 X105.905 Y111.423 E0.25515
G1 X106.033 Y111.406 E0.00557
;WIDTH:0.502029
G1 X106.161 Y111.389 E0.00603
G1 X106.264 Y111.31 E0.00603
;WIDTH:0.467977
G1 X106.367 Y111.232 E0.00557
G1 X110.556 Y107.042 E0.25515
G1 X110.635 Y106.939 E0.00557
;WIDTH:0.50203
G1 X110.714 Y106.837 E0.00603
G1 X110.731 Y106.708 E0.00603
;WIDTH:0.467976
G1 X110.748 Y106.58 E0.00557
G1 X110.748 Y100.655 E0.25515
G1 X110.731 Y100.527 E0.00557
;WIDTH:0.50203
G1 X110.714 Y100.399 E0.00603
G1 X110.635 Y100.296 E0.00603
;WIDTH:0.467975
G1 X110.556 Y100.193 E0.00557
G1 X106.367 Y96.004 E0.25514
G1 X106.264 Y95.925 E0.00557
;WIDTH:0.502029
G1 X106.161 Y95.846 E0.00603
G1 X106.033 Y95.829 E0.00603
;WIDTH:0.467976
G1 X105.905 Y95.812 E0.00557
G1 X99.98 Y95.812 E0.25515
M73 P1 R64
G1 X99.852 Y95.829 E0.00557
;WIDTH:0.502029
G1 X99.723 Y95.846 E0.00603
G1 X99.621 Y95.925 E0.00603
;WIDTH:0.467977
G1 X99.518 Y96.004 E0.00557
G1 X95.328 Y100.193 E0.25515
G1 X95.25 Y100.296 E0.00557
;WIDTH:0.502029
G1 X95.171 Y100.399 E0.00603
G1 X95.154 Y100.527 E0.00603
;WIDTH:0.467976
G1 X95.137 Y100.655 E0.00557
G1 X95.137 Y106.58 E0.25515
G1 X95.154 Y106.708 E0.00557
;WIDTH:0.502029
G1 X95.171 Y106.837 E0.00603
G1 X95.25 Y106.939 E0.00603
;WIDTH:0.467977
G1 X95.328 Y107.042 E0.00557
G1 X99.518 Y111.232 E0.25515
G1 X99.569 Y111.271 E0.00279
G1 E-0.5 F3000
M204 S4000
G1 Z0.45 F27000
; stop printing object Double-Sided Snap - Part B - Standard (0.5) v2.stl id:0 copy 0
EXCLUDE_OBJECT_END NAME=Double_Sided_Snap_Part_B_Standard_0_5_v2_stl_id_0_copy_0
; printing object 8 mm, Offset Snap - DS Part A (2).stl id:1 copy 0
EXCLUDE_OBJECT_START NAME=8_mm_Offset_Snap_DS_Part_A_2_stl_id_1_copy_0
; acceleration to travel
M204 S10000
G1 X80.706 Y108.105
; decel to extrusion
M204 S1000
G1 X78.82 Y107.788
; end travel
G1 Z0.25
G1 E0.5 F1800
;TYPE:External perimeter
;WIDTH:0.499999
G1 X79.171 Y107.916 E0.01733
G1 X82.736 Y107.919 E0.16541
G1 X83.349 Y108.2 E0.03124
G1 X84.028 Y108.315 E0.03199
G1 X84.393 Y108.301 E0.01691
G1 X84.962 Y108.19 E0.02693
G1 X85.542 Y107.919 E0.02969
