; generated by SuperSlicer 2.5.59.8 on 2024-03-11 at 09:51:12 UTC


;
;

;
;
; 

; external perimeters extrusion width = 0.50mm
; perimeters extrusion width = 0.50mm
; infill extrusion width = 0.50mm
; solid infill extrusion width = 0.50mm
; top infill extrusion width = 0.50mm
; first layer extrusion width = 0.50mm

; external perimeters extrusion width = 0.50mm
; perimeters extrusion width = 0.50mm
; infill extrusion width = 0.50mm
; solid infill extrusion width = 0.50mm
; top infill extrusion width = 0.50mm
; first layer extrusion width = 0.50mm

; object:{"name":"Dual Snap Connector - DS Part B - Permanent (0","id":"Dual Snap Connector - DS Part B - Permanent (0.15).stl id:0 copy 0","object_center":[126.784359,117.251762,0.000000],"boundingbox_center":[126.784359,117.251762,4.500000],"boundingbox_size":[24.000000,49.000000,9.000000]}
EXCLUDE_OBJECT_DEFINE NAME=Dual_Snap_Connector_DS_Part_B_Permanent_0_15_stl_id_0_copy_0 CENTER=126.784359,117.251762 POLYGON=[[114.78,99.78],[121.81,92.75],[131.75,92.75],[138.78,99.78],[138.78,134.72],[131.75,141.75],[121.81,141.75],[114.78,134.72],[114.78,99.78]]
; object:{"name":"8 mm, Dual Offset Snap - DS Part A","id":"8 mm, Dual Offset Snap - DS Part A.stl id:1 copy 0","object_center":[103.415642,117.748238,0.000000],"boundingbox_center":[103.415642,117.748238,8.000000],"boundingbox_size":[14.400000,49.000000,16.000000]}
EXCLUDE_OBJECT_DEFINE NAME=8_mm_Dual_Offset_Snap_DS_Part_A_stl_id_1_copy_0 CENTER=103.415642,117.748238 POLYGON=[[96.22,93.25],[104.22,93.25],[110.62,93.95],[110.62,141.55],[104.22,142.25],[96.22,142.25],[96.22,93.25]]
; plater:{"center":[117.500000,117.500000,0.000000],"boundingbox_center":[117.500000,117.500000,8.000000],"boundingbox_size":[42.568717,49.496477,16.000000]}

M73 P0 R36
M107
;TYPE:Custom
; custom gcode: start_gcode
START_PRINT
; custom gcode end: start_gcode

G21 ; set units to millimeters
G90 ; use absolute coordinates
M83 ; use relative distances for extrusion
; custom gcode: start_filament_gcode
; Filament gcode
; Macro syntax: https://help.prusa3d.com/article/macros_1775

; Set pressure advance per-filament
;SET_PRESSURE_ADVANCE ADVANCE=0.0x

; Set pressure advance per-filament for different nozzle sizes
;SET_PRESSURE_ADVANCE ADVANCE=0.0x
;

; custom gcode end: start_filament_gcode
M104 S210 ; set temperature
M109 S210 ; set temperature and wait for it to be reached
M190 S60 ; set bed temperature and wait for it to be reached
;LAYER_CHANGE
;Z:0.25
;HEIGHT:0.25
G1 Z0.25 F27000
G92 E0
G1 E-0.5 F3000
G1 Z0.45 F27000
M204 S2000
G1 X93.802 Y93.121
G1 Z0.25
G1 E0.5 F1800
;TYPE:Skirt
;WIDTH:0.46
G1 X92.695 Y94.516 E0.07523
G1 X92.3 Y96.253 E0.07523
G1 X92.3 Y139.244 E1.81574
M73 P1 R36
G1 X92.986 Y141.489 E0.09916
G1 X94.285 Y142.708 E0.07523
G1 X95.983 Y143.246 E0.07523
G1 X121.636 Y145.379 E1.08722
G1 X131.6 Y145.393 E0.4208
G1 X132.932 Y145.165 E0.05708
G1 X134.439 Y144.216 E0.07523
G1 X141.249 Y137.407 E0.40674
G1 X142.03 Y136.304 E0.05708
G1 X142.425 Y134.567 E0.07523
G1 X142.425 Y99.937 E1.46262
G1 X142.198 Y98.604 E0.05708
G1 X141.249 Y97.097 E0.07523
G1 X134.439 Y90.287 E0.40674
G1 X133.336 Y89.506 E0.05708
G1 X131.6 Y89.111 E0.07523
G1 X121.483 Y89.14 E0.42726
G1 X95.83 Y92.266 E1.09149
G1 X93.802 Y93.121 E0.09293
G1 X94.134 Y93.404 F27000
G1 F1800
G1 X93.101 Y94.612 E0.06712
G1 X92.706 Y96.253 E0.07127
G1 X92.706 Y139.244 E1.81574
G1 X93.227 Y141.112 E0.08193
G1 X94.414 Y142.312 E0.07127
G1 X96.017 Y142.841 E0.07127
G1 X121.67 Y144.974 E1.08722
G1 X131.6 Y144.986 E0.41938
G1 X132.713 Y144.81 E0.0476
G1 X134.152 Y143.929 E0.07127
G1 X140.962 Y137.119 E0.40674
G1 X141.624 Y136.208 E0.0476
G1 X142.019 Y134.567 E0.07127
G1 X142.019 Y99.937 E1.46262
G1 X141.843 Y98.823 E0.0476
G1 X140.962 Y97.384 E0.07127
G1 X134.152 Y90.574 E0.40674
G1 X133.24 Y89.912 E0.0476
G1 X131.6 Y89.517 E0.07127
G1 X121.533 Y89.544 E0.42518
G1 X95.879 Y92.67 E1.09149
M73 P1 R35
G1 X94.198 Y93.33 E0.07629
G1 X94.134 Y93.404 E0.00415
G1 X94.452 Y93.702 F27000
G1 F1800
G1 X93.506 Y94.714 E0.05851
G1 X93.112 Y96.253 E0.06708
G1 X93.112 Y139.244 E1.81574
G1 X93.483 Y140.739 E0.06507
G1 X94.549 Y141.916 E0.06708
G1 X96.05 Y142.436 E0.06708
G1 X121.704 Y144.569 E1.08722
G1 X131.6 Y144.58 E0.41795
G1 X132.498 Y144.451 E0.03834
G1 X133.865 Y143.642 E0.06708
G1 X140.674 Y136.832 E0.40674
G1 X141.219 Y136.106 E0.03834
G1 X141.613 Y134.567 E0.06708
G1 X141.613 Y99.937 E1.46262
G1 X141.484 Y99.038 E0.03834
G1 X140.674 Y97.672 E0.06708
G1 X133.865 Y90.862 E0.40674
G1 X133.138 Y90.317 E0.03834
G1 X131.6 Y89.924 E0.06708
G1 X121.582 Y89.947 E0.42311
G1 X95.928 Y93.073 E1.09149
G1 X94.591 Y93.554 E0.06003
G1 X94.452 Y93.702 E0.00857
G1 E-0.5 F3000
M204 S4000
G1 Z0.45 F27000
; printing object Dual Snap Connector - DS Part B - Permanent (0.15).stl id:0 copy 0
EXCLUDE_OBJECT_START NAME=Dual_Snap_Connector_DS_Part_B_Permanent_0_15_stl_id_0_copy_0
; acceleration to travel
M204 S10000
G1 X119.562 Y116.134
; decel to extrusion
M204 S1000
G1 X122.073 Y118.377
; end travel
G1 Z0.25
G1 E0.5 F1800
;TYPE:External perimeter
;WIDTH:0.499999
G1 X131.496 Y118.377 E0.43717
G1 X138.159 Y125.04 E0.43717
G1 X138.159 Y134.463 E0.43717
G1 X131.496 Y141.127 E0.43717
G1 X122.073 Y141.127 E0.43717
G1 X115.409 Y134.463 E0.43717
G1 X115.409 Y125.04 E0.43717
G1 X122.073 Y118.377 E0.43717
;WIPE_START
M204 S4000
G1 X122.356 Y118.66 F27000
;WIPE_END
G1 E-0.5 F3000
G1 Z0.45 F27000
; acceleration to travel
M204 S10000
G1 X130.339 Y138.093
; decel to extrusion
M204 S1000
G1 X131.137 Y140.036
; end travel
G1 Z0.25
G1 E0.5 F1800
G1 X137.069 Y134.104 E0.3892
G1 X137.134 Y133.946 E0.00792
G1 X137.134 Y125.557 E0.3892
M73 P2 R35
G1 X137.069 Y125.399 E0.00792
G1 X131.137 Y119.467 E0.3892
G1 X130.979 Y119.402 E0.00792
G1 X122.59 Y119.402 E0.3892
G1 X122.432 Y119.467 E0.00792
G1 X116.5 Y125.399 E0.3892
G1 X116.434 Y125.557 E0.00792
G1 X116.434 Y133.946 E0.3892
G1 X116.5 Y134.104 E0.00792
G1 X122.432 Y140.036 E0.3892
G1 X122.59 Y140.102 E0.00792
G1 X130.979 Y140.102 E0.3892
G1 X131.137 Y140.036 E0.00792
;WIPE_START
M204 S4000
G1 X131.506 Y140.189 F27000
;WIPE_END
M204 S2000
G1 X131.449 Y140.44
;TYPE:Internal perimeter
;WIDTH:0.632298
G1 F1800
G1 X131.385 Y140.492 E0.00491
;WIDTH:0.690514
G1 X131.272 Y140.585 E0.00973
G1 X131.125 Y140.6 E0.00973
;WIDTH:0.632302
G1 X130.979 Y140.614 E0.00884
G1 X122.59 Y140.614 E0.50457
G1 X122.443 Y140.6 E0.00884
;WIDTH:0.690516
G1 X122.297 Y140.585 E0.00973
G1 X122.183 Y140.492 E0.00973
;WIDTH:0.632304
G1 X122.069 Y140.399 E0.00884
G1 X116.137 Y134.467 E0.50457
G1 X116.044 Y134.353 E0.00884
;WIDTH:0.690516
G1 X115.951 Y134.239 E0.00973
G1 X115.936 Y134.093 E0.00973
;WIDTH:0.632302
G1 X115.922 Y133.946 E0.00884
G1 X115.922 Y125.557 E0.50457
G1 X115.936 Y125.411 E0.00884
;WIDTH:0.690518
G1 X115.951 Y125.264 E0.00973
G1 X116.044 Y125.151 E0.00973
;WIDTH:0.632302
G1 X116.137 Y125.037 E0.00884
G1 X122.069 Y119.105 E0.50457
G1 X122.183 Y119.012 E0.00884
;WIDTH:0.690518
G1 X122.297 Y118.918 E0.00973
G1 X122.443 Y118.904 E0.00973
;WIDTH:0.632302
G1 X122.59 Y118.889 E0.00884
G1 X130.979 Y118.889 E0.50457
G1 X131.125 Y118.904 E0.00884
;WIDTH:0.690516
G1 X131.272 Y118.918 E0.00973
G1 X131.385 Y119.012 E0.00973
;WIDTH:0.632302
G1 X131.499 Y119.105 E0.00884
G1 X137.431 Y125.037 E0.50457
G1 X137.525 Y125.151 E0.00884
;WIDTH:0.690518
G1 X137.618 Y125.264 E0.00973
G1 X137.632 Y125.411 E0.00973
;WIDTH:0.632302
G1 X137.647 Y125.557 E0.00884
G1 X137.647 Y133.946 E0.50457
G1 X137.632 Y134.093 E0.00884
;WIDTH:0.690518
G1 X137.618 Y134.239 E0.00973
G1 X137.525 Y134.353 E0.00973
;WIDTH:0.632298
G1 X137.431 Y134.467 E0.00884
G1 X131.499 Y140.399 E0.50456
G1 X131.449 Y140.44 E0.00394
G1 E-0.5 F3000
M204 S4000
G1 Z0.45 F27000
; acceleration to travel
M204 S10000
G1 X119.345 Y127.466
; decel to extrusion
M204 S1000
G1 X118.134 Y126.169
; end travel
G1 Z0.25
G1 E0.5 F1800
;TYPE:External perimeter
;WIDTH:0.499999
G1 X123.201 Y121.102 E0.33244
G1 X130.367 Y121.102 E0.33244
G1 X135.434 Y126.169 E0.33244
G1 X135.434 Y133.335 E0.33244
G1 X130.367 Y138.402 E0.33244
G1 X123.201 Y138.402 E0.33244
G1 X118.134 Y133.335 E0.33244
G1 X118.134 Y126.169 E0.33244
;WIPE_START
M204 S4000
G1 X118.534 Y126.169 F27000
;WIPE_END
M204 S2000
G1 X118.582 Y126.354
;TYPE:Internal perimeter
;WIDTH:0.502029
G1 F1800
G1 X118.73 Y126.194 E0.01015
;WIDTH:0.467976
G1 X123.227 Y121.697 E0.27389
;WIDTH:0.502029
G1 X123.387 Y121.549 E0.01015
G1 X123.604 Y121.541 E0.01015
;WIDTH:0.467976
G1 X129.964 Y121.541 E0.27389
;WIDTH:0.50203
G1 X130.182 Y121.549 E0.01015
G1 X130.342 Y121.697 E0.01015
;WIDTH:0.467977
G1 X134.839 Y126.194 E0.27389
;WIDTH:0.50203
G1 X134.987 Y126.354 E0.01015
G1 X134.996 Y126.572 E0.01015
;WIDTH:0.467976
G1 X134.996 Y132.932 E0.27389
;WIDTH:0.50203
G1 X134.987 Y133.149 E0.01015
G1 X134.839 Y133.309 E0.01015
;WIDTH:0.467975
G1 X130.342 Y137.807 E0.27389
;WIDTH:0.502029
G1 X130.182 Y137.954 E0.01015
G1 X129.964 Y137.963 E0.01015
;WIDTH:0.467976
G1 X123.604 Y137.963 E0.27389
;WIDTH:0.502029
G1 X123.387 Y137.954 E0.01015
G1 X123.227 Y137.807 E0.01015
;WIDTH:0.467977
G1 X118.73 Y133.309 E0.27389
;WIDTH:0.502029
G1 X118.582 Y133.149 E0.01015
G1 X118.573 Y132.932 E0.01015
;WIDTH:0.467976
G1 X118.573 Y126.572 E0.27389
;WIDTH:0.502029
G1 X118.582 Y126.354 E0.01015
M204 S1000
G1 X119.475 Y132.872 F27000
;TYPE:External perimeter
;WIDTH:0.499999
G1 F1800
G1 X123.664 Y137.061 E0.27487
G1 X123.822 Y137.127 E0.00792
G1 X129.747 Y137.127 E0.27487
G1 X129.905 Y137.061 E0.00792
G1 X134.094 Y132.872 E0.27487
G1 X134.159 Y132.714 E0.00792
G1 X134.159 Y126.789 E0.27487
G1 X134.094 Y126.632 E0.00792
G1 X129.905 Y122.442 E0.27487
G1 X129.747 Y122.377 E0.00792
G1 X123.822 Y122.377 E0.27487
G1 X123.664 Y122.442 E0.00792
G1 X119.475 Y126.632 E0.27487
G1 X119.409 Y126.789 E0.00792
G1 X119.409 Y132.714 E0.27487
G1 X119.475 Y132.872 E0.00792
;WIPE_START
M204 S4000
G1 X119.322 Y133.242 F27000
;WIPE_END
M204 S2000
G1 X119.131 Y133.125
;TYPE:Internal perimeter
;WIDTH:0.467975
G1 F1800
G1 X119.17 Y133.176 E0.00279
G1 X123.36 Y137.366 E0.25514
G1 X123.463 Y137.444 E0.00557
;WIDTH:0.502029
G1 X123.565 Y137.523 E0.00603
G1 X123.694 Y137.54 E0.00603
;WIDTH:0.467976
G1 X123.822 Y137.557 E0.00557
G1 X129.747 Y137.557 E0.25515
G1 X129.875 Y137.54 E0.00557
;WIDTH:0.502029
G1 X130.003 Y137.523 E0.00603
G1 X130.106 Y137.444 E0.00603
;WIDTH:0.467976
G1 X130.209 Y137.366 E0.00557
G1 X134.398 Y133.176 E0.25515
G1 X134.477 Y133.073 E0.00557
;WIDTH:0.50203
G1 X134.556 Y132.971 E0.00603
G1 X134.573 Y132.842 E0.00603
;WIDTH:0.467976
G1 X134.59 Y132.714 E0.00557
G1 X134.59 Y126.789 E0.25515
G1 X134.573 Y126.661 E0.00557
;WIDTH:0.50203
G1 X134.556 Y126.533 E0.00603
G1 X134.477 Y126.43 E0.00603
;WIDTH:0.467976
G1 X134.398 Y126.327 E0.00557
G1 X130.209 Y122.138 E0.25515
G1 X130.106 Y122.059 E0.00557
;WIDTH:0.50203
G1 X130.003 Y121.98 E0.00603
G1 X129.875 Y121.963 E0.00603
;WIDTH:0.467976
G1 X129.747 Y121.946 E0.00557
G1 X123.822 Y121.946 E0.25515
G1 X123.694 Y121.963 E0.00557
;WIDTH:0.502029
G1 X123.565 Y121.98 E0.00603
G1 X123.463 Y122.059 E0.00603
;WIDTH:0.467976
G1 X123.36 Y122.138 E0.00557
G1 X119.17 Y126.327 E0.25515
G1 X119.092 Y126.43 E0.00557
;WIDTH:0.502029
G1 X119.013 Y126.533 E0.00603
G1 X118.996 Y126.661 E0.00603
;WIDTH:0.467976
G1 X118.979 Y126.789 E0.00557
G1 X118.979 Y132.714 E0.25515
G1 X118.996 Y132.842 E0.00557
;WIDTH:0.502029
G1 X119.013 Y132.971 E0.00603
G1 X119.092 Y133.073 E0.00603
;WIDTH:0.467975
G1 X119.131 Y133.125 E0.00279
G1 E-0.5 F3000
M204 S4000
G1 Z0.45 F27000
; acceleration to travel
M204 S10000
G1 X129.346 Y115.195
; decel to extrusion
M204 S1000
G1 X130.367 Y113.402
; end travel
G1 Z0.25
G1 E0.5 F1800
;TYPE:External perimeter
;WIDTH:0.499999
G1 X123.201 Y113.402 E0.33244
G1 X118.134 Y108.335 E0.33244
G1 X118.134 Y101.169 E0.33244
G1 X123.201 Y96.102 E0.33244
G1 X130.367 Y96.102 E0.33244
G1 X135.434 Y101.169 E0.33244
G1 X135.434 Y108.335 E0.33244
G1 X130.367 Y113.402 E0.33244
;WIPE_START
M204 S4000
G1 X130.084 Y113.119 F27000
;WIPE_END
M204 S2000
G1 X130.182 Y112.954
;TYPE:Internal perimeter
;WIDTH:0.50203
G1 F1800
G1 X129.964 Y112.963 E0.01015
;WIDTH:0.467976
G1 X123.604 Y112.963 E0.27389
;WIDTH:0.502029
G1 X123.387 Y112.954 E0.01015
G1 X123.227 Y112.807 E0.01015
;WIDTH:0.467976
G1 X118.73 Y108.309 E0.27389
;WIDTH:0.502029
G1 X118.582 Y108.149 E0.01015
G1 X118.573 Y107.932 E0.01015
;WIDTH:0.467976
G1 X118.573 Y101.572 E0.27389
;WIDTH:0.502029
G1 X118.582 Y101.354 E0.01015
G1 X118.73 Y101.194 E0.01015
;WIDTH:0.467977
G1 X123.227 Y96.697 E0.27389
;WIDTH:0.502029
G1 X123.387 Y96.549 E0.01015
G1 X123.604 Y96.541 E0.01015
;WIDTH:0.467976
G1 X129.964 Y96.541 E0.27389
;WIDTH:0.502029
G1 X130.182 Y96.549 E0.01015
G1 X130.342 Y96.697 E0.01015
;WIDTH:0.467975
G1 X134.839 Y101.194 E0.27389
;WIDTH:0.50203
G1 X134.987 Y101.354 E0.01015
G1 X134.996 Y101.572 E0.01015
;WIDTH:0.467976
G1 X134.996 Y107.932 E0.27389
;WIDTH:0.50203
G1 X134.987 Y108.149 E0.01015
G1 X134.839 Y108.309 E0.01015
;WIDTH:0.467976
G1 X130.342 Y112.807 E0.27389
;WIDTH:0.50203
G1 X130.182 Y112.954 E0.01015
G1 E-0.5 F3000
M204 S4000
G1 Z0.45 F27000
; acceleration to travel
M204 S10000
G1 X120.448 Y108.334
; decel to extrusion
M204 S1000
G1 X119.475 Y107.872
; end travel
G1 Z0.25
G1 E0.5 F1800
;TYPE:External perimeter
;WIDTH:0.499999
G1 X123.664 Y112.061 E0.27487
G1 X123.822 Y112.127 E0.00792
G1 X129.747 Y112.127 E0.27487
G1 X129.905 Y112.061 E0.00792
G1 X134.094 Y107.872 E0.27487
G1 X134.159 Y107.714 E0.00792
G1 X134.159 Y101.789 E0.27487
G1 X134.094 Y101.632 E0.00792
G1 X129.905 Y97.442 E0.27487
G1 X129.747 Y97.377 E0.00792
G1 X123.822 Y97.377 E0.27487
G1 X123.664 Y97.442 E0.00792
G1 X119.475 Y101.632 E0.27487
G1 X119.409 Y101.789 E0.00792
G1 X119.409 Y107.714 E0.27487
G1 X119.475 Y107.872 E0.00792
;WIPE_START
M204 S4000
G1 X119.322 Y108.242 F27000
;WIPE_END
M204 S2000
G1 X119.131 Y108.125
;TYPE:Internal perimeter
;WIDTH:0.467977
G1 F1800
G1 X119.17 Y108.176 E0.00279
G1 X123.36 Y112.366 E0.25515
G1 X123.463 Y112.444 E0.00557
;WIDTH:0.502029
G1 X123.565 Y112.523 E0.00603
G1 X123.694 Y112.54 E0.00603
;WIDTH:0.467976
G1 X123.822 Y112.557 E0.00557
G1 X129.747 Y112.557 E0.25515
G1 X129.875 Y112.54 E0.00557
;WIDTH:0.50203
G1 X130.003 Y112.523 E0.00603
G1 X130.106 Y112.444 E0.00603
;WIDTH:0.467977
G1 X130.209 Y112.366 E0.00557
G1 X134.398 Y108.176 E0.25515
G1 X134.477 Y108.073 E0.00557
;WIDTH:0.50203
G1 X134.556 Y107.971 E0.00603
G1 X134.573 Y107.842 E0.00603
;WIDTH:0.467976
G1 X134.59 Y107.714 E0.00557
G1 X134.59 Y101.789 E0.25515
G1 X134.573 Y101.661 E0.00557
;WIDTH:0.50203
G1 X134.556 Y101.533 E0.00603
G1 X134.477 Y101.43 E0.00603
;WIDTH:0.467975
G1 X134.398 Y101.327 E0.00557
G1 X130.209 Y97.138 E0.25514
G1 X130.106 Y97.059 E0.00557
;WIDTH:0.502029
G1 X130.003 Y96.98 E0.00603
G1 X129.875 Y96.963 E0.00603
;WIDTH:0.467976
G1 X129.747 Y96.946 E0.00557
G1 X123.822 Y96.946 E0.25515
G1 X123.694 Y96.963 E0.00557
;WIDTH:0.502029
G1 X123.565 Y96.98 E0.00603
G1 X123.463 Y97.059 E0.00603
;WIDTH:0.467977
G1 X123.36 Y97.138 E0.00557
G1 X119.17 Y101.327 E0.25515
G1 X119.092 Y101.43 E0.00557
;WIDTH:0.502029
G1 X119.013 Y101.533 E0.00603
G1 X118.996 Y101.661 E0.00603
;WIDTH:0.467976
G1 X118.979 Y101.789 E0.00557
G1 X118.979 Y107.714 E0.25515
G1 X118.996 Y107.842 E0.00557
;WIDTH:0.502029
G1 X119.013 Y107.971 E0.00603
G1 X119.092 Y108.073 E0.00603
;WIDTH:0.467977
G1 X119.131 Y108.125 E0.00279
G1 E-0.5 F3000
M204 S4000
G1 Z0.45 F27000
M204 S1000
G1 X122.073 Y116.127
G1 Z0.25
G1 E0.5 F1800
;TYPE:External perimeter
;WIDTH:0.499999
G1 X115.409 Y109.463 E0.43717
G1 X115.409 Y100.04 E0.43717
G1 X122.073 Y93.377 E0.43717
G1 X131.496 Y93.377 E0.43717
M73 P3 R35
G1 X138.159 Y100.04 E0.43717
G1 X138.159 Y109.463 E0.43717
G1 X131.496 Y116.127 E0.43717
G1 X122.073 Y116.127 E0.43717
;WIPE_START
M204 S4000
G1 X122.073 Y115.727 F27000
;WIPE_END
G1 E-0.5 F3000
G1 Z0.45 F27000
; acceleration to travel
M204 S10000
G1 X122.543 Y96.34
; decel to extrusion
M204 S1000
G1 X122.59 Y94.402
; end travel
G1 Z0.25
G1 E0.5 F1800
G1 X122.432 Y94.467 E0.00792
G1 X116.5 Y100.399 E0.3892
G1 X116.434 Y100.557 E0.00792
