; generated by SuperSlicer 2.5.59.8 on 2024-03-11 at 09:50:12 UTC


;
;

;
;
; 

; external perimeters extrusion width = 0.50mm
; perimeters extrusion width = 0.50mm
; infill extrusion width = 0.50mm
; solid infill extrusion width = 0.50mm
; top infill extrusion width = 0.50mm
; first layer extrusion width = 0.50mm

; external perimeters extrusion width = 0.50mm
; perimeters extrusion width = 0.50mm
; infill extrusion width = 0.50mm
; solid infill extrusion width = 0.50mm
; top infill extrusion width = 0.50mm
; first layer extrusion width = 0.50mm

; external perimeters extrusion width = 0.50mm
; perimeters extrusion width = 0.50mm
; infill extrusion width = 0.50mm
; solid infill extrusion width = 0.50mm
; top infill extrusion width = 0.50mm
; first layer extrusion width = 0.50mm

; object:{"name":"Cross Quad Snap Connector - DS Part B - Standard (0","id":"Cross Quad Snap Connector - DS Part B - Standard (0.5).stl id:0 copy 0","object_center":[117.500000,148.610708,0.000000],"boundingbox_center":[117.500000,148.610708,4.500000],"boundingbox_size":[49.000000,49.000000,9.000000]}
EXCLUDE_OBJECT_DEFINE NAME=Cross_Quad_Snap_Connector_DS_Part_B_Standard_0_5_stl_id_0_copy_0 CENTER=117.500000,148.610708 POLYGON=[[93.00,131.14],[100.03,124.11],[134.97,124.11],[142.00,131.14],[142.00,166.08],[134.97,173.11],[100.03,173.11],[93.00,166.08],[93.00,131.14]]
; object:{"name":"8 mm, Cross Quad Offset Snap - DS Part A - Part 1","id":"8 mm, Cross Quad Offset Snap - DS Part A - Part 1.stl id:1 copy 0","object_center":[105.907340,91.566962,0.000000],"boundingbox_center":[105.907340,91.566962,8.000000],"boundingbox_size":[14.400000,59.355339,16.000000]}
EXCLUDE_OBJECT_DEFINE NAME=8_mm_Cross_Quad_Offset_Snap_DS_Part_A_Part_1_stl_id_1_copy_0 CENTER=105.907340,91.566962 POLYGON=[[98.71,61.89],[106.71,61.89],[113.11,62.59],[113.11,120.54],[106.71,121.24],[98.71,121.24],[98.71,61.89]]
; object:{"name":"8 mm, Cross Quad Offset Snap - DS Part A - Part 2","id":"8 mm, Cross Quad Offset Snap - DS Part A - Part 2.stl id:2 copy 0","object_center":[132.065535,91.707112,0.000000],"boundingbox_center":[132.065535,91.707112,8.000000],"boundingbox_size":[14.400000,59.355339,16.000000]}
EXCLUDE_OBJECT_DEFINE NAME=8_mm_Cross_Quad_Offset_Snap_DS_Part_A_Part_2_stl_id_2_copy_0 CENTER=132.065535,91.707112 POLYGON=[[124.87,62.73],[131.27,62.03],[139.27,62.03],[139.27,121.38],[131.27,121.38],[124.87,120.68],[124.87,62.73]]
; plater:{"center":[117.500000,117.500000,0.000000],"boundingbox_center":[117.500000,117.500000,8.000000],"boundingbox_size":[49.000000,111.221415,16.000000]}

M73 P0 R68
M107
;TYPE:Custom
; custom gcode: start_gcode
START_PRINT
; custom gcode end: start_gcode

G21 ; set units to millimeters
G90 ; use absolute coordinates
M83 ; use relative distances for extrusion
; custom gcode: start_filament_gcode
; Filament gcode
; Macro syntax: https://help.prusa3d.com/article/macros_1775

; Set pressure advance per-filament
;SET_PRESSURE_ADVANCE ADVANCE=0.0x

; Set pressure advance per-filament for different nozzle sizes
;SET_PRESSURE_ADVANCE ADVANCE=0.0x
;

; custom gcode end: start_filament_gcode
M104 S210 ; set temperature
M109 S210 ; set temperature and wait for it to be reached
M190 S60 ; set bed temperature and wait for it to be reached
;LAYER_CHANGE
;Z:0.25
;HEIGHT:0.25
G1 Z0.25 F27000
G92 E0
M73 P0 R67
G1 E-0.5 F3000
G1 Z0.45 F27000
M204 S2000
G1 X95.737 Y62.996
G1 Z0.25
G1 E0.5 F1800
;TYPE:Skirt
;WIDTH:0.46
G1 X95.21 Y64.599 E0.07127
G1 X89.777 Y131.001 E2.81386
G1 X89.765 Y165.926 E1.47505
G1 X89.941 Y167.039 E0.0476
G1 X90.823 Y168.478 E0.07127
G1 X97.632 Y175.288 E0.40674
G1 X98.544 Y175.951 E0.0476
G1 X100.185 Y176.345 E0.07127
G1 X134.815 Y176.345 E1.46262
G1 X135.928 Y176.169 E0.0476
G1 X137.368 Y175.288 E0.07127
G1 X144.177 Y168.478 E0.40674
G1 X144.84 Y167.567 E0.0476
G1 X145.235 Y165.926 E0.07127
G1 X145.232 Y131.162 E1.46828
G1 X142.773 Y64.9 E2.80049
G1 X142.097 Y62.929 E0.08801
G1 X140.82 Y61.826 E0.07127
G1 X139.181 Y61.424 E0.07127
G1 X106.623 Y61.284 E1.37511
G1 X98.807 Y61.284 E0.33009
G1 X96.935 Y61.808 E0.08212
G1 X95.737 Y62.996 E0.07127
G1 X96.132 Y63.133 F27000
G1 F1800
G1 X95.615 Y64.633 E0.06701
G1 X90.182 Y131.034 E2.81386
G1 X90.172 Y165.926 E1.47365
G1 X90.3 Y166.824 E0.03834
G1 X91.11 Y168.191 E0.06708
G1 X97.92 Y175.001 E0.40674
G1 X98.646 Y175.545 E0.03834
G1 X100.185 Y175.939 E0.06708
G1 X134.815 Y175.939 E1.46262
G1 X135.714 Y175.81 E0.03834
G1 X137.08 Y175.001 E0.06708
G1 X143.89 Y168.191 E0.40674
G1 X144.434 Y167.465 E0.03834
G1 X144.828 Y165.926 E0.06708
G1 X144.826 Y131.177 E1.46764
G1 X142.367 Y64.915 E2.80049
G1 X141.872 Y63.321 E0.07051
G1 X140.716 Y62.231 E0.06708
G1 X139.179 Y61.831 E0.06708
G1 X106.621 Y61.691 E1.37511
M73 P1 R67
G1 X98.807 Y61.691 E0.33002
G1 X97.308 Y62.063 E0.06524
G1 X96.132 Y63.133 E0.06714
G1 E-0.5 F3000
M204 S4000
G1 Z0.45 F27000
; printing object Cross Quad Snap Connector - DS Part B - Standard (0.5).stl id:0 copy 0
EXCLUDE_OBJECT_START NAME=Cross_Quad_Snap_Connector_DS_Part_B_Standard_0_5_stl_id_0_copy_0
; acceleration to travel
M204 S10000
G1 X108.477 Y141.863
; decel to extrusion
M204 S1000
G1 X109.712 Y149.736
; end travel
G1 Z0.25
G1 E0.5 F1800
;TYPE:External perimeter
;WIDTH:0.499999
G1 X116.375 Y156.399 E0.43717
G1 X116.375 Y165.822 E0.43717
G1 X109.712 Y172.486 E0.43717
G1 X100.288 Y172.486 E0.43717
G1 X93.625 Y165.822 E0.43717
G1 X93.625 Y156.399 E0.43717
G1 X100.288 Y149.736 E0.43717
G1 X109.712 Y149.736 E0.43717
;WIPE_START
M204 S4000
G1 X109.712 Y150.136 F27000
;WIPE_END
M204 S1000
G1 X109.195 Y150.761
G1 F1800
G1 X100.805 Y150.761 E0.3892
G1 X100.648 Y150.826 E0.00792
G1 X94.715 Y156.758 E0.3892
G1 X94.65 Y156.916 E0.00792
G1 X94.65 Y165.305 E0.3892
G1 X94.715 Y165.463 E0.00792
G1 X100.648 Y171.395 E0.3892
G1 X100.805 Y171.461 E0.00792
G1 X109.195 Y171.461 E0.3892
G1 X109.352 Y171.395 E0.00792
G1 X115.285 Y165.463 E0.3892
G1 X115.35 Y165.305 E0.00792
G1 X115.35 Y156.916 E0.3892
G1 X115.285 Y156.758 E0.00792
G1 X109.352 Y150.826 E0.3892
G1 X109.195 Y150.761 E0.00792
;WIPE_START
M204 S4000
G1 X109.042 Y150.391 F27000
;WIPE_END
M204 S2000
G1 X109.26 Y150.255
;TYPE:Internal perimeter
;WIDTH:0.632302
G1 F1800
G1 X109.341 Y150.263 E0.00491
;WIDTH:0.690518
G1 X109.487 Y150.277 E0.00973
G1 X109.601 Y150.37 E0.00973
;WIDTH:0.632302
G1 X109.715 Y150.464 E0.00884
G1 X115.647 Y156.396 E0.50457
G1 X115.74 Y156.51 E0.00884
;WIDTH:0.690518
G1 X115.833 Y156.623 E0.00973
G1 X115.848 Y156.77 E0.00973
;WIDTH:0.632302
G1 X115.862 Y156.916 E0.00884
G1 X115.862 Y165.305 E0.50457
G1 X115.848 Y165.452 E0.00884
;WIDTH:0.690518
G1 X115.833 Y165.598 E0.00973
G1 X115.74 Y165.712 E0.00973
;WIDTH:0.6323
G1 X115.647 Y165.826 E0.00884
G1 X109.715 Y171.758 E0.50457
G1 X109.601 Y171.851 E0.00884
;WIDTH:0.690516
G1 X109.487 Y171.944 E0.00973
G1 X109.341 Y171.959 E0.00973
;WIDTH:0.632302
G1 X109.195 Y171.973 E0.00884
G1 X100.805 Y171.973 E0.50457
G1 X100.659 Y171.959 E0.00884
;WIDTH:0.690516
G1 X100.513 Y171.944 E0.00973
G1 X100.399 Y171.851 E0.00973
;WIDTH:0.632302
G1 X100.285 Y171.758 E0.00884
G1 X94.353 Y165.826 E0.50457
G1 X94.26 Y165.712 E0.00884
;WIDTH:0.690516
G1 X94.167 Y165.598 E0.00973
G1 X94.152 Y165.452 E0.00973
;WIDTH:0.632302
G1 X94.138 Y165.305 E0.00884
G1 X94.138 Y156.916 E0.50457
G1 X94.152 Y156.77 E0.00884
;WIDTH:0.690518
G1 X94.167 Y156.623 E0.00973
G1 X94.26 Y156.51 E0.00973
;WIDTH:0.632302
G1 X94.353 Y156.396 E0.00884
G1 X100.285 Y150.464 E0.50457
G1 X100.399 Y150.37 E0.00884
;WIDTH:0.690518
G1 X100.513 Y150.277 E0.00973
G1 X100.659 Y150.263 E0.00973
;WIDTH:0.632302
G1 X100.805 Y150.248 E0.00884
G1 X109.195 Y150.248 E0.50457
G1 X109.26 Y150.255 E0.00394
G1 E-0.5 F3000
M204 S4000
G1 Z0.45 F27000
M204 S1000
G1 X113.65 Y157.528
G1 Z0.25
G1 E0.5 F1800
;TYPE:External perimeter
;WIDTH:0.499999
G1 X113.65 Y164.694 E0.33244
G1 X108.583 Y169.761 E0.33244
G1 X101.417 Y169.761 E0.33244
G1 X96.35 Y164.694 E0.33244
G1 X96.35 Y157.528 E0.33244
G1 X101.417 Y152.461 E0.33244
G1 X108.583 Y152.461 E0.33244
G1 X113.65 Y157.528 E0.33244
;WIPE_START
M204 S4000
G1 X113.367 Y157.811 F27000
;WIPE_END
M204 S2000
G1 X113.203 Y157.713
;TYPE:Internal perimeter
;WIDTH:0.50203
G1 F1800
G1 X113.211 Y157.931 E0.01015
;WIDTH:0.467976
G1 X113.211 Y164.291 E0.27389
;WIDTH:0.50203
G1 X113.203 Y164.508 E0.01015
G1 X113.055 Y164.668 E0.01015
;WIDTH:0.467976
G1 X108.558 Y169.165 E0.27389
;WIDTH:0.502029
G1 X108.398 Y169.313 E0.01015
G1 X108.18 Y169.322 E0.01015
;WIDTH:0.467976
G1 X101.82 Y169.322 E0.27389
;WIDTH:0.502029
G1 X101.602 Y169.313 E0.01015
G1 X101.442 Y169.165 E0.01015
;WIDTH:0.467977
G1 X96.945 Y164.668 E0.27389
;WIDTH:0.502029
G1 X96.797 Y164.508 E0.01015
G1 X96.789 Y164.291 E0.01015
;WIDTH:0.467976
G1 X96.789 Y157.931 E0.27389
;WIDTH:0.502029
G1 X96.797 Y157.713 E0.01015
G1 X96.945 Y157.553 E0.01015
;WIDTH:0.467976
G1 X101.442 Y153.056 E0.27389
;WIDTH:0.502029
G1 X101.602 Y152.908 E0.01015
G1 X101.82 Y152.9 E0.01015
;WIDTH:0.467976
G1 X108.18 Y152.9 E0.27389
;WIDTH:0.50203
G1 X108.398 Y152.908 E0.01015
G1 X108.558 Y153.056 E0.01015
;WIDTH:0.467975
G1 X113.055 Y157.553 E0.27389
;WIDTH:0.50203
G1 X113.203 Y157.713 E0.01015
G1 E-0.5 F3000
M204 S4000
G1 Z0.45 F27000
; acceleration to travel
M204 S10000
G1 X102.909 Y167.447
; decel to extrusion
M204 S1000
G1 X101.88 Y168.42
; end travel
G1 Z0.25
G1 E0.5 F1800
;TYPE:External perimeter
;WIDTH:0.499999
G1 X102.038 Y168.486 E0.00792
G1 X107.962 Y168.486 E0.27487
G1 X108.12 Y168.42 E0.00792
G1 X112.31 Y164.231 E0.27487
G1 X112.375 Y164.073 E0.00792
G1 X112.375 Y158.148 E0.27487
G1 X112.31 Y157.991 E0.00792
G1 X108.12 Y153.801 E0.27487
G1 X107.962 Y153.736 E0.00792
G1 X102.038 Y153.736 E0.27487
G1 X101.88 Y153.801 E0.00792
G1 X97.69 Y157.991 E0.27487
G1 X97.642 Y158.063 E0.00404
G1 X97.625 Y158.148 E0.00404
G1 X97.625 Y164.073 E0.27487
G1 X97.69 Y164.231 E0.00792
G1 X101.88 Y168.42 E0.27487
;WIPE_START
M204 S4000
G1 X101.88 Y168.82 F27000
;WIPE_END
M204 S2000
G1 X101.627 Y168.764
;TYPE:Internal perimeter
;WIDTH:0.467975
G1 F1800
G1 X101.678 Y168.803 E0.00279
;WIDTH:0.502029
G1 X101.781 Y168.882 E0.00603
G1 X101.909 Y168.899 E0.00603
;WIDTH:0.467976
G1 X102.038 Y168.916 E0.00557
G1 X107.962 Y168.916 E0.25515
G1 X108.091 Y168.899 E0.00557
;WIDTH:0.502029
G1 X108.219 Y168.882 E0.00603
G1 X108.322 Y168.803 E0.00603
;WIDTH:0.467976
G1 X108.424 Y168.725 E0.00557
G1 X112.614 Y164.535 E0.25515
G1 X112.693 Y164.432 E0.00557
;WIDTH:0.50203
G1 X112.771 Y164.33 E0.00603
G1 X112.788 Y164.201 E0.00603
;WIDTH:0.467976
G1 X112.805 Y164.073 E0.00557
G1 X112.805 Y158.148 E0.25515
G1 X112.788 Y158.02 E0.00557
;WIDTH:0.50203
G1 X112.771 Y157.892 E0.00603
G1 X112.693 Y157.789 E0.00603
;WIDTH:0.467977
G1 X112.614 Y157.686 E0.00557
G1 X108.424 Y153.497 E0.25515
G1 X108.322 Y153.418 E0.00557
;WIDTH:0.50203
G1 X108.219 Y153.339 E0.00603
G1 X108.091 Y153.322 E0.00603
;WIDTH:0.467976
G1 X107.962 Y153.305 E0.00557
G1 X102.038 Y153.305 E0.25515
G1 X101.909 Y153.322 E0.00557
;WIDTH:0.502029
G1 X101.781 Y153.339 E0.00603
G1 X101.678 Y153.418 E0.00603
;WIDTH:0.467976
G1 X101.576 Y153.497 E0.00557
G1 X97.386 Y157.686 E0.25515
G1 X97.307 Y157.789 E0.00557
;WIDTH:0.502029
G1 X97.229 Y157.892 E0.00603
G1 X97.212 Y158.02 E0.00603
;WIDTH:0.467976
G1 X97.195 Y158.148 E0.00557
G1 X97.195 Y164.073 E0.25515
G1 X97.212 Y164.201 E0.00557
;WIDTH:0.502029
G1 X97.229 Y164.33 E0.00603
G1 X97.307 Y164.432 E0.00603
;WIDTH:0.467975
G1 X97.386 Y164.535 E0.00557
G1 X101.576 Y168.725 E0.25514
G1 X101.627 Y168.764 E0.00279
G1 E-0.5 F3000
M204 S4000
G1 Z0.45 F27000
; acceleration to travel
M204 S10000
G1 X112.557 Y142.336
; decel to extrusion
M204 S1000
G1 X113.65 Y139.694
; end travel
G1 Z0.25
G1 E0.5 F1800
;TYPE:External perimeter
;WIDTH:0.499999
G1 X108.583 Y144.761 E0.33244
G1 X101.417 Y144.761 E0.33244
G1 X96.35 Y139.694 E0.33244
G1 X96.35 Y132.528 E0.33244
G1 X101.417 Y127.461 E0.33244
G1 X108.583 Y127.461 E0.33244
G1 X113.65 Y132.528 E0.33244
G1 X113.65 Y139.694 E0.33244
;WIPE_START
M204 S4000
G1 X113.25 Y139.694 F27000
;WIPE_END
M204 S2000
G1 X113.203 Y139.508
;TYPE:Internal perimeter
;WIDTH:0.50203
G1 F1800
G1 X113.055 Y139.668 E0.01015
;WIDTH:0.467977
G1 X108.558 Y144.165 E0.27389
;WIDTH:0.50203
G1 X108.398 Y144.313 E0.01015
G1 X108.18 Y144.322 E0.01015
;WIDTH:0.467976
G1 X101.82 Y144.322 E0.27389
;WIDTH:0.502029
G1 X101.602 Y144.313 E0.01015
G1 X101.442 Y144.165 E0.01015
;WIDTH:0.467976
G1 X96.945 Y139.668 E0.27389
;WIDTH:0.502029
G1 X96.797 Y139.508 E0.01015
G1 X96.789 Y139.291 E0.01015
;WIDTH:0.467976
G1 X96.789 Y132.931 E0.27389
;WIDTH:0.502029
G1 X96.797 Y132.713 E0.01015
G1 X96.945 Y132.553 E0.01015
;WIDTH:0.467977
G1 X101.442 Y128.056 E0.27389
;WIDTH:0.502029
G1 X101.602 Y127.908 E0.01015
G1 X101.82 Y127.9 E0.01015
;WIDTH:0.467976
G1 X108.18 Y127.9 E0.27389
;WIDTH:0.50203
G1 X108.398 Y127.908 E0.01015
G1 X108.558 Y128.056 E0.01015
;WIDTH:0.467976
G1 X113.055 Y132.553 E0.27389
;WIDTH:0.50203
G1 X113.203 Y132.713 E0.01015
G1 X113.211 Y132.931 E0.01015
;WIDTH:0.467976
G1 X113.211 Y139.291 E0.27389
;WIDTH:0.50203
G1 X113.203 Y139.508 E0.01015
G1 E-0.5 F3000
M204 S4000
G1 Z0.45 F27000
; acceleration to travel
M204 S10000
G1 X103.053 Y129.715
; decel to extrusion
M204 S1000
G1 X102.038 Y128.736
; end travel
G1 Z0.25
G1 E0.5 F1800
;TYPE:External perimeter
;WIDTH:0.499999
G1 X101.88 Y128.801 E0.00792
G1 X97.69 Y132.991 E0.27487
G1 X97.625 Y133.148 E0.00792
G1 X97.625 Y139.073 E0.27487
G1 X97.69 Y139.231 E0.00792
G1 X101.88 Y143.42 E0.27487
G1 X102.038 Y143.486 E0.00792
G1 X107.962 Y143.486 E0.27487
G1 X108.12 Y143.42 E0.00792
G1 X112.31 Y139.231 E0.27487
G1 X112.375 Y139.073 E0.00792
G1 X112.375 Y133.148 E0.27487
G1 X112.31 Y132.991 E0.00792
G1 X108.12 Y128.801 E0.27487
G1 X107.962 Y128.736 E0.00792
G1 X102.038 Y128.736 E0.27487
;WIPE_START
M204 S4000
G1 X101.755 Y128.453 F27000
;WIPE_END
M204 S2000
G1 X101.973 Y128.314
;TYPE:Internal perimeter
;WIDTH:0.467976
G1 F1800
G1 X101.909 Y128.322 E0.00279
;WIDTH:0.502029
G1 X101.781 Y128.339 E0.00603
G1 X101.678 Y128.418 E0.00603
;WIDTH:0.467977
G1 X101.576 Y128.497 E0.00557
G1 X97.386 Y132.686 E0.25515
G1 X97.307 Y132.789 E0.00557
;WIDTH:0.502029
G1 X97.229 Y132.892 E0.00603
G1 X97.212 Y133.02 E0.00603
;WIDTH:0.467976
G1 X97.195 Y133.148 E0.00557
G1 X97.195 Y139.073 E0.25515
G1 X97.212 Y139.201 E0.00557
;WIDTH:0.502029
G1 X97.229 Y139.33 E0.00603
G1 X97.307 Y139.432 E0.00603
;WIDTH:0.467977
G1 X97.386 Y139.535 E0.00557
G1 X101.576 Y143.725 E0.25515
G1 X101.678 Y143.803 E0.00557
;WIDTH:0.502029
G1 X101.781 Y143.882 E0.00603
G1 X101.909 Y143.899 E0.00603
;WIDTH:0.467976
G1 X102.038 Y143.916 E0.00557
G1 X107.962 Y143.916 E0.25515
G1 X108.091 Y143.899 E0.00557
;WIDTH:0.50203
G1 X108.219 Y143.882 E0.00603
G1 X108.322 Y143.803 E0.00603
;WIDTH:0.467975
G1 X108.424 Y143.725 E0.00557
G1 X112.614 Y139.535 E0.25514
M73 P1 R66
G1 X112.693 Y139.432 E0.00557
;WIDTH:0.50203
G1 X112.771 Y139.33 E0.00603
G1 X112.788 Y139.201 E0.00603
;WIDTH:0.467976
G1 X112.805 Y139.073 E0.00557
G1 X112.805 Y133.148 E0.25515
G1 X112.788 Y133.02 E0.00557
;WIDTH:0.50203
G1 X112.771 Y132.892 E0.00603
G1 X112.693 Y132.789 E0.00603
;WIDTH:0.467976
G1 X112.614 Y132.686 E0.00557
G1 X108.424 Y128.497 E0.25515
G1 X108.322 Y128.418 E0.00557
;WIDTH:0.50203
G1 X108.219 Y128.339 E0.00603
G1 X108.091 Y128.322 E0.00603
;WIDTH:0.467976
G1 X107.962 Y128.305 E0.00557
G1 X102.038 Y128.305 E0.25515
G1 X101.973 Y128.314 E0.00279
G1 E-0.5 F3000
M204 S4000
G1 Z0.45 F27000
; acceleration to travel
M204 S10000
G1 X115.066 Y139.685
; decel to extrusion
M204 S1000
G1 X116.375 Y140.822
; end travel
G1 Z0.25
G1 E0.5 F1800
;TYPE:External perimeter
;WIDTH:0.499999
G1 X109.712 Y147.486 E0.43717
G1 X100.288 Y147.486 E0.43717
G1 X93.625 Y140.822 E0.43717
G1 X93.625 Y131.399 E0.43717
G1 X100.288 Y124.736 E0.43717
G1 X109.712 Y124.736 E0.43717
G1 X116.375 Y131.399 E0.43717
G1 X116.375 Y140.822 E0.43717
;WIPE_START
M204 S4000
G1 X115.975 Y140.822 F27000
;WIPE_END
M204 S1000
G1 X115.35 Y140.305
G1 F1800
G1 X115.35 Y131.916 E0.3892
G1 X115.285 Y131.758 E0.00792
G1 X109.352 Y125.826 E0.3892
