; generated by SuperSlicer 2.5.59.8 on 2024-03-11 at 10:06:35 UTC


;
;

;
;
; 

; external perimeters extrusion width = 0.50mm
; perimeters extrusion width = 0.50mm
; infill extrusion width = 0.50mm
; solid infill extrusion width = 0.50mm
; top infill extrusion width = 0.50mm
; first layer extrusion width = 0.50mm

; external perimeters extrusion width = 0.50mm
; perimeters extrusion width = 0.50mm
; infill extrusion width = 0.50mm
; solid infill extrusion width = 0.50mm
; top infill extrusion width = 0.50mm
; first layer extrusion width = 0.50mm

; object:{"name":"Double-Sided Snap - Part B - Standard (0","id":"Double-Sided Snap - Part B - Standard (0.5) v2.stl id:0 copy 0","object_center":[125.883520,117.318180,0.000000],"boundingbox_center":[125.883520,117.318180,4.500000],"boundingbox_size":[24.000000,24.000000,9.000000]}
EXCLUDE_OBJECT_DEFINE NAME=Double_Sided_Snap_Part_B_Standard_0_5_v2_stl_id_0_copy_0 CENTER=125.883520,117.318180 POLYGON=[[113.88,112.35],[120.91,105.32],[130.85,105.32],[137.88,112.35],[137.88,122.29],[130.85,129.32],[120.91,129.32],[113.88,122.29],[113.88,112.35]]
; object:{"name":"8 mm, Offset Snap - DS Part A (2)","id":"8 mm, Offset Snap - DS Part A (2).stl id:1 copy 0","object_center":[104.316480,117.681820,0.000000],"boundingbox_center":[104.316480,117.681820,8.000000],"boundingbox_size":[14.400000,24.000000,16.000000]}
EXCLUDE_OBJECT_DEFINE NAME=8_mm_Offset_Snap_DS_Part_A_2_stl_id_1_copy_0 CENTER=104.316480,117.681820 POLYGON=[[97.12,105.68],[105.12,105.68],[111.52,106.38],[111.52,128.98],[105.12,129.68],[97.12,129.68],[97.12,105.68]]
; plater:{"center":[117.500000,117.500000,0.000000],"boundingbox_center":[117.500000,117.500000,8.000000],"boundingbox_size":[40.767040,24.363641,16.000000]}

M73 P0 R25
M107
;TYPE:Custom
; custom gcode: start_gcode
START_PRINT
; custom gcode end: start_gcode

G21 ; set units to millimeters
G90 ; use absolute coordinates
M83 ; use relative distances for extrusion
ACTIVATE_EXTRUDER EXTRUDER=extruder
; custom gcode: start_filament_gcode
; Filament gcode
; Macro syntax: https://help.prusa3d.com/article/macros_1775

; Set pressure advance per-filament
;SET_PRESSURE_ADVANCE ADVANCE=0.0x

; Set pressure advance per-filament for different nozzle sizes
;SET_PRESSURE_ADVANCE ADVANCE=0.0x
;

; custom gcode end: start_filament_gcode
M104 S210 T0 ; set temperature
M109 S210 T0 ; set temperature and wait for it to be reached
M190 S60 ; set bed temperature and wait for it to be reached
;LAYER_CHANGE
;Z:0.25
;HEIGHT:0.25
G1 Z0.25 F27000
G92 E0
M73 P1 R24
G1 E-0.5 F3000
G1 Z0.45 F27000
M204 S2000
G1 X94.305 Y105.357
G1 Z0.25
G1 E0.5 F1800
;TYPE:Skirt
;WIDTH:0.46
G1 X93.19 Y106.858 E0.07899
G1 X92.794 Y108.686 E0.07899
G1 X92.794 Y126.677 E0.75986
G1 X93.627 Y129.261 E0.11463
G1 X95.016 Y130.513 E0.07899
G1 X96.798 Y131.08 E0.07899
G1 X120.65 Y133.346 E1.01192
G1 X130.699 Y133.365 E0.42441
G1 X132.254 Y133.083 E0.06674
G1 X133.826 Y132.07 E0.07899
G1 X140.636 Y125.26 E0.40674
G1 X141.535 Y123.961 E0.06674
G1 X141.931 Y122.133 E0.07899
G1 X141.931 Y112.503 E0.40674
G1 X141.648 Y110.948 E0.06674
G1 X140.636 Y109.376 E0.07899
G1 X133.826 Y102.566 E0.40674
G1 X132.527 Y101.666 E0.06674
G1 X130.699 Y101.271 E0.07899
G1 X120.518 Y101.305 E0.43
G1 X96.666 Y104.298 E1.01528
G1 X94.305 Y105.357 E0.10926
G1 X94.645 Y105.627 F27000
G1 F1800
G1 X93.596 Y106.949 E0.07131
G1 X93.201 Y108.686 E0.07523
G1 X93.201 Y126.677 E0.75986
G1 X93.861 Y128.883 E0.09726
G1 X95.145 Y130.118 E0.07523
G1 X96.837 Y130.675 E0.07523
G1 X120.689 Y132.941 E1.01192
G1 X130.699 Y132.959 E0.42278
G1 X132.031 Y132.732 E0.05708
G1 X133.538 Y131.783 E0.07523
G1 X140.348 Y124.973 E0.40674
G1 X141.129 Y123.87 E0.05708
G1 X141.524 Y122.133 E0.07523
G1 X141.524 Y112.503 E0.40674
G1 X141.297 Y111.171 E0.05708
G1 X140.348 Y109.663 E0.07523
G1 X133.538 Y102.854 E0.40674
G1 X132.436 Y102.072 E0.05708
G1 X130.699 Y101.677 E0.07523
G1 X120.568 Y101.709 E0.42786
G1 X96.716 Y104.702 E1.01528
G1 X94.703 Y105.554 E0.09235
G1 X94.645 Y105.627 E0.00392
G1 X94.974 Y105.909 F27000
G1 F1800
G1 X94.001 Y107.046 E0.0632
M73 P2 R24
G1 X93.607 Y108.686 E0.07127
G1 X93.607 Y126.677 E0.75986
G1 X94.106 Y128.509 E0.0802
G1 X95.279 Y129.723 E0.07127
G1 X96.875 Y130.271 E0.07127
G1 X120.727 Y132.537 E1.01192
G1 X130.699 Y132.553 E0.42116
G1 X131.812 Y132.377 E0.0476
G1 X133.251 Y131.495 E0.07127
G1 X140.061 Y124.686 E0.40674
G1 X140.724 Y123.774 E0.0476
G1 X141.118 Y122.133 E0.07127
G1 X141.118 Y112.503 E0.40674
G1 X140.942 Y111.39 E0.0476
G1 X140.061 Y109.951 E0.07127
G1 X133.251 Y103.141 E0.40674
G1 X132.339 Y102.478 E0.0476
G1 X130.699 Y102.084 E0.07127
G1 X120.619 Y102.112 E0.42573
G1 X96.767 Y105.105 E1.01528
G1 X95.099 Y105.763 E0.07576
G1 X94.974 Y105.909 E0.00807
G1 X95.29 Y106.203 F27000
G1 F1800
G1 X94.407 Y107.148 E0.05459
G1 X94.013 Y108.686 E0.06708
G1 X94.013 Y126.677 E0.75986
G1 X94.366 Y128.139 E0.06352
G1 X95.419 Y129.329 E0.06708
G1 X96.914 Y129.866 E0.06708
G1 X120.765 Y132.132 E1.01192
G1 X130.699 Y132.146 E0.41954
G1 X131.597 Y132.018 E0.03834
G1 X132.964 Y131.208 E0.06708
G1 X139.774 Y124.398 E0.40674
G1 X140.318 Y123.672 E0.03834
G1 X140.712 Y122.133 E0.06708
G1 X140.712 Y112.503 E0.40674
G1 X140.583 Y111.604 E0.03834
G1 X139.774 Y110.238 E0.06708
G1 X132.964 Y103.428 E0.40674
G1 X132.237 Y102.884 E0.03834
G1 X130.699 Y102.49 E0.06708
G1 X120.669 Y102.515 E0.42359
G1 X96.818 Y105.508 E1.01528
G1 X95.492 Y105.987 E0.05955
G1 X95.29 Y106.203 E0.01249
G1 E-0.5 F3000
M204 S4000
G1 Z0.45 F27000
; printing object Double-Sided Snap - Part B - Standard (0.5) v2.stl id:0 copy 0
EXCLUDE_OBJECT_START NAME=Double_Sided_Snap_Part_B_Standard_0_5_v2_stl_id_0_copy_0
; acceleration to travel
M204 S10000
G1 X112.761 Y112.024
; decel to extrusion
M204 S1000
G1 X114.509 Y112.606
; end travel
G1 Z0.25
G1 E0.5 F1800
;TYPE:External perimeter
;WIDTH:0.499999
G1 X121.172 Y105.943 E0.43717
G1 X130.595 Y105.943 E0.43717
G1 X137.259 Y112.607 E0.43717
G1 X137.259 Y122.03 E0.43717
G1 X130.595 Y128.693 E0.43717
G1 X121.172 Y128.693 E0.43717
G1 X114.509 Y122.03 E0.43717
G1 X114.509 Y112.606 E0.43717
;WIPE_START
M204 S4000
G1 X114.909 Y112.607 F27000
;WIPE_END
G1 E-0.5 F3000
G1 Z0.45 F27000
; acceleration to travel
M204 S10000
G1 X134.295 Y113.077
; decel to extrusion
M204 S1000
G1 X136.234 Y113.124
; end travel
G1 Z0.25
G1 E0.5 F1800
G1 X136.168 Y112.966 E0.00792
G1 X130.236 Y107.034 E0.3892
G1 X130.078 Y106.968 E0.00792
G1 X121.689 Y106.968 E0.3892
G1 X121.531 Y107.034 E0.00792
G1 X115.599 Y112.966 E0.3892
G1 X115.534 Y113.124 E0.00792
G1 X115.534 Y121.513 E0.3892
G1 X115.599 Y121.671 E0.00792
G1 X121.531 Y127.603 E0.3892
G1 X121.689 Y127.668 E0.00792
G1 X130.078 Y127.668 E0.3892
G1 X130.236 Y127.603 E0.00792
G1 X136.168 Y121.671 E0.3892
G1 X136.234 Y121.513 E0.00792
G1 X136.234 Y113.124 E0.3892
;WIPE_START
M204 S4000
G1 X136.516 Y112.841 F27000
;WIPE_END
M204 S2000
G1 X136.74 Y113.058
;TYPE:Internal perimeter
;WIDTH:0.632302
G1 F1800
G1 X136.746 Y113.124 E0.00394
G1 X136.746 Y121.513 E0.50457
M73 P3 R24
G1 X136.731 Y121.659 E0.00884
;WIDTH:0.690518
G1 X136.717 Y121.806 E0.00973
G1 X136.624 Y121.919 E0.00973
;WIDTH:0.632302
G1 X136.531 Y122.033 E0.00884
G1 X130.598 Y127.965 E0.50457
G1 X130.485 Y128.058 E0.00884
;WIDTH:0.690516
G1 X130.371 Y128.152 E0.00973
G1 X130.225 Y128.166 E0.00973
;WIDTH:0.632302
G1 X130.078 Y128.181 E0.00884
G1 X121.689 Y128.181 E0.50457
G1 X121.543 Y128.166 E0.00884
;WIDTH:0.690518
G1 X121.396 Y128.152 E0.00973
G1 X121.282 Y128.058 E0.00973
;WIDTH:0.632304
G1 X121.169 Y127.965 E0.00884
G1 X115.236 Y122.033 E0.50457
G1 X115.143 Y121.919 E0.00884
;WIDTH:0.690518
G1 X115.05 Y121.806 E0.00973
G1 X115.036 Y121.659 E0.00973
;WIDTH:0.632302
G1 X115.021 Y121.513 E0.00884
G1 X115.021 Y113.124 E0.50457
G1 X115.036 Y112.977 E0.00884
;WIDTH:0.690518
G1 X115.05 Y112.831 E0.00973
G1 X115.143 Y112.717 E0.00973
;WIDTH:0.632302
G1 X115.236 Y112.603 E0.00884
G1 X121.169 Y106.671 E0.50457
G1 X121.282 Y106.578 E0.00884
;WIDTH:0.690518
G1 X121.396 Y106.485 E0.00973
G1 X121.543 Y106.47 E0.00973
;WIDTH:0.632302
G1 X121.689 Y106.456 E0.00884
G1 X130.078 Y106.456 E0.50457
G1 X130.225 Y106.47 E0.00884
;WIDTH:0.690516
G1 X130.371 Y106.485 E0.00973
G1 X130.485 Y106.578 E0.00973
;WIDTH:0.632302
G1 X130.598 Y106.671 E0.00884
G1 X136.531 Y112.603 E0.50457
G1 X136.624 Y112.717 E0.00884
;WIDTH:0.690518
G1 X136.717 Y112.831 E0.00973
G1 X136.731 Y112.977 E0.00973
;WIDTH:0.632302
G1 X136.74 Y113.058 E0.00491
G1 E-0.5 F3000
M204 S4000
G1 Z0.45 F27000
; acceleration to travel
M204 S10000
G1 X123.613 Y124.795
; decel to extrusion
M204 S1000
G1 X122.301 Y125.968
; end travel
G1 Z0.25
G1 E0.5 F1800
;TYPE:External perimeter
;WIDTH:0.499999
G1 X117.234 Y120.901 E0.33244
G1 X117.234 Y113.735 E0.33244
G1 X122.301 Y108.668 E0.33244
G1 X129.466 Y108.668 E0.33244
G1 X134.534 Y113.735 E0.33244
G1 X134.534 Y120.901 E0.33244
G1 X129.466 Y125.968 E0.33244
G1 X122.301 Y125.968 E0.33244
;WIPE_START
M204 S4000
G1 X122.301 Y125.568 F27000
;WIPE_END
M204 S2000
G1 X122.486 Y125.521
;TYPE:Internal perimeter
;WIDTH:0.502029
G1 F1800
G1 X122.326 Y125.373 E0.01015
;WIDTH:0.467977
G1 X117.829 Y120.876 E0.27389
;WIDTH:0.502029
G1 X117.681 Y120.716 E0.01015
G1 X117.672 Y120.498 E0.01015
;WIDTH:0.467976
G1 X117.672 Y114.138 E0.27389
;WIDTH:0.502029
G1 X117.681 Y113.921 E0.01015
G1 X117.829 Y113.761 E0.01015
;WIDTH:0.467977
G1 X122.326 Y109.263 E0.27389
;WIDTH:0.502029
G1 X122.486 Y109.116 E0.01015
G1 X122.704 Y109.107 E0.01015
;WIDTH:0.467976
G1 X129.064 Y109.107 E0.27389
;WIDTH:0.502029
G1 X129.281 Y109.116 E0.01015
G1 X129.441 Y109.263 E0.01015
;WIDTH:0.467975
G1 X133.938 Y113.761 E0.27389
;WIDTH:0.50203
G1 X134.086 Y113.921 E0.01015
G1 X134.095 Y114.138 E0.01015
;WIDTH:0.467976
G1 X134.095 Y120.498 E0.27389
;WIDTH:0.50203
G1 X134.086 Y120.716 E0.01015
G1 X133.938 Y120.876 E0.01015
;WIDTH:0.467975
G1 X129.441 Y125.373 E0.27389
;WIDTH:0.502029
G1 X129.281 Y125.521 E0.01015
G1 X129.064 Y125.529 E0.01015
;WIDTH:0.467976
G1 X122.704 Y125.529 E0.27389
;WIDTH:0.502029
G1 X122.486 Y125.521 E0.01015
M204 S1000
G1 X122.763 Y124.628 F27000
;TYPE:External perimeter
;WIDTH:0.499999
G1 F1800
G1 X122.921 Y124.693 E0.00792
G1 X128.846 Y124.693 E0.27487
G1 X129.004 Y124.628 E0.00792
G1 X133.193 Y120.438 E0.27487
G1 X133.259 Y120.281 E0.00792
G1 X133.259 Y114.356 E0.27487
G1 X133.193 Y114.198 E0.00792
G1 X129.004 Y110.009 E0.27487
G1 X128.846 Y109.943 E0.00792
G1 X122.921 Y109.943 E0.27487
G1 X122.763 Y110.009 E0.00792
G1 X118.574 Y114.198 E0.27487
G1 X118.509 Y114.356 E0.00792
G1 X118.509 Y120.281 E0.27487
G1 X118.574 Y120.438 E0.00792
G1 X122.763 Y124.628 E0.27487
;WIPE_START
M204 S4000
G1 X122.763 Y125.028 F27000
;WIPE_END
M204 S2000
G1 X122.51 Y124.971
;TYPE:Internal perimeter
;WIDTH:0.467977
G1 F1800
G1 X122.562 Y125.011 E0.00279
;WIDTH:0.502029
G1 X122.665 Y125.09 E0.00603
G1 X122.793 Y125.107 E0.00603
;WIDTH:0.467976
G1 X122.921 Y125.124 E0.00557
G1 X128.846 Y125.124 E0.25515
G1 X128.974 Y125.107 E0.00557
;WIDTH:0.502029
G1 X129.103 Y125.09 E0.00603
G1 X129.205 Y125.011 E0.00603
;WIDTH:0.467977
G1 X129.308 Y124.932 E0.00557
G1 X133.497 Y120.743 E0.25515
G1 X133.576 Y120.64 E0.00557
;WIDTH:0.50203
G1 X133.655 Y120.537 E0.00603
G1 X133.672 Y120.409 E0.00603
;WIDTH:0.467976
G1 X133.689 Y120.281 E0.00557
G1 X133.689 Y114.356 E0.25515
G1 X133.672 Y114.227 E0.00557
;WIDTH:0.50203
G1 X133.655 Y114.099 E0.00603
G1 X133.576 Y113.996 E0.00603
;WIDTH:0.467975
G1 X133.497 Y113.894 E0.00557
G1 X129.308 Y109.704 E0.25514
G1 X129.205 Y109.626 E0.00557
;WIDTH:0.502029
G1 X129.103 Y109.547 E0.00603
G1 X128.974 Y109.53 E0.00603
;WIDTH:0.467976
G1 X128.846 Y109.513 E0.00557
G1 X122.921 Y109.513 E0.25515
G1 X122.793 Y109.53 E0.00557
;WIDTH:0.502029
G1 X122.665 Y109.547 E0.00603
G1 X122.562 Y109.626 E0.00603
;WIDTH:0.467977
G1 X122.459 Y109.704 E0.00557
G1 X118.27 Y113.894 E0.25515
G1 X118.191 Y113.996 E0.00557
;WIDTH:0.502029
G1 X118.112 Y114.099 E0.00603
G1 X118.095 Y114.227 E0.00603
;WIDTH:0.467976
G1 X118.078 Y114.356 E0.00557
G1 X118.078 Y120.281 E0.25515
G1 X118.095 Y120.409 E0.00557
;WIDTH:0.502029
G1 X118.112 Y120.537 E0.00603
G1 X118.191 Y120.64 E0.00603
;WIDTH:0.467977
G1 X118.27 Y120.743 E0.00557
G1 X122.459 Y124.932 E0.25515
G1 X122.51 Y124.971 E0.00279
G1 E-0.5 F3000
M204 S4000
G1 Z0.45 F27000
; stop printing object Double-Sided Snap - Part B - Standard (0.5) v2.stl id:0 copy 0
EXCLUDE_OBJECT_END NAME=Double_Sided_Snap_Part_B_Standard_0_5_v2_stl_id_0_copy_0
; printing object 8 mm, Offset Snap - DS Part A (2).stl id:1 copy 0
EXCLUDE_OBJECT_START NAME=8_mm_Offset_Snap_DS_Part_A_2_stl_id_1_copy_0
; acceleration to travel
M204 S10000
G1 X103.134 Y122.521
; decel to extrusion
M204 S1000
G1 X101.197 Y122.276
; end travel
G1 Z0.25
G1 E0.5 F1800
;TYPE:External perimeter
;WIDTH:0.499999
G1 X101.548 Y122.404 E0.01733
G1 X105.113 Y122.407 E0.16541
G1 X105.725 Y122.687 E0.03124
G1 X106.405 Y122.803 E0.03199
G1 X106.769 Y122.789 E0.01691
G1 X107.339 Y122.678 E0.02693
G1 X107.919 Y122.407 E0.02969
G1 X110.463 Y122.407 E0.11804
G1 X111.166 Y122.758 E0.03647
G1 X111.166 Y124.412 E0.07672
G1 X107.073 Y124.412 E0.18991
G1 X106.918 Y124.453 E0.00744
G1 X104.861 Y125.908 E0.11688
G1 X104.766 Y126.09 E0.00952
G1 X104.766 Y126.427 E0.01566
G1 X97.466 Y126.427 E0.33867
G1 X97.466 Y108.936 E0.81146
G1 X104.766 Y108.936 E0.33867
G1 X104.766 Y109.274 E0.01566
G1 X104.861 Y109.456 E0.00952
G1 X106.918 Y110.911 E0.11688
G1 X107.045 Y110.952 E0.00619
G1 X111.166 Y110.952 E0.19121
G1 X111.166 Y112.605 E0.07672
G1 X110.463 Y112.957 E0.03647
G1 X107.919 Y112.957 E0.11803
G1 X107.343 Y112.687 E0.02953
G1 X106.848 Y112.579 E0.02351
G1 X106.16 Y112.582 E0.03189
G1 X105.673 Y112.693 E0.02319
G1 X105.113 Y112.957 E0.0287
G1 X101.605 Y112.957 E0.16277
G1 X101.398 Y112.991 E0.00975
G1 X101.163 Y113.116 E0.0123
G1 X100.965 Y113.369 E0.01495
G1 X100.766 Y114.169 E0.03825
G1 X100.766 Y121.195 E0.32593
G1 X100.829 Y121.506 E0.01472
G1 X100.97 Y121.997 E0.02372
G1 X101.197 Y122.276 E0.01666
;WIPE_START
M204 S4000
G1 X101.195 Y122.676 F27000
;WIPE_END
M204 S2000
G1 X100.949 Y122.617
;TYPE:Internal perimeter
G1 F1800
G1 X101.096 Y122.725 E0.00845
G1 X101.547 Y122.85 E0.02175
G1 X105.013 Y122.853 E0.16076
G1 X105.651 Y123.128 E0.03222
G1 X105.88 Y123.165 E0.01077
;WIDTH:0.538928
G1 X106.109 Y123.202 E0.01171
;WIDTH:0.577856
G1 X106.338 Y123.239 E0.01265
;WIDTH:0.616784
G1 X106.567 Y123.276 E0.01359
;WIDTH:0.643357
G1 X106.797 Y123.313 E0.01423
G1 X107.007 Y123.286 E0.01302
G1 X107.138 Y123.235 E0.00857
;WIDTH:0.595571
G1 X107.268 Y123.184 E0.00787
;WIDTH:0.547785
G1 X107.398 Y123.133 E0.00718
;WIDTH:0.499999
G1 X108.018 Y122.853 E0.03157
G1 X110.358 Y122.853 E0.10855
G1 X110.72 Y123.034 E0.01878
G1 X110.72 Y123.966 E0.04322
G1 X107.477 Y123.966 E0.15045
G1 X107.376 Y123.948 E0.00476
;WIDTH:0.547785
G1 X107.275 Y123.93 E0.00527
;WIDTH:0.595571
G1 X107.174 Y123.912 E0.00578
;WIDTH:0.655712
G1 X107.073 Y123.894 E0.00642
G1 X106.88 Y123.907 E0.01213
G1 X106.836 Y123.943 E0.00357
;WIDTH:0.59732
G1 X106.748 Y124.016 E0.00644
;WIDTH:0.499999
G1 X104.546 Y125.588 E0.12552
G1 X104.369 Y125.981 E0.01998
G1 X97.913 Y125.981 E0.29953
G1 X97.913 Y109.383 E0.77004
G1 X104.369 Y109.383 E0.29952
G1 X104.546 Y109.775 E0.01998
G1 X104.603 Y109.82 E0.00338
G1 X106.66 Y111.275 E0.11688
M73 P4 R24
G1 X106.917 Y111.385 E0.01296
G1 X110.72 Y111.398 E0.17645
G1 X110.72 Y112.329 E0.04322
G1 X110.358 Y112.51 E0.01878
G1 X108.018 Y112.51 E0.10854
G1 X107.391 Y112.235 E0.0318
G1 X106.846 Y112.132 E0.02575
G1 X106.013 Y112.152 E0.03861
G1 X105.482 Y112.289 E0.02546
G1 X105.013 Y112.51 E0.02405
G1 X101.605 Y112.51 E0.15812
G1 X101.317 Y112.552 E0.01349
G1 X100.885 Y112.765 E0.02237
G1 X100.597 Y113.116 E0.02102
G1 X100.416 Y113.687 E0.02779
G1 X100.32 Y114.169 E0.02284
G1 X100.32 Y121.195 E0.32593
G1 X100.333 Y121.325 E0.00607
G1 X100.48 Y121.927 E0.02874
G1 X100.618 Y122.272 E0.01724
G1 X100.805 Y122.511 E0.01408
G1 X100.949 Y122.617 E0.00829
G1 X100.759 Y123.035 F27000
G1 F1800
G1 X101.152 Y123.224 E0.02025
G1 X101.547 Y123.297 E0.01862
