; generated by SuperSlicer 2.5.59.8 on 2024-03-11 at 10:21:22 UTC


;
;

;
;
; 

; external perimeters extrusion width = 0.50mm
; perimeters extrusion width = 0.50mm
; infill extrusion width = 0.50mm
; solid infill extrusion width = 0.50mm
; top infill extrusion width = 0.50mm
; first layer extrusion width = 0.50mm

; external perimeters extrusion width = 0.50mm
; perimeters extrusion width = 0.50mm
; infill extrusion width = 0.50mm
; solid infill extrusion width = 0.50mm
; top infill extrusion width = 0.50mm
; first layer extrusion width = 0.50mm

; object:{"name":"Multitool","id":"Multitool.stl id:0 copy 0","object_center":[145.583687,110.762009,0.000000],"boundingbox_center":[145.583687,110.762009,3.080650],"boundingbox_size":[30.235596,48.399902,6.161301]}
EXCLUDE_OBJECT_DEFINE NAME=Multitool_stl_id_0_copy_0 CENTER=145.583687,110.762009 POLYGON=[[130.47,105.23],[148.21,86.56],[158.32,86.56],[160.70,105.61],[160.70,134.96],[145.83,134.96],[132.24,127.50],[130.47,125.67],[130.47,105.23]]
; object:{"name":"Offset Snaps Removal Tool","id":"Offset Snaps Removal Tool.stl id:1 copy 0","object_center":[112.298515,117.500000,0.000000],"boundingbox_center":[112.298515,117.500000,4.000000],"boundingbox_size":[76.000000,72.250000,8.000000]}
EXCLUDE_OBJECT_DEFINE NAME=Offset_Snaps_Removal_Tool_stl_id_1_copy_0 CENTER=112.298515,117.500000 POLYGON=[[74.30,82.38],[74.30,82.29],[74.31,82.20],[74.33,82.12],[74.36,82.03],[74.39,81.95],[74.43,81.88],[74.48,81.80],[74.53,81.73],[74.59,81.67],[74.66,81.61],[74.72,81.56],[74.80,81.51],[74.88,81.47],[74.96,81.44],[75.04,81.41],[75.12,81.39],[75.21,81.38],[75.30,81.38],[83.30,81.38],[83.39,81.38],[83.47,81.39],[83.56,81.41],[83.64,81.44],[83.72,81.47],[125.49,99.29],[126.01,99.77],[150.30,140.63],[150.30,153.63],[84.79,153.63],[84.60,153.62],[84.40,153.61],[84.20,153.59],[74.90,152.63],[74.30,152.02],[74.30,82.38]]
; plater:{"center":[117.500000,117.500000,0.000000],"boundingbox_center":[117.500000,117.500000,4.000000],"boundingbox_size":[86.402969,72.250000,8.000000]}

M73 P0 R30
M107
;TYPE:Custom
; custom gcode: start_gcode
START_PRINT
; custom gcode end: start_gcode

G21 ; set units to millimeters
G90 ; use absolute coordinates
M83 ; use relative distances for extrusion
; custom gcode: start_filament_gcode
; Filament gcode
; Macro syntax: https://help.prusa3d.com/article/macros_1775

; Set pressure advance per-filament
;SET_PRESSURE_ADVANCE ADVANCE=0.0x

; Set pressure advance per-filament for different nozzle sizes
;SET_PRESSURE_ADVANCE ADVANCE=0.0x
;

; custom gcode end: start_filament_gcode
M104 S210 ; set temperature
M109 S210 ; set temperature and wait for it to be reached
M190 S60 ; set bed temperature and wait for it to be reached
;LAYER_CHANGE
;Z:0.3
;HEIGHT:0.3
G1 Z0.3 F27000
G92 E0
M73 P1 R30
G1 E-0.5 F3000
G1 Z0.5 F27000
M204 S2000
G1 X72.491 Y79.473
G1 Z0.3
G1 E0.5 F1800
;TYPE:Skirt
;WIDTH:0.46
G1 X71.735 Y80.474 E0.0619
G1 X71.351 Y81.541 E0.05592
G1 X71.255 Y82.384 E0.0419
G1 X71.255 Y151.984 E3.43429
G1 X71.429 Y153.088 E0.05518
G1 X72.308 Y154.525 E0.08308
G1 X74.569 Y155.649 E0.12463
G1 X84.796 Y156.668 E0.50712
G1 X150.199 Y156.668 E3.22723
G1 X152.398 Y155.916 E0.11472
G1 X153.451 Y154.602 E0.08308
G1 X162.004 Y136.389 E0.99286
G1 X162.345 Y134.862 E0.07722
G1 X162.336 Y105.363 E1.45558
G1 X160.966 Y86.403 E0.93801
G1 X160.424 Y84.75 E0.08584
G1 X159.219 Y83.574 E0.08308
G1 X157.611 Y83.076 E0.08308
G1 X83.539 Y78.34 E3.66244
G1 X75.771 Y78.332 E0.38333
G1 X74.616 Y78.396 E0.05709
G1 X73.552 Y78.736 E0.05512
G1 X72.491 Y79.473 E0.06374
G1 X72.771 Y79.753 F27000
G1 F1800
G1 X72.081 Y80.665 E0.05642
G1 X71.74 Y81.614 E0.04976
G1 X71.651 Y82.384 E0.03825
G1 X71.651 Y151.984 E3.43429
G1 X71.779 Y152.879 E0.04465
G1 X72.587 Y154.245 E0.0783
G1 X74.61 Y155.256 E0.11157
G1 X84.796 Y156.273 E0.5051
G1 X150.199 Y156.273 E3.22723
G1 X152.083 Y155.658 E0.09781
G1 X153.093 Y154.434 E0.0783
G1 X161.646 Y136.221 E0.99286
M73 P2 R30
G1 X161.949 Y134.862 E0.06872
G1 X161.941 Y105.392 E1.45417
G1 X160.571 Y86.432 E0.93801
G1 X160.182 Y85.118 E0.06761
G1 X159.095 Y83.962 E0.0783
G1 X157.586 Y83.471 E0.0783
G1 X83.514 Y78.735 E3.66244
G1 X75.771 Y78.727 E0.38209
G1 X74.676 Y78.787 E0.05409
G1 X73.73 Y79.09 E0.04905
G1 X72.771 Y79.753 E0.05753
G1 E-0.5 F3000
M204 S4000
G1 Z0.5 F27000
; printing object Multitool.stl id:0 copy 0
EXCLUDE_OBJECT_START NAME=Multitool_stl_id_0_copy_0
; acceleration to travel
M204 S10000
G1 X143.454 Y126.729
; decel to extrusion
M204 S1000
G1 X150.522 Y131.427
; end travel
G1 Z0.3
G1 E0.5 F1800
;TYPE:External perimeter
;WIDTH:0.5
G1 X150.494 Y133.251 E0.09913
G1 X150.435 Y134.612 E0.07401
G1 X148.027 Y134.612 E0.13083
G1 X148.027 Y105.664 E1.57285
G1 X149.399 Y101.584 E0.23385
G1 X149.399 Y86.912 E0.79716
G1 X157.132 Y86.912 E0.42015
G1 X157.132 Y101.584 E0.79716
G1 X158.501 Y105.663 E0.23382
G1 X158.501 Y134.612 E1.57285
G1 X156.094 Y134.612 E0.13083
G1 X156.034 Y133.251 E0.07401
G1 X156.006 Y131.426 E0.09916
G1 X155.918 Y131.255 E0.01049
G1 X155.789 Y131.212 E0.00742
G1 X150.74 Y131.212 E0.27431
G1 X150.61 Y131.255 E0.00742
G1 X150.522 Y131.427 E0.01049
;WIPE_START
M204 S4000
G1 X150.147 Y131.566 F27000
;WIPE_END
M204 S2000
G1 X150.113 Y131.321
;TYPE:Internal perimeter
G1 F1800
G1 X150.086 Y131.42 E0.00555
G1 X150.059 Y133.238 E0.09879
G1 X150.018 Y134.176 E0.05101
G1 X148.463 Y134.176 E0.0845
G1 X148.463 Y105.735 E1.54528
M73 P2 R29
G1 X149.8 Y101.794 E0.22614
G1 X149.834 Y101.584 E0.01156
G1 X149.834 Y87.348 E0.77349
G1 X156.696 Y87.348 E0.37282
G1 X156.696 Y101.584 E0.77349
G1 X156.73 Y101.794 E0.01155
G1 X158.066 Y105.735 E0.22612
G1 X158.066 Y134.176 E1.54529
G1 X156.511 Y134.176 E0.0845
G1 X156.47 Y133.238 E0.05101
G1 X156.442 Y131.42 E0.09883
G1 X156.362 Y131.116 E0.01707
G1 X156.177 Y130.904 E0.01524
G1 X155.97 Y130.802 E0.01257
G1 X155.789 Y130.776 E0.00996
G1 X151.533 Y130.777 E0.23119
G1 X150.558 Y130.803 E0.05299
G1 X150.351 Y130.905 E0.01257
G1 X150.167 Y131.117 E0.01524
G1 X150.113 Y131.321 E0.01151
M204 S1000
G1 X154.392 Y125.751 F27000
;TYPE:External perimeter
G1 F1800
G1 X154.546 Y125.687 E0.00906
G1 X156.608 Y123.625 E0.15846
G1 X156.672 Y123.472 E0.00902
G1 X156.707 Y112.535 E0.59426
G1 X156.644 Y112.38 E0.00909
G1 X154.566 Y110.303 E0.15961
G1 X154.412 Y110.239 E0.00906
G1 X152.116 Y110.239 E0.12474
G1 X151.962 Y110.303 E0.00906
G1 X149.871 Y112.394 E0.16072
G1 X149.807 Y112.548 E0.00906
G1 X149.807 Y123.492 E0.59459
G1 X149.871 Y123.646 E0.00906
G1 X151.95 Y125.725 E0.15973
G1 X152.11 Y125.788 E0.00941
G1 X153.27 Y125.751 E0.06304
G1 X154.392 Y125.751 E0.06094
;WIPE_START
M204 S4000
G1 X154.675 Y126.034 F27000
;WIPE_END
M204 S2000
G1 X154.423 Y126.175
;TYPE:Internal perimeter
G1 F1800
G1 X154.529 Y126.172 E0.00575
G1 X154.854 Y125.996 E0.02012
G1 X156.916 Y123.933 E0.15846
G1 X157.098 Y123.584 E0.02138
G1 X157.143 Y112.534 E0.6004
G1 X156.952 Y112.072 E0.02717
G1 X154.874 Y109.995 E0.15961
G1 X154.722 Y109.881 E0.01029
G1 X154.412 Y109.803 E0.01737
G1 X152.116 Y109.803 E0.12474
G1 X151.957 Y109.823 E0.00873
G1 X151.654 Y109.995 E0.0189
G1 X149.563 Y112.086 E0.16072
G1 X149.371 Y112.548 E0.02717
G1 X149.381 Y123.605 E0.60073
G1 X149.563 Y123.954 E0.02138
G1 X151.641 Y126.033 E0.15973
G1 X151.84 Y126.169 E0.01307
G1 X152.124 Y126.224 E0.01575
G1 X154.423 Y126.175 E0.12491
G1 E-0.5 F3000
M204 S4000
G1 Z0.5 F27000
; acceleration to travel
M204 S10000
G1 X157.074 Y114.807
; decel to extrusion
M204 S2000
G1 X157.604 Y112.534
; end travel
G1 Z0.3
G1 E0.5 F1800
;WIDTH:0.551667
G1 X157.596 Y118.006 E0.33259
;WIDTH:0.587201
G1 X157.578 Y123.668 E0.36923
G1 E-0.5 F3000
M204 S4000
G1 Z0.5 F27000
; acceleration to travel
M204 S10000
G1 X150.367 Y123.682
; decel to extrusion
M204 S2000
G1 X148.925 Y123.685
; end travel
G1 Z0.3
G1 E0.5 F1800
;WIDTH:0.554245
G1 X148.917 Y112.548 E0.68042
G1 E-0.5 F3000
M204 S4000
G1 Z0.5 F27000
; acceleration to travel
M204 S10000
G1 X156.156 Y112.536
; decel to extrusion
M204 S2000
G1 X157.604 Y112.534
; end travel
G1 Z0.3
G1 E0.5 F1800
;WIDTH:0.551663
G1 X157.432 Y112.149 E0.02564
;WIDTH:0.5
G1 X157.26 Y111.764 E0.02292
G1 X155.182 Y109.687 E0.15961
M73 P3 R29
G1 X154.929 Y109.498 E0.01716
G1 X154.678 Y109.4 E0.01464
G1 X154.412 Y109.368 E0.01454
G1 X152.116 Y109.368 E0.12474
G1 X151.851 Y109.4 E0.01455
G1 X151.6 Y109.498 E0.01464
G1 X151.346 Y109.687 E0.01715
G1 X149.255 Y111.778 E0.16072
G1 X149.086 Y112.163 E0.02284
;WIDTH:0.537451
G1 X148.917 Y112.548 E0.02481
G1 X148.908 Y112.089 E0.02708
;WIDTH:0.5
G1 X148.898 Y105.807 E0.34133
G1 X150.212 Y101.934 E0.22224
G1 X150.27 Y101.584 E0.01926
G1 X150.27 Y87.783 E0.74982
G1 X156.26 Y87.783 E0.32548
G1 X156.26 Y101.584 E0.74982
G1 X156.318 Y101.933 E0.01924
G1 X157.63 Y105.807 E0.22222
G1 X157.617 Y112.072 E0.3404
;WIDTH:0.551663
G1 X157.604 Y112.534 E0.02808
G1 E-0.5 F3000
M204 S4000
G1 Z0.5 F27000
; acceleration to travel
M204 S10000
G1 X151.006 Y128.039
; decel to extrusion
M204 S2000
G1 X149.687 Y131.14
; end travel
G1 Z0.3
G1 E0.5 F1800
;WIDTH:0.579285
G1 X149.657 Y131.21 E0.00493
;WIDTH:0.641113
G1 X149.572 Y131.412 E0.01577
G1 X149.533 Y133.67 E0.16243
G1 X149.257 Y133.67 E0.01986
;WIDTH:0.658571
G1 X148.969 Y133.67 E0.02137
G1 X148.977 Y131.408 E0.16766
G1 X148.962 Y131.262 E0.01084
;WIDTH:0.618928
G1 X148.946 Y131.117 E0.01012
;WIDTH:0.579285
G1 X148.93 Y130.972 E0.00939
;WIDTH:0.539642
G1 X148.914 Y130.826 E0.00867
;WIDTH:0.5
G1 X148.898 Y130.681 E0.00795
G1 X148.898 Y124.41 E0.34074
G1 X148.912 Y124.047 E0.01971
;WIDTH:0.554245
G1 X148.925 Y123.685 E0.02216
G1 X149.09 Y123.973 E0.0203
;WIDTH:0.5
G1 X149.255 Y124.262 E0.01805
G1 X151.333 Y126.341 E0.15973
G1 X151.664 Y126.567 E0.02178
G1 X151.893 Y126.639 E0.01306
G1 X152.138 Y126.659 E0.01335
G1 X153.284 Y126.623 E0.06228
G1 X154.392 Y126.623 E0.06019
G1 X154.58 Y126.606 E0.01027
G1 X154.833 Y126.529 E0.01436
G1 X155.162 Y126.304 E0.02168
G1 X157.224 Y124.241 E0.15846
G1 X157.313 Y124.098 E0.00915
;WIDTH:0.534785
G1 X157.401 Y123.955 E0.00988
;WIDTH:0.569571
G1 X157.49 Y123.812 E0.01061
;WIDTH:0.604357
G1 X157.578 Y123.668 E0.01134
G1 X157.591 Y123.854 E0.01251
;WIDTH:0.569571
G1 X157.604 Y124.039 E0.0117
;WIDTH:0.534785
G1 X157.617 Y124.224 E0.0109
;WIDTH:0.5
G1 X157.63 Y124.41 E0.01009
G1 X157.63 Y130.68 E0.34069
G1 X157.614 Y130.825 E0.00795
;WIDTH:0.539645
G1 X157.599 Y130.971 E0.00867
;WIDTH:0.57929
G1 X157.583 Y131.116 E0.0094
;WIDTH:0.618935
G1 X157.567 Y131.262 E0.01012
;WIDTH:0.658581
G1 X157.551 Y131.407 E0.01084
G1 X157.56 Y133.67 E0.16772
G1 X156.995 Y133.67 E0.04183
G1 X156.957 Y131.412 E0.16741
G1 X156.914 Y131.311 E0.00812
;WIDTH:0.618935
G1 X156.872 Y131.21 E0.00758
;WIDTH:0.57929
G1 X156.829 Y131.109 E0.00704
;WIDTH:0.539645
G1 X156.786 Y131.008 E0.0065
;WIDTH:0.5
G1 X156.744 Y130.907 E0.00596
G1 X156.437 Y130.554 E0.0254
G1 X156.091 Y130.383 E0.02096
G1 X155.788 Y130.341 E0.01659
G1 X150.869 Y130.341 E0.26727
G1 X150.437 Y130.384 E0.02358
G1 X150.092 Y130.555 E0.02095
G1 X149.784 Y130.907 E0.0254
G1 X149.742 Y131.008 E0.00595
;WIDTH:0.539642
G1 X149.699 Y131.109 E0.0065
;WIDTH:0.579285
G1 X149.687 Y131.14 E0.00211
; acceleration to travel
M204 S10000
G1 X155.829 Y125.682 F27000
; decel to extrusion
M204 S2000
G1 X157.075 Y124.575
; end travel
;TYPE:Solid infill
;WIDTH:0.46395
G1 F3600
G1 X157.5 Y125 E0.03029
G1 X157.5 Y125.616 F27000
G1 F3600
G1 X156.767 Y124.884 E0.05226
G1 X156.459 Y125.192 F27000
G1 F3600
G1 X157.5 Y126.233 E0.07422
G1 X157.5 Y126.849 F27000
G1 F3600
G1 X156.151 Y125.5 E0.09618
G1 X155.843 Y125.808 F27000
G1 F3600
G1 X157.5 Y127.465 E0.11814
G1 X157.5 Y128.081 F27000
G1 F3600
G1 X155.535 Y126.116 E0.1401
G1 X155.22 Y126.417 F27000
G1 F3600
G1 X157.5 Y128.697 E0.16251
G1 X157.5 Y129.313 F27000
G1 F3600
G1 X154.846 Y126.66 E0.18916
G1 X154.325 Y126.754 F27000
G1 F3600
G1 X157.5 Y129.929 E0.22635
G1 X157.5 Y130.545 F27000
G1 F3600
G1 X153.719 Y126.764 E0.26957
G1 X153.112 Y126.774 F27000
G1 F3600
G1 X157.5 Y131.161 E0.31279
G1 X155.957 Y130.235 F27000
G1 F3600
G1 X152.506 Y126.784 E0.24605
G1 X151.844 Y126.737 F27000
G1 F3600
G1 X155.316 Y130.21 E0.2476
G1 X154.701 Y130.21 F27000
G1 F3600
G1 X149.029 Y124.538 E0.40438
G1 X149.029 Y125.154 F27000
G1 F3600
G1 X154.085 Y130.21 E0.36046
G1 X153.469 Y130.21 F27000
G1 F3600
G1 X149.029 Y125.771 E0.31654
G1 X149.029 Y126.387 F27000
G1 F3600
G1 X152.853 Y130.21 E0.27262
G1 X152.237 Y130.21 F27000
G1 F3600
G1 X149.029 Y127.003 E0.2287
G1 X149.029 Y127.619 F27000
G1 F3600
G1 X151.621 Y130.21 E0.18479
G1 X151.005 Y130.211 F27000
G1 F3600
G1 X149.029 Y128.235 E0.14087
G1 X149.029 Y128.851 F27000
G1 F3600
G1 X150.433 Y130.255 E0.10011
G1 X150.015 Y130.453 F27000
G1 F3600
G1 X149.029 Y129.467 E0.07027
G1 X149.029 Y130.083 F27000
G1 F3600
G1 X149.728 Y130.782 E0.04982
G1 X149.441 Y131.111 F27000
G1 F3600
G1 X149.029 Y130.699 E0.02936
G1 E-0.5 F3000
M204 S4000
G1 Z0.5 F27000
; acceleration to travel
M204 S10000
G1 X154.212 Y95.045
; decel to extrusion
M204 S2000
G1 X155.249 Y87.914
; end travel
G1 Z0.3
G1 E0.5 F1800
;WIDTH:0.479935
G1 F3600
G1 X156.13 Y88.795 E0.06495
G1 X156.13 Y89.411 F27000
G1 F3600
G1 X154.633 Y87.914 E0.11039
G1 X154.017 Y87.914 F27000
G1 F3600
G1 X156.13 Y90.027 E0.15582
G1 X156.13 Y90.643 F27000
G1 F3600
G1 X153.401 Y87.914 E0.20126
G1 X152.785 Y87.914 F27000
G1 F3600
G1 X156.13 Y91.259 E0.2467
G1 X156.13 Y91.875 F27000
G1 F3600
G1 X152.169 Y87.914 E0.29213
G1 X151.553 Y87.914 F27000
G1 F3600
G1 X156.13 Y92.491 E0.33757
G1 X156.13 Y93.107 F27000
G1 F3600
G1 X150.937 Y87.914 E0.38301
G1 X150.4 Y87.994 F27000
G1 F3600
G1 X156.13 Y93.723 E0.42256
G1 X156.13 Y94.339 F27000
G1 F3600
G1 X150.4 Y88.61 E0.42257
G1 X150.4 Y89.225 F27000
G1 F3600
G1 X156.13 Y94.955 E0.42259
G1 X156.13 Y95.571 F27000
G1 F3600
G1 X150.4 Y89.841 E0.4226
G1 X150.4 Y90.457 F27000
G1 F3600
G1 X156.13 Y96.187 E0.42262
G1 X156.13 Y96.803 F27000
G1 F3600
G1 X150.399 Y91.073 E0.42263
G1 X150.399 Y91.689 F27000
G1 F3600
G1 X156.13 Y97.419 E0.42265
G1 X156.13 Y98.035 F27000
G1 F3600
G1 X150.399 Y92.305 E0.42266
G1 X150.399 Y92.921 F27000
G1 F3600
G1 X156.13 Y98.651 E0.42267
G1 X156.13 Y99.268 F27000
G1 F3600
G1 X150.399 Y93.537 E0.42269
G1 X150.398 Y94.152 F27000
G1 F3600
G1 X156.13 Y99.884 E0.4227
G1 X156.13 Y100.5 F27000
G1 F3600
G1 X150.398 Y94.768 E0.42272
G1 X150.398 Y95.384 F27000
G1 F3600
G1 X156.13 Y101.116 E0.42273
G1 X156.158 Y101.76 F27000
G1 F3600
G1 X150.398 Y96 E0.42484
G1 X150.398 Y96.616 F27000
G1 F3600
G1 X156.418 Y102.636 E0.44403
G1 X156.734 Y103.568 F27000
G1 F3600
G1 X150.398 Y97.232 E0.46733
G1 X150.397 Y97.848 F27000
G1 F3600
G1 X157.049 Y104.5 E0.49062
G1 X157.365 Y105.431 F27000
G1 F3600
G1 X150.397 Y98.463 E0.51392
G1 X150.397 Y99.079 F27000
G1 F3600
G1 X157.5 Y106.182 E0.52385
G1 X157.5 Y106.798 F27000
G1 F3600
G1 X150.397 Y99.695 E0.52387
G1 X150.397 Y100.311 F27000
G1 F3600
G1 X157.5 Y107.414 E0.52388
G1 X157.5 Y108.03 F27000
G1 F3600
G1 X150.396 Y100.927 E0.5239
G1 X150.396 Y101.543 F27000
G1 F3600
G1 X157.5 Y108.646 E0.52391
G1 X157.5 Y109.262 F27000
G1 F3600
G1 X150.305 Y102.067 E0.53066
G1 X150.149 Y102.527 F27000
G1 F3600
G1 X157.5 Y109.878 E0.54216
G1 X157.5 Y110.494 F27000
G1 F3600
G1 X149.993 Y102.987 E0.55367
G1 X149.837 Y103.447 F27000
G1 F3600
G1 X157.5 Y111.11 E0.56518
G1 X157.5 Y111.727 F27000
G1 F3600
G1 X149.681 Y103.907 E0.57669
G1 X149.525 Y104.368 F27000
G1 F3600
G1 X154.395 Y109.238 E0.35919
G1 X153.778 Y109.237 F27000
G1 F3600
G1 X149.368 Y104.828 E0.32525
G1 X149.212 Y105.288 F27000
G1 F3600
G1 X153.162 Y109.237 E0.2913
G1 X152.546 Y109.237 F27000
G1 F3600
G1 X149.056 Y105.748 E0.25736
G1 X149.029 Y106.336 F27000
G1 F3600
G1 X151.95 Y109.257 E0.21545
G1 X151.494 Y109.417 F27000
G1 F3600
G1 X149.029 Y106.952 E0.18178
G1 X149.029 Y107.568 F27000
G1 F3600
G1 X151.154 Y109.694 E0.15677
G1 X150.846 Y110.002 F27000
G1 F3600
G1 X149.029 Y108.184 E0.13405
G1 X149.029 Y108.8 F27000
G1 F3600
G1 X150.538 Y110.31 E0.11133
G1 X150.23 Y110.618 F27000
G1 F3600
G1 X149.029 Y109.416 E0.08861
G1 X149.029 Y110.032 F27000
G1 F3600
G1 X149.922 Y110.926 E0.06589
G1 X149.614 Y111.234 F27000
G1 F3600
